;FLAVOR:Marlin
;TIME:2109
;Filament used: 3.20714m
;Layer height: 0.2
;MINX:61.4
;MINY:79.4
;MINZ:0.2
;MAXX:138.6
;MAXY:120.6
;MAXZ:9
;Generated with Cura_SteamEngine 4.3.0
M140 S50
M105
M190 S50
M104 S195
M105
M109 S195
M82 ;absolute extrusion mode
G21 ;metric values
G90 ;absolute positioning
M82 ;set extruder to absolute mode
M107 ;start with the fan off
G28 X0 Y0 ;move X/Y to min endstops
G28 Z0 ;move Z to min endstops
G1 Z15.0 F120 ;move the platform down 15mm
G92 E0 ;zero the extruded length
G1 F200 E3 ;extrude 6 mm of feed stock
G92 E0 ;zero the extruded length again
G1 F120
;Put printing message on LCD screen
M117 Printing...
G92 E0
G92 E0
G1 F2400 E-3
;LAYER_COUNT:45
;LAYER:0
M107
G0 F3600 X63.322 Y80.795 Z0.2
;TYPE:SKIRT
G1 F2400 E0
G1 F1800 X63.851 Y80.385 E0.02226
G1 X64.425 Y80.042 E0.0445
G1 X65.035 Y79.769 E0.06673
G1 X65.674 Y79.571 E0.08898
G1 X66.333 Y79.45 E0.11126
G1 X66.853 Y79.411 E0.12861
G1 X67.173 Y79.402 E0.13925
G1 X67.33 Y79.4 E0.14448
G1 X132.293 Y79.4 E2.30516
G1 X132.373 Y79.401 E2.30782
G1 X133.071 Y79.411 E2.33103
G1 X133.738 Y79.46 E2.35328
G1 X134.395 Y79.589 E2.37555
G1 X135.031 Y79.795 E2.39778
G1 X135.639 Y80.076 E2.42006
G1 X136.208 Y80.426 E2.44228
G1 X136.732 Y80.843 E2.46455
G1 X137.202 Y81.319 E2.4868
G1 X137.612 Y81.847 E2.50904
G1 X137.957 Y82.421 E2.53131
G1 X138.23 Y83.032 E2.55357
G1 X138.428 Y83.671 E2.57582
G1 X138.549 Y84.329 E2.59807
G1 X138.589 Y84.853 E2.61555
G1 X138.598 Y85.173 E2.6262
G1 X138.6 Y85.33 E2.63142
G1 X138.6 Y90.274 E2.79586
G1 X138.599 Y90.353 E2.79849
G1 X138.574 Y92.117 E2.85716
G1 X138.573 Y92.201 E2.85996
G1 X138.56 Y92.653 E2.875
G1 X138.556 Y95.283 E2.96247
G1 X138.599 Y97.209 E3.02655
G1 X138.6 Y97.335 E3.03074
G1 X138.6 Y102.274 E3.19501
G1 X138.599 Y102.353 E3.19764
G1 X138.574 Y104.117 E3.25631
G1 X138.573 Y104.201 E3.25911
G1 X138.56 Y104.653 E3.27415
G1 X138.556 Y107.283 E3.36162
G1 X138.599 Y109.209 E3.4257
G1 X138.6 Y109.335 E3.42989
G1 X138.6 Y114.264 E3.59383
G1 X138.599 Y114.341 E3.59639
G1 X138.589 Y115.068 E3.62057
G1 X138.54 Y115.735 E3.64281
G1 X138.412 Y116.392 E3.66508
G1 X138.206 Y117.028 E3.68731
G1 X137.926 Y117.636 E3.70958
G1 X137.575 Y118.206 E3.73184
G1 X137.159 Y118.73 E3.75409
G1 X136.684 Y119.2 E3.77632
G1 X136.155 Y119.611 E3.7986
G1 X135.582 Y119.955 E3.82083
G1 X134.971 Y120.229 E3.8431
G1 X134.333 Y120.428 E3.86533
G1 X133.675 Y120.549 E3.88758
G1 X133.147 Y120.589 E3.90519
G1 X132.827 Y120.598 E3.91584
G1 X132.67 Y120.6 E3.92106
G1 X67.635 Y120.6 E6.08413
G1 X66.937 Y120.591 E6.10735
G1 X66.27 Y120.542 E6.1296
G1 X65.613 Y120.414 E6.15186
G1 X64.976 Y120.209 E6.17412
G1 X64.368 Y119.929 E6.19638
G1 X63.798 Y119.579 E6.21863
G1 X63.274 Y119.163 E6.24088
G1 X62.803 Y118.688 E6.26313
G1 X62.392 Y118.16 E6.28538
G1 X62.047 Y117.587 E6.30763
G1 X61.773 Y116.977 E6.32987
G1 X61.573 Y116.338 E6.35214
G1 X61.452 Y115.68 E6.37439
G1 X61.411 Y115.142 E6.39234
G1 X61.402 Y114.809 E6.40342
G1 X61.4 Y114.658 E6.40844
G1 X61.4 Y109.707 E6.57311
G1 X61.401 Y109.627 E6.57577
G1 X61.426 Y107.882 E6.63382
G1 X61.427 Y107.799 E6.63658
G1 X61.44 Y107.347 E6.65162
G1 X61.444 Y104.693 E6.73989
G1 X61.401 Y102.791 E6.80317
G1 X61.4 Y102.665 E6.80736
G1 X61.4 Y97.707 E6.97226
G1 X61.401 Y97.627 E6.97492
G1 X61.426 Y95.882 E7.03297
G1 X61.427 Y95.799 E7.03573
G1 X61.44 Y95.347 E7.05077
G1 X61.444 Y92.693 E7.13904
G1 X61.401 Y90.791 E7.20232
G1 X61.4 Y90.665 E7.20651
G1 X61.4 Y85.674 E7.37251
G1 X61.401 Y85.59 E7.3753
G1 X61.411 Y84.925 E7.39742
G1 X61.461 Y84.258 E7.41967
G1 X61.59 Y83.601 E7.44194
G1 X61.796 Y82.965 E7.46417
G1 X62.077 Y82.358 E7.48642
G1 X62.429 Y81.788 E7.5087
G1 X62.846 Y81.265 E7.53095
G1 X63.322 Y80.795 E7.5532
G0 F3600 X63.711 Y80.99
G1 F1800 X64.233 Y80.612 E7.57464
G1 X64.799 Y80.303 E7.59608
G1 X65.398 Y80.065 E7.61752
G1 X66.022 Y79.904 E7.63896
G1 X66.864 Y79.811 E7.66713
G1 X67.184 Y79.802 E7.67778
G1 X67.33 Y79.8 E7.68264
G1 X132.293 Y79.8 E9.84331
G1 X132.367 Y79.801 E9.84577
G1 X133.065 Y79.811 E9.86899
G1 X133.708 Y79.86 E9.89044
G1 X134.34 Y79.988 E9.91189
G1 X134.951 Y80.194 E9.93333
G1 X135.532 Y80.473 E9.95477
G1 X136.074 Y80.822 E9.97621
G1 X136.568 Y81.236 E9.99765
G1 X137.008 Y81.708 E10.01911
G1 X137.386 Y82.23 E10.04055
G1 X137.696 Y82.795 E10.06198
G1 X137.934 Y83.394 E10.08342
G1 X138.096 Y84.018 E10.10486
G1 X138.189 Y84.864 E10.13317
G1 X138.198 Y85.184 E10.14382
G1 X138.2 Y85.33 E10.14867
G1 X138.2 Y90.274 E10.31311
G1 X138.199 Y90.348 E10.31557
G1 X138.174 Y92.112 E10.37425
G1 X138.173 Y92.189 E10.37681
G1 X138.16 Y92.64 E10.39182
G1 X138.156 Y95.295 E10.48012
G1 X138.199 Y97.218 E10.5441
G1 X138.2 Y97.335 E10.54799
G1 X138.2 Y102.274 E10.71226
G1 X138.199 Y102.348 E10.71472
G1 X138.174 Y104.112 E10.7734
G1 X138.173 Y104.189 E10.77596
G1 X138.16 Y104.64 E10.79097
G1 X138.156 Y107.295 E10.87927
G1 X138.199 Y109.218 E10.94325
G1 X138.2 Y109.335 E10.94714
G1 X138.2 Y114.336 E11.11347
G1 X138.19 Y115.063 E11.13766
G1 X138.141 Y115.705 E11.15907
G1 X138.013 Y116.337 E11.18052
G1 X137.808 Y116.948 E11.20195
G1 X137.528 Y117.529 E11.22341
G1 X137.179 Y118.071 E11.24485
G1 X136.766 Y118.566 E11.26629
G1 X136.295 Y119.006 E11.28773
G1 X135.772 Y119.384 E11.30919
G1 X135.207 Y119.694 E11.33062
G1 X134.608 Y119.933 E11.35207
G1 X133.985 Y120.095 E11.37348
G1 X133.136 Y120.189 E11.40189
G1 X132.816 Y120.198 E11.41254
G1 X132.67 Y120.2 E11.4174
G1 X67.64 Y120.2 E13.5803
G1 X66.942 Y120.191 E13.60352
G1 X66.299 Y120.142 E13.62497
G1 X65.667 Y120.015 E13.64641
G1 X65.056 Y119.81 E13.66785
G1 X64.475 Y119.532 E13.68927
G1 X63.932 Y119.183 E13.71074
G1 X63.437 Y118.77 E13.73218
G1 X62.997 Y118.299 E13.75362
G1 X62.618 Y117.777 E13.77507
G1 X62.307 Y117.213 E13.79649
G1 X62.069 Y116.614 E13.81793
G1 X61.906 Y115.99 E13.83938
G1 X61.811 Y115.131 E13.86813
G1 X61.802 Y114.798 E13.87921
G1 X61.8 Y114.658 E13.88386
G1 X61.8 Y109.707 E14.04853
G1 X61.801 Y109.633 E14.051
G1 X61.826 Y107.888 E14.10904
G1 X61.827 Y107.811 E14.1116
G1 X61.84 Y107.36 E14.12661
G1 X61.844 Y104.685 E14.21558
G1 X61.801 Y102.782 E14.27889
G1 X61.8 Y102.665 E14.28278
G1 X61.8 Y97.707 E14.44769
G1 X61.801 Y97.633 E14.45015
G1 X61.826 Y95.888 E14.50819
G1 X61.827 Y95.811 E14.51075
G1 X61.84 Y95.36 E14.52576
G1 X61.844 Y92.685 E14.61473
G1 X61.801 Y90.782 E14.67804
G1 X61.8 Y90.665 E14.68193
G1 X61.8 Y85.674 E14.84793
G1 X61.801 Y85.596 E14.85053
G1 X61.811 Y84.931 E14.87265
G1 X61.86 Y84.288 E14.8941
G1 X61.989 Y83.656 E14.91555
G1 X62.195 Y83.045 E14.937
G1 X62.475 Y82.465 E14.95842
G1 X62.825 Y81.923 E14.97988
G1 X63.239 Y81.429 E15.00131
G1 X63.711 Y80.99 E15.02275
G1 F2400 E12.02275
;MESH:glass-holder.stl(2)
G0 F3600 X68 Y84.335
G0 X68 Y86
;TYPE:WALL-INNER
G1 F2400 E15.02275
G1 F1800 X132 Y86 E17.1514
G1 X132 Y90 E17.28444
G1 X68 Y90 E19.41309
G1 X68 Y86 E19.54613
G0 F3600 X67.6 Y85.6
G1 F1800 X132.4 Y85.6 E21.70139
G1 X132.4 Y90.4 E21.86104
G1 X67.6 Y90.4 E24.01629
G1 X67.6 Y85.6 E24.17594
G0 F3600 X67.2 Y85.2
;TYPE:WALL-OUTER
G1 F1800 X132.8 Y85.2 E26.35781
G1 X132.8 Y90.8 E26.54406
G1 X67.2 Y90.8 E28.72593
G1 X67.2 Y85.2 E28.91219
G0 F3600 X67.4 Y85.2
G0 X68.39 Y86.39
;TYPE:SKIN
G1 F1800 X131.61 Y86.39 E31.01489
G1 X131.61 Y89.61 E31.12199
G1 X68.39 Y89.61 E33.2247
G1 X68.39 Y86.39 E33.33179
G0 F3600 X69.064 Y89.429
G1 F1800 X68.569 Y88.934 E33.35508
G0 F3600 X68.569 Y88.368
G1 F1800 X69.63 Y89.429 E33.40498
G0 F3600 X70.195 Y89.429
G1 F1800 X68.569 Y87.802 E33.48149
G0 F3600 X68.569 Y87.237
G1 F1800 X70.761 Y89.429 E33.58459
G0 F3600 X71.327 Y89.429
G1 F1800 X68.569 Y86.671 E33.71432
G0 F3600 X69.033 Y86.569
G1 F1800 X71.892 Y89.429 E33.84882
G0 F3600 X72.458 Y89.429
G1 F1800 X69.599 Y86.569 E33.98332
G0 F3600 X70.164 Y86.569
G1 F1800 X73.024 Y89.429 E34.11785
G0 F3600 X73.59 Y89.429
G1 F1800 X70.73 Y86.569 E34.25238
G0 F3600 X71.296 Y86.569
G1 F1800 X74.155 Y89.429 E34.38688
G0 F3600 X74.721 Y89.429
G1 F1800 X71.861 Y86.569 E34.5214
G0 F3600 X72.427 Y86.569
G1 F1800 X75.287 Y89.429 E34.65593
G0 F3600 X75.852 Y89.429
G1 F1800 X72.993 Y86.569 E34.79043
G0 F3600 X73.558 Y86.569
G1 F1800 X76.418 Y89.429 E34.92496
G0 F3600 X76.984 Y89.429
G1 F1800 X74.124 Y86.569 E35.05948
G0 F3600 X74.69 Y86.569
G1 F1800 X77.549 Y89.429 E35.19398
G0 F3600 X78.115 Y89.429
G1 F1800 X75.255 Y86.569 E35.32851
G0 F3600 X75.821 Y86.569
G1 F1800 X78.681 Y89.429 E35.46304
G0 F3600 X79.246 Y89.429
G1 F1800 X76.387 Y86.569 E35.59754
G0 F3600 X76.953 Y86.569
G1 F1800 X79.812 Y89.429 E35.73204
G0 F3600 X80.378 Y89.429
G1 F1800 X77.518 Y86.569 E35.86657
G0 F3600 X78.084 Y86.569
G1 F1800 X80.943 Y89.429 E36.00107
G0 F3600 X81.509 Y89.429
G1 F1800 X78.65 Y86.569 E36.13557
G0 F3600 X79.215 Y86.569
G1 F1800 X82.075 Y89.429 E36.2701
G0 F3600 X82.64 Y89.429
G1 F1800 X79.781 Y86.569 E36.4046
G0 F3600 X80.347 Y86.569
G1 F1800 X83.206 Y89.429 E36.5391
G0 F3600 X83.772 Y89.429
G1 F1800 X80.912 Y86.569 E36.67363
G0 F3600 X81.478 Y86.569
G1 F1800 X84.338 Y89.429 E36.80815
G0 F3600 X84.903 Y89.429
G1 F1800 X82.044 Y86.569 E36.94265
G0 F3600 X82.609 Y86.569
G1 F1800 X85.469 Y89.429 E37.07718
G0 F3600 X86.035 Y89.429
G1 F1800 X83.175 Y86.569 E37.2117
G0 F3600 X83.741 Y86.569
G1 F1800 X86.6 Y89.429 E37.34621
G0 F3600 X87.166 Y89.429
G1 F1800 X84.306 Y86.569 E37.48073
G0 F3600 X84.872 Y86.569
G1 F1800 X87.732 Y89.429 E37.61526
G0 F3600 X88.297 Y89.429
G1 F1800 X85.438 Y86.569 E37.74976
G0 F3600 X86.003 Y86.569
G1 F1800 X88.863 Y89.429 E37.88429
G0 F3600 X89.429 Y89.429
G1 F1800 X86.569 Y86.569 E38.01881
G0 F3600 X87.135 Y86.569
G1 F1800 X89.994 Y89.429 E38.15331
G0 F3600 X90.56 Y89.429
G1 F1800 X87.701 Y86.569 E38.28782
G0 F3600 X88.266 Y86.569
G1 F1800 X91.126 Y89.429 E38.42234
G0 F3600 X91.691 Y89.429
G1 F1800 X88.832 Y86.569 E38.55684
G0 F3600 X89.398 Y86.569
G1 F1800 X92.257 Y89.429 E38.69135
G0 F3600 X92.823 Y89.429
G1 F1800 X89.963 Y86.569 E38.82587
G0 F3600 X90.529 Y86.569
G1 F1800 X93.389 Y89.429 E38.9604
G0 F3600 X93.954 Y89.429
G1 F1800 X91.095 Y86.569 E39.0949
G0 F3600 X91.66 Y86.569
G1 F1800 X94.52 Y89.429 E39.22942
G0 F3600 X95.086 Y89.429
G1 F1800 X92.226 Y86.569 E39.36395
G0 F3600 X92.792 Y86.569
G1 F1800 X95.651 Y89.429 E39.49845
G0 F3600 X96.217 Y89.429
G1 F1800 X93.357 Y86.569 E39.63298
G0 F3600 X93.923 Y86.569
G1 F1800 X96.783 Y89.429 E39.7675
G0 F3600 X97.348 Y89.429
G1 F1800 X94.489 Y86.569 E39.90201
G0 F3600 X95.054 Y86.569
G1 F1800 X97.914 Y89.429 E40.03653
G0 F3600 X98.48 Y89.429
G1 F1800 X95.62 Y86.569 E40.17106
G0 F3600 X96.186 Y86.569
G1 F1800 X99.045 Y89.429 E40.30556
G0 F3600 X99.611 Y89.429
G1 F1800 X96.752 Y86.569 E40.44006
G0 F3600 X97.317 Y86.569
G1 F1800 X100.177 Y89.429 E40.57459
G0 F3600 X100.742 Y89.429
G1 F1800 X97.883 Y86.569 E40.70909
G0 F3600 X98.449 Y86.569
G1 F1800 X101.308 Y89.429 E40.84359
G0 F3600 X101.874 Y89.429
G1 F1800 X99.014 Y86.569 E40.97812
G0 F3600 X99.58 Y86.569
G1 F1800 X102.439 Y89.429 E41.11262
G0 F3600 X103.005 Y89.429
G1 F1800 X100.146 Y86.57 E41.2471
G0 F3600 X100.712 Y86.57
G1 F1800 X103.571 Y89.429 E41.38158
G0 F3600 X104.137 Y89.429
G1 F1800 X101.278 Y86.57 E41.51605
G0 F3600 X101.843 Y86.57
G1 F1800 X104.702 Y89.429 E41.65053
G0 F3600 X105.268 Y89.429
G1 F1800 X102.409 Y86.57 E41.78501
G0 F3600 X102.975 Y86.57
G1 F1800 X105.834 Y89.429 E41.91949
G0 F3600 X106.399 Y89.429
G1 F1800 X103.54 Y86.57 E42.05397
G0 F3600 X104.106 Y86.57
G1 F1800 X106.965 Y89.429 E42.18845
G0 F3600 X107.531 Y89.429
G1 F1800 X104.672 Y86.57 E42.32293
G0 F3600 X105.237 Y86.57
G1 F1800 X108.096 Y89.429 E42.4574
G0 F3600 X108.662 Y89.429
G1 F1800 X105.803 Y86.57 E42.59188
G0 F3600 X106.369 Y86.57
G1 F1800 X109.228 Y89.429 E42.72636
G0 F3600 X109.793 Y89.429
G1 F1800 X106.935 Y86.57 E42.86082
G0 F3600 X107.5 Y86.57
G1 F1800 X110.359 Y89.429 E42.9953
G0 F3600 X110.925 Y89.429
G1 F1800 X108.066 Y86.57 E43.12977
G0 F3600 X108.632 Y86.57
G1 F1800 X111.49 Y89.429 E43.26423
G0 F3600 X112.056 Y89.429
G1 F1800 X109.197 Y86.57 E43.39871
G0 F3600 X109.763 Y86.57
G1 F1800 X112.622 Y89.429 E43.53319
G0 F3600 X113.187 Y89.429
G1 F1800 X110.329 Y86.57 E43.66764
G0 F3600 X110.894 Y86.57
G1 F1800 X113.753 Y89.429 E43.80212
G0 F3600 X114.319 Y89.429
G1 F1800 X111.46 Y86.57 E43.9366
G0 F3600 X112.026 Y86.57
G1 F1800 X114.885 Y89.429 E44.07108
G0 F3600 X115.45 Y89.429
G1 F1800 X112.591 Y86.57 E44.20556
G0 F3600 X113.157 Y86.57
G1 F1800 X116.016 Y89.429 E44.34003
G0 F3600 X116.582 Y89.429
G1 F1800 X113.723 Y86.57 E44.47451
G0 F3600 X114.288 Y86.57
G1 F1800 X117.147 Y89.429 E44.60899
G0 F3600 X117.713 Y89.429
G1 F1800 X114.854 Y86.57 E44.74347
G0 F3600 X115.42 Y86.57
G1 F1800 X118.279 Y89.429 E44.87795
G0 F3600 X118.844 Y89.429
G1 F1800 X115.986 Y86.57 E45.0124
G0 F3600 X116.551 Y86.57
G1 F1800 X119.41 Y89.429 E45.14688
G0 F3600 X119.976 Y89.429
G1 F1800 X117.117 Y86.57 E45.28136
G0 F3600 X117.683 Y86.57
G1 F1800 X120.541 Y89.429 E45.41582
G0 F3600 X121.107 Y89.429
G1 F1800 X118.248 Y86.57 E45.55029
G0 F3600 X118.814 Y86.57
G1 F1800 X121.673 Y89.429 E45.68477
G0 F3600 X122.238 Y89.429
G1 F1800 X119.38 Y86.57 E45.81923
G0 F3600 X119.945 Y86.57
G1 F1800 X122.804 Y89.429 E45.95371
G0 F3600 X123.37 Y89.429
G1 F1800 X120.511 Y86.57 E46.08819
G0 F3600 X121.077 Y86.57
G1 F1800 X123.936 Y89.429 E46.22266
G0 F3600 X124.501 Y89.429
G1 F1800 X121.642 Y86.57 E46.35714
G0 F3600 X122.208 Y86.57
G1 F1800 X125.067 Y89.429 E46.49162
G0 F3600 X125.633 Y89.429
G1 F1800 X122.774 Y86.57 E46.6261
G0 F3600 X123.339 Y86.57
G1 F1800 X126.198 Y89.429 E46.76058
G0 F3600 X126.764 Y89.429
G1 F1800 X123.905 Y86.57 E46.89506
G0 F3600 X124.471 Y86.57
G1 F1800 X127.33 Y89.429 E47.02954
G0 F3600 X127.895 Y89.429
G1 F1800 X125.036 Y86.57 E47.16401
G0 F3600 X125.602 Y86.57
G1 F1800 X128.461 Y89.429 E47.29849
G0 F3600 X129.027 Y89.429
G1 F1800 X126.168 Y86.57 E47.43297
G0 F3600 X126.734 Y86.57
G1 F1800 X129.592 Y89.429 E47.56743
G0 F3600 X130.158 Y89.429
G1 F1800 X127.299 Y86.57 E47.70191
G0 F3600 X127.865 Y86.57
G1 F1800 X130.724 Y89.429 E47.83638
G0 F3600 X131.289 Y89.429
G1 F1800 X128.431 Y86.57 E47.97084
G0 F3600 X128.996 Y86.57
G1 F1800 X131.429 Y89.002 E48.08526
G0 F3600 X131.429 Y88.437
G1 F1800 X129.562 Y86.57 E48.17307
G0 F3600 X130.128 Y86.57
G1 F1800 X131.429 Y87.871 E48.23427
G0 F3600 X131.429 Y87.305
G1 F1800 X130.693 Y86.57 E48.26887
G0 F3600 X131.259 Y86.57
G1 F1800 X131.429 Y86.74 E48.27686
G1 F2400 E45.27686
;MESH:glass-holder.stl
G0 F3600 X133.665 Y86.74
G0 X133.653 Y91.653
G0 X132 Y96.335
G0 X132 Y98
;TYPE:WALL-INNER
G1 F2400 E48.27686
G1 F1800 X132 Y102 E48.4099
G1 X68 Y102 E50.53855
G1 X68 Y98 E50.67159
G1 X132 Y98 E52.80024
G0 F3600 X132.4 Y97.6
G1 F1800 X132.4 Y102.4 E52.95989
G1 X67.6 Y102.4 E55.11515
G1 X67.6 Y97.6 E55.27479
G1 X132.4 Y97.6 E57.43005
G0 F3600 X132.8 Y97.2
;TYPE:WALL-OUTER
G1 F1800 X132.8 Y102.8 E57.61631
G1 X67.2 Y102.8 E59.79817
G1 X67.2 Y97.2 E59.98443
G1 X132.8 Y97.2 E62.16629
G0 F3600 X132.8 Y97.4
G0 X131.61 Y98.39
;TYPE:SKIN
G1 F1800 X131.61 Y101.61 E62.27339
G1 X68.39 Y101.61 E64.3761
G1 X68.39 Y98.39 E64.48319
G1 X131.61 Y98.39 E66.5859
G0 F3600 X131.429 Y99.185
G1 F1800 X130.814 Y98.569 E66.61485
G0 F3600 X130.248 Y98.569
G1 F1800 X131.429 Y99.75 E66.6704
G0 F3600 X131.429 Y100.316
G1 F1800 X129.682 Y98.569 E66.75258
G0 F3600 X129.116 Y98.569
G1 F1800 X131.429 Y100.882 E66.86137
G0 F3600 X131.41 Y101.429
G1 F1800 X128.551 Y98.569 E66.99587
G0 F3600 X127.985 Y98.569
G1 F1800 X130.845 Y101.429 E67.1304
G0 F3600 X130.279 Y101.429
G1 F1800 X127.419 Y98.569 E67.26493
G0 F3600 X126.854 Y98.569
G1 F1800 X129.713 Y101.429 E67.39943
G0 F3600 X129.148 Y101.429
G1 F1800 X126.288 Y98.569 E67.53395
G0 F3600 X125.722 Y98.569
G1 F1800 X128.582 Y101.429 E67.66848
G0 F3600 X128.016 Y101.429
G1 F1800 X125.157 Y98.569 E67.80298
G0 F3600 X124.591 Y98.569
G1 F1800 X127.451 Y101.429 E67.93751
G0 F3600 X126.885 Y101.429
G1 F1800 X124.025 Y98.569 E68.07203
G0 F3600 X123.46 Y98.569
G1 F1800 X126.319 Y101.429 E68.20653
G0 F3600 X125.753 Y101.429
G1 F1800 X122.894 Y98.569 E68.34104
G0 F3600 X122.328 Y98.569
G1 F1800 X125.188 Y101.429 E68.47556
G0 F3600 X124.622 Y101.429
G1 F1800 X121.763 Y98.569 E68.61006
G0 F3600 X121.197 Y98.569
