;FLAVOR:Marlin
;TIME:3901
;Filament used: 4.70309m
;Layer height: 0.2
;MINX:5.841
;MINY:42.763
;MINZ:0.13
;MAXX:194.16
;MAXY:157.238
;MAXZ:1.93
;Generated with Cura_SteamEngine 4.5.0
M140 S50
M105
M190 S50
M104 S195
M105
M109 S195
M82 ;absolute extrusion mode
G21 ;metric values
G90 ;absolute positioning
M82 ;set extruder to absolute mode
M107 ;start with the fan off
G28 X0 Y0 ;move X/Y to min endstops
G28 Z0 ;move Z to min endstops
G1 Z8.0 F120 ;move the platform down 8mm
G92 E0 ;zero the extruded length
G1 F200 E1 ;extrude 1 mm of feed stock
G92 E0 ;zero the extruded length again
G1 F120
;Put printing message on LCD screen
M117 Printing...
G92 E0
G92 E0
G1 F3600 E-0.5
;LAYER_COUNT:10
;LAYER:0
M107
;MESH:Surgical_Mask_Strap_v2-Longer.stl(2)
G0 F3600 X9.199 Y50.683 Z0.13
;TYPE:WALL-INNER
G1 F3600 E0
G1 F1800 X9.745 Y50.678 E0.0118
G1 X10.241 Y50.809 E0.0229
G1 X10.673 Y51.059 E0.03369
G1 X11.063 Y51.443 E0.04552
G1 X11.319 Y51.885 E0.05656
G1 X11.447 Y52.366 E0.06732
G1 X11.452 Y52.912 E0.07913
G1 X11.326 Y53.391 E0.08983
G1 X11.058 Y53.864 E0.10159
G1 X10.694 Y54.228 E0.11272
G1 X10.26 Y54.477 E0.12353
G1 X9.037 Y54.816 E0.15097
G1 X8.868 Y55.663 E0.16964
G1 X9.159 Y57.873 E0.21783
G1 X19.867 Y56.465 E0.45132
G1 X20.065 Y56.439 E0.45564
G1 X20.039 Y56.241 E0.45843
G1 X19.403 Y51.406 E0.56386
G1 X19.403 Y50.844 E0.57601
G1 X19.54 Y50.318 E0.58776
G1 X19.787 Y49.889 E0.59846
G1 X20.154 Y49.515 E0.60979
G1 X20.598 Y49.255 E0.62091
G1 X21.098 Y49.116 E0.63213
G1 X21.62 Y49.11 E0.64342
G1 X22.143 Y49.246 E0.6551
G1 X22.683 Y49.561 E0.66862
G1 X23.058 Y49.936 E0.68008
G1 X23.306 Y50.366 E0.69081
G1 X23.454 Y50.894 E0.70267
G1 X23.454 Y51.413 E0.71389
G1 X23.323 Y51.905 E0.72489
G1 X23.068 Y52.348 E0.73595
G1 X22.692 Y52.731 E0.74755
G1 X22.263 Y52.977 E0.75824
G1 X21.052 Y53.312 E0.7854
G1 X20.865 Y54.147 E0.8039
G1 X21.149 Y56.299 E0.85083
G1 X26.988 Y55.532 E0.97815
G1 X26.998 Y55.53 E0.97837
G1 X26.998 Y55.606 E0.97925
G1 X32.063 Y54.939 E1.08969
G1 X31.403 Y49.874 E1.20012
G1 X31.403 Y49.322 E1.21205
G1 X31.537 Y48.82 E1.22329
G1 X31.797 Y48.371 E1.2345
G1 X32.149 Y48.019 E1.24527
G1 X32.615 Y47.744 E1.25696
G1 X33.098 Y47.616 E1.26777
G1 X33.644 Y47.61 E1.27957
G1 X34.134 Y47.742 E1.29054
G1 X34.571 Y47.993 E1.30144
G1 X34.943 Y48.359 E1.31272
G1 X35.217 Y48.824 E1.32439
G1 X35.344 Y49.304 E1.33512
G1 X35.35 Y49.827 E1.34643
G1 X35.215 Y50.348 E1.35806
G1 X34.967 Y50.778 E1.3688
G1 X34.586 Y51.165 E1.38054
G1 X34.159 Y51.412 E1.3912
G1 X32.932 Y51.752 E1.41873
G1 X32.766 Y52.602 E1.43745
G1 X33.058 Y54.811 E1.48562
G1 X43.961 Y53.379 E1.72336
G1 X43.3 Y48.307 E1.83394
G1 X43.3 Y47.754 E1.84589
G1 X43.433 Y47.256 E1.85704
G1 X43.682 Y46.825 E1.8678
G1 X44.065 Y46.435 E1.87962
G1 X44.492 Y46.19 E1.89026
G1 X44.999 Y46.05 E1.90163
G1 X45.54 Y46.045 E1.91333
G1 X46.018 Y46.171 E1.92401
G1 X46.471 Y46.429 E1.93528
G1 X46.839 Y46.79 E1.94643
G1 X47.105 Y47.241 E1.95775
G1 X47.249 Y47.76 E1.96939
G1 X47.249 Y48.255 E1.98009
G1 X47.118 Y48.76 E1.99137
G1 X46.852 Y49.232 E2.00309
G1 X46.498 Y49.585 E2.01389
G1 X46.055 Y49.847 E2.02502
G1 X44.561 Y50.262 E2.05854
G1 X44.956 Y53.249 E2.12368
G1 X55.859 Y51.817 E2.36142
G1 X55.198 Y46.74 E2.47211
G1 X55.198 Y46.193 E2.48393
G1 X55.327 Y45.708 E2.49478
G1 X55.594 Y45.237 E2.50649
G1 X55.961 Y44.87 E2.51771
G1 X56.385 Y44.625 E2.52829
G1 X56.92 Y44.477 E2.54029
G1 X57.433 Y44.477 E2.55138
G1 X57.938 Y44.611 E2.56268
G1 X58.364 Y44.857 E2.57331
G1 X58.739 Y45.226 E2.58469
G1 X59.003 Y45.675 E2.59595
G1 X59.147 Y46.194 E2.60759
G1 X59.147 Y46.691 E2.61834
G1 X59.017 Y47.195 E2.62959
G1 X58.761 Y47.647 E2.64082
G1 X58.4 Y48.015 E2.65197
G1 X57.947 Y48.282 E2.66333
G1 X56.459 Y48.695 E2.69672
G1 X56.854 Y51.687 E2.76196
G1 X77.999 Y48.911 E3.22302
G1 X79.439 Y45.432 E3.30442
G1 X79.729 Y45.054 E3.31472
G1 X80.142 Y44.728 E3.3261
G1 X80.617 Y44.52 E3.33731
G1 X81.241 Y44.428 E3.35095
G1 X118.767 Y44.428 E4.16222
G1 X119.311 Y44.499 E4.17408
G1 X119.796 Y44.69 E4.18535
G1 X120.217 Y45.002 E4.19668
G1 X120.533 Y45.401 E4.20769
G1 X122.004 Y48.911 E4.28996
G1 X142.95 Y51.661 E4.74668
G1 X143.148 Y51.687 E4.751
G1 X143.173 Y51.489 E4.75378
G1 X143.435 Y49.482 E4.79754
G1 X143.291 Y48.618 E4.81647
G1 X142.063 Y48.291 E4.84395
G1 X141.616 Y48.032 E4.85512
G1 X141.263 Y47.679 E4.86591
G1 X140.985 Y47.207 E4.87775
G1 X140.853 Y46.711 E4.88885
G1 X140.853 Y46.21 E4.89968
G1 X140.984 Y45.706 E4.91094
G1 X141.238 Y45.256 E4.92211
G1 X141.615 Y44.872 E4.93374
G1 X142.049 Y44.623 E4.94456
G1 X142.573 Y44.477 E4.95632
G1 X143.07 Y44.477 E4.96706
G1 X143.569 Y44.605 E4.9782
G1 X144.044 Y44.875 E4.99001
G1 X144.392 Y45.223 E5.00065
G1 X144.658 Y45.675 E5.01199
G1 X144.802 Y46.194 E5.02364
G1 X144.802 Y46.744 E5.03553
G1 X144.141 Y51.817 E5.14613
G1 X154.848 Y53.223 E5.37959
G1 X155.046 Y53.249 E5.38391
G1 X155.071 Y53.051 E5.38669
G1 X155.333 Y51.049 E5.43034
G1 X155.189 Y50.185 E5.44927
G1 X153.961 Y49.857 E5.47675
G1 X153.517 Y49.6 E5.48784
G1 X153.145 Y49.229 E5.4992
G1 X152.886 Y48.78 E5.51041
G1 X152.758 Y48.296 E5.52123
G1 X152.752 Y47.749 E5.53306
G1 X152.878 Y47.278 E5.5436
G1 X153.149 Y46.801 E5.55546
G1 X153.499 Y46.451 E5.56616
G1 X153.946 Y46.189 E5.57736
G1 X154.447 Y46.05 E5.5886
G1 X154.992 Y46.044 E5.60039
G1 X155.484 Y46.176 E5.6114
G1 X155.937 Y46.437 E5.6227
G1 X156.289 Y46.79 E5.63348
G1 X156.568 Y47.263 E5.64535
G1 X156.7 Y47.756 E5.65638
G1 X156.7 Y48.311 E5.66838
G1 X156.039 Y53.379 E5.77888
G1 X166.746 Y54.785 E6.01234
G1 X166.944 Y54.811 E6.01666
G1 X166.969 Y54.613 E6.01944
G1 X167.23 Y52.615 E6.063
G1 X167.086 Y51.751 E6.08194
G1 X165.861 Y51.425 E6.10934
G1 X165.412 Y51.165 E6.12056
G1 X165.043 Y50.796 E6.13184
G1 X164.785 Y50.351 E6.14296
G1 X164.649 Y49.841 E6.15437
G1 X164.649 Y49.322 E6.16559
G1 X164.783 Y48.818 E6.17687
G1 X165.029 Y48.393 E6.18748
G1 X165.415 Y48 E6.19939
G1 X165.861 Y47.743 E6.21052
G1 X166.361 Y47.609 E6.22171
G1 X166.861 Y47.609 E6.23252
G1 X167.389 Y47.746 E6.24431
G1 X167.816 Y47.992 E6.25497
G1 X168.205 Y48.375 E6.26677
G1 X168.451 Y48.799 E6.27737
G1 X168.597 Y49.328 E6.28923
G1 X168.597 Y49.902 E6.30164
G1 X167.961 Y54.743 E6.4072
G1 X167.935 Y54.941 E6.41151
G1 X168.133 Y54.967 E6.4143
G1 X178.842 Y56.373 E6.64781
G1 X179.238 Y53.391 E6.71284
G1 X177.866 Y53.026 E6.74353
G1 X177.297 Y52.719 E6.75751
G1 X176.942 Y52.364 E6.76837
G1 X176.692 Y51.929 E6.77921
G1 X176.546 Y51.405 E6.79097
G1 X176.546 Y50.912 E6.80163
G1 X176.683 Y50.383 E6.81344
G1 X176.929 Y49.957 E6.82408
G1 X177.311 Y49.569 E6.83585
G1 X177.736 Y49.323 E6.84647
G1 X178.246 Y49.183 E6.8579
G1 X178.785 Y49.178 E6.86955
G1 X179.275 Y49.307 E6.88051
G1 X179.827 Y49.602 E6.89404
G1 X180.207 Y49.977 E6.90558
G1 X180.461 Y50.416 E6.91655
G1 X180.597 Y50.926 E6.92796
G1 X180.597 Y51.506 E6.9405
G1 X179.961 Y56.341 E7.04593
G1 X179.935 Y56.539 E7.05024
G1 X180.133 Y56.565 E7.05303
G1 X190.645 Y57.947 E7.28225
G1 X190.843 Y57.973 E7.28656
G1 X190.868 Y57.775 E7.28934
G1 X191.128 Y55.778 E7.33288
G1 X190.981 Y54.917 E7.35176
G1 X189.762 Y54.591 E7.37904
G1 X189.324 Y54.34 E7.38996
G1 X188.94 Y53.962 E7.40161
G1 X188.682 Y53.516 E7.41275
G1 X188.552 Y53.026 E7.42371
G1 X188.547 Y52.507 E7.43493
G1 X188.683 Y51.984 E7.44661
G1 X188.929 Y51.557 E7.45726
G1 X189.311 Y51.169 E7.46904
G1 X189.736 Y50.923 E7.47965
G1 X190.246 Y50.783 E7.49109
G1 X190.785 Y50.778 E7.50274
G1 X191.264 Y50.904 E7.51345
G1 X191.715 Y51.159 E7.52465
G1 X192.102 Y51.54 E7.53639
G1 X192.348 Y51.969 E7.54708
G1 X192.489 Y52.475 E7.55844
G1 X192.495 Y53.049 E7.57085
G1 X189.766 Y73.808 E8.0235
G1 X189.618 Y74.359 E8.03583
G1 X189.368 Y74.79 E8.0466
G1 X188.984 Y75.181 E8.05845
G1 X188.543 Y75.436 E8.06946
G1 X188.056 Y75.565 E8.08036
G1 X187.532 Y75.571 E8.09169
G1 X187.013 Y75.436 E8.10328
G1 X186.564 Y75.178 E8.11447
G1 X186.193 Y74.806 E8.12583
G1 X185.936 Y74.361 E8.13694
G1 X185.801 Y73.86 E8.14816
G1 X185.801 Y73.334 E8.15953
G1 X185.926 Y72.866 E8.17
G1 X186.201 Y72.382 E8.18204
G1 X186.549 Y72.033 E8.19269
G1 X187.001 Y71.767 E8.20403
G1 X187.518 Y71.624 E8.21563
G1 X189.044 Y71.624 E8.24862
G1 X189.457 Y68.491 E8.31694
G1 X189.483 Y68.293 E8.32126
G1 X189.285 Y68.267 E8.32404
G1 X178.577 Y66.862 E8.55752
G1 X177.871 Y72.224 E8.67445
G1 X177.724 Y72.776 E8.6868
G1 X177.469 Y73.226 E8.69798
G1 X177.086 Y73.615 E8.70978
G1 X176.659 Y73.86 E8.72042
G1 X176.135 Y74.006 E8.73218
G1 X175.615 Y74.006 E8.74342
G1 X175.135 Y73.878 E8.75416
G1 X174.552 Y73.566 E8.76846
G1 X174.21 Y73.223 E8.77893
G1 X173.933 Y72.754 E8.79071
G1 X173.801 Y72.261 E8.80174
G1 X173.801 Y71.734 E8.81313
G1 X173.926 Y71.266 E8.82361
G1 X174.201 Y70.782 E8.83564
G1 X174.564 Y70.418 E8.84675
G1 X174.995 Y70.17 E8.85751
G1 X175.521 Y70.024 E8.86931
G1 X177.042 Y70.024 E8.90219
G1 X177.455 Y66.915 E8.96999
G1 X177.481 Y66.717 E8.97431
G1 X177.283 Y66.692 E8.97709
G1 X171.491 Y65.933 E9.10338
G1 X170.923 Y65.834 E9.11584
G1 X166.577 Y65.262 E9.21061
G1 X165.871 Y70.624 E9.32753
G1 X165.724 Y71.176 E9.33988
G1 X165.469 Y71.626 E9.35107
G1 X165.099 Y72.002 E9.36247
G1 X164.657 Y72.26 E9.37353
G1 X164.157 Y72.399 E9.38475
G1 X163.611 Y72.405 E9.39656
G1 X163.12 Y72.273 E9.40755
G1 X162.684 Y72.022 E9.41843
G1 X162.294 Y71.638 E9.43026
G1 X162.04 Y71.199 E9.44122
G1 X161.911 Y70.712 E9.45212
G1 X161.906 Y70.168 E9.46388
G1 X162.032 Y69.689 E9.47458
G1 X162.299 Y69.219 E9.48627
G1 X162.655 Y68.864 E9.49714
G1 X163.098 Y68.602 E9.50827
G1 X163.622 Y68.457 E9.52002
G1 X164.914 Y68.457 E9.54795
G1 X165.258 Y67.622 E9.56748
G1 X165.559 Y65.329 E9.61747
G1 X165.585 Y65.131 E9.62179
G1 X165.387 Y65.105 E9.62458
G1 X154.679 Y63.7 E9.85806
G1 X153.963 Y69.091 E9.97563
G1 X153.821 Y69.625 E9.98758
G1 X153.561 Y70.077 E9.99885
G1 X153.204 Y70.433 E10.00975
G1 X152.761 Y70.695 E10.02088
G1 X152.237 Y70.84 E10.03263
G1 X151.744 Y70.84 E10.04329
G1 X151.217 Y70.703 E10.05506
G1 X150.782 Y70.453 E10.06591
G1 X150.4 Y70.077 E10.0775
G1 X150.142 Y69.631 E10.08864
G1 X150.012 Y69.143 E10.09955
G1 X150.007 Y68.622 E10.11082
G1 X150.143 Y68.099 E10.1225
G1 X150.39 Y67.669 E10.13322
G1 X150.768 Y67.285 E10.14487
G1 X151.222 Y67.023 E10.1562
G1 X151.717 Y66.891 E10.16728
G1 X153.249 Y66.891 E10.2004
G1 X153.66 Y63.767 E10.26852
G1 X153.686 Y63.569 E10.27284
G1 X153.488 Y63.543 E10.27562
G1 X142.781 Y62.138 E10.50908
G1 X142.066 Y67.518 E10.62642
G1 X141.921 Y68.067 E10.63869
G1 X141.665 Y68.509 E10.64974
G1 X141.294 Y68.88 E10.66108
G1 X140.871 Y69.125 E10.67165
G1 X140.357 Y69.266 E10.68317
G1 X139.819 Y69.271 E10.6948
G1 X139.34 Y69.145 E10.70551
G1 X138.87 Y68.878 E10.7172
G1 X138.519 Y68.526 E10.72794
G1 X138.24 Y68.053 E10.73981
G1 X138.108 Y67.56 E10.75085
G1 X138.108 Y67.036 E10.76218
G1 X138.234 Y66.565 E10.77272
G1 X138.508 Y66.083 E10.7847
G1 X138.86 Y65.731 E10.79547
G1 X139.318 Y65.46 E10.80697
G1 X139.825 Y65.325 E10.81831
G1 X141.351 Y65.325 E10.8513
G1 X141.762 Y62.205 E10.91934
G1 X141.788 Y62.007 E10.92366
G1 X141.59 Y61.981 E10.92644
G1 X124.474 Y59.735 E11.29965
G1 X124.268 Y59.708 E11.30414
G1 X124.25 Y59.915 E11.307
G1 X124.142 Y61.146 E11.33372
G1 X124.075 Y61.337 E11.3381
G1 X123.998 Y61.442 E11.34091
G1 X123.856 Y61.546 E11.34472
G1 X123.594 Y61.646 E11.35078
G1 X123.226 Y61.708 E11.35885
G1 X119.871 Y61.73 E11.43138
G1 X77.188 Y61.73 E12.35415
G1 X76.647 Y61.694 E12.36587
G1 X76.292 Y61.61 E12.37376
G1 X76.079 Y61.506 E12.37888
G1 X75.976 Y61.413 E12.38188
G1 X75.895 Y61.273 E12.38538
G1 X75.839 Y61.047 E12.39041
G1 X75.778 Y59.918 E12.41485
G1 X75.767 Y59.703 E12.41951
G1 X75.553 Y59.731 E12.42246
G1 X58.41 Y61.981 E12.79625
G1 X58.212 Y62.007 E12.80057
G1 X58.238 Y62.205 E12.80336
G1 X58.649 Y65.325 E12.87139
G1 X60.156 Y65.325 E12.90397
G1 X60.68 Y65.461 E12.91568
G1 X61.129 Y65.719 E12.92687
G1 X61.481 Y66.072 E12.93765
G1 X61.76 Y66.545 E12.94952
G1 X61.892 Y67.038 E12.96056
G1 X61.892 Y67.559 E12.97182
G1 X61.765 Y68.035 E12.98247
G1 X61.493 Y68.514 E12.99438
G1 X61.144 Y68.864 E13.00506
G1 X60.677 Y69.139 E13.01678
G1 X60.198 Y69.266 E13.02749
G1 X59.654 Y69.271 E13.03926
G1 X59.177 Y69.145 E13.04992
G1 X58.701 Y68.875 E13.06175
G1 X58.335 Y68.509 E13.07294
G1 X58.077 Y68.064 E13.08406
G1 X57.936 Y67.531 E13.09598
G1 X57.219 Y62.138 E13.2136
G1 X46.512 Y63.543 E13.44706
G1 X46.314 Y63.569 E13.45138
G1 X46.34 Y63.767 E13.45417
G1 X46.751 Y66.891 E13.52229
G1 X48.256 Y66.891 E13.55482
G1 X48.783 Y67.028 E13.56659
G1 X49.235 Y67.288 E13.57787
G1 X49.597 Y67.65 E13.58894
G1 X49.848 Y68.087 E13.59983
G1 X49.987 Y68.589 E13.61109
G1 X49.993 Y69.132 E13.62283
G1 X49.862 Y69.621 E13.63378
G1 X49.6 Y70.077 E13.64515
G1 X49.245 Y70.431 E13.65598
G1 X48.779 Y70.706 E13.66768
G1 X48.302 Y70.833 E13.67835
G1 X47.778 Y70.838 E13.68968
G1 X47.25 Y70.701 E13.70148
G1 X46.811 Y70.448 E13.71243
G1 X46.454 Y70.092 E13.72333
G1 X46.178 Y69.621 E13.73513
G1 X46.029 Y69.069 E13.74749
G1 X45.321 Y63.7 E13.86457
G1 X34.418 Y65.131 E14.1023
G1 X34.742 Y67.614 E14.15644
G1 X35.075 Y68.457 E14.17603
G1 X36.385 Y68.457 E14.20436
G1 X36.883 Y68.59 E14.2155
G1 X37.33 Y68.849 E14.22667
G1 X37.687 Y69.205 E14.23757
G1 X37.953 Y69.657 E14.24891
G1 X38.096 Y70.174 E14.2605
G1 X38.096 Y70.691 E14.27168
G1 X37.97 Y71.17 E14.28239
G1 X37.696 Y71.65 E14.29434
G1 X37.336 Y72.01 E14.30534
G1 X36.901 Y72.261 E14.3162
G1 X36.378 Y72.406 E14.32793
G1 X35.884 Y72.406 E14.33861
G1 X35.356 Y72.269 E14.35041
G1 X34.926 Y72.022 E14.36113
G1 X34.542 Y71.644 E14.37278
G1 X34.294 Y71.213 E14.38353
G1 X34.137 Y70.642 E14.39633
G1 X33.423 Y65.262 E14.51366
G1 X22.715 Y66.669 E14.74715
G1 X22.517 Y66.695 E14.75146
G1 X22.543 Y66.893 E14.75425
G1 X22.948 Y69.957 E14.82107
G1 X24.36 Y69.957 E14.8516
G1 X24.891 Y70.096 E14.86346
G1 X25.349 Y70.36 E14.87489
G1 X25.792 Y70.777 E14.88804
G1 X26.054 Y71.223 E14.89923
G1 X26.192 Y71.714 E14.91025
G1 X26.198 Y72.267 E14.92221
G1 X26.074 Y72.73 E14.93257
G1 X25.799 Y73.214 E14.94461
G1 X25.451 Y73.563 E14.95526
G1 X24.984 Y73.838 E14.96698
G1 X24.505 Y73.965 E14.97769
G1 X23.981 Y73.971 E14.98902
G1 X23.456 Y73.835 E15.00074
G1 X23.003 Y73.574 E15.01205
G1 X22.531 Y73.128 E15.02609
G1 X22.284 Y72.701 E15.03675
G1 X22.139 Y72.153 E15.04901
G1 X21.423 Y66.762 E15.16658
G1 X10.715 Y68.169 E15.40006
G1 X10.517 Y68.195 E15.40438
G1 X10.543 Y68.393 E15.40717
G1 X10.96 Y71.524 E15.47546
G1 X12.464 Y71.524 E15.50797
G1 X12.967 Y71.654 E15.5192
G1 X13.437 Y71.92 E15.53088
G1 X13.788 Y72.271 E15.54161
G1 X14.056 Y72.725 E15.55301
G1 X14.192 Y73.219 E15.56409
G1 X14.197 Y73.759 E15.57576
G1 X14.07 Y74.238 E15.58647
G1 X13.8 Y74.713 E15.59829
G1 X13.434 Y75.079 E15.60948
G1 X12.989 Y75.337 E15.6206
G1 X12.504 Y75.465 E15.63144
G1 X11.981 Y75.471 E15.64275
G1 X11.456 Y75.336 E15.65447
G1 X11.013 Y75.079 E15.66554
G1 X10.643 Y74.709 E15.67685
G1 X10.398 Y74.285 E15.68744
G1 X10.24 Y73.715 E15.70023
G1 X7.505 Y52.972 E16.15255
G1 X7.505 Y52.388 E16.16518
G1 X7.638 Y51.893 E16.17626
G1 X7.889 Y51.456 E16.18715
G1 X8.255 Y51.084 E16.19844
G1 X8.72 Y50.81 E16.2101
G1 X9.199 Y50.683 E16.22082
G1 F3600 E15.72082
G0 F3600 X9.182 Y49.018
G0 X56.691 Y42.813
G0 X57.651 Y42.813
G0 X58.576 Y43.06
G0 X59.381 Y43.524
G0 X60.062 Y44.194
G0 X60.546 Y45.019
G0 X60.811 Y45.969
G0 X60.811 Y46.9
G0 X60.574 Y47.823
G0 X60.101 Y48.657
G0 X85.343 Y49.06
G0 X83.888 Y48.187
G1 F3600 E16.22082
G1 F1800 X80.887 Y56.539 E16.41268
G1 X80.734 Y57.179 E16.42691
G1 X80.86 Y57.948 E16.44376
G1 X81.269 Y58.617 E16.46071
G1 X81.893 Y59.073 E16.47742
G1 X82.565 Y59.247 E16.49242
G1 X85.165 Y59.234 E16.54863
G1 X117.469 Y59.234 E17.24702
G1 X117.987 Y59.216 E17.25822
G1 X118.678 Y58.931 E17.27438
G1 X119.237 Y58.385 E17.29127
G1 X119.544 Y57.677 E17.30796
G1 X119.563 Y56.914 E17.32446
G1 X116.615 Y48.621 E17.51474
G1 X116.419 Y48.158 E17.52561
G1 X115.91 Y47.607 E17.54182
G1 X115.232 Y47.284 E17.55806
G1 X114.716 Y47.236 E17.56926
G1 X85.688 Y47.236 E18.19682
G1 X85.1 Y47.28 E18.20957
G1 X84.402 Y47.619 E18.22634
G1 X83.888 Y48.187 E18.24291
G0 F3600 X84.238 Y48.397
G1 F1800 X81.271 Y56.653 E18.43257
G1 X81.142 Y57.194 E18.44459
G1 X81.242 Y57.806 E18.458
