;FLAVOR:Marlin
;TIME:629
;Filament used: 1.38194m
;Layer height: 0.25
;MINX:13.308
;MINY:79.028
;MINZ:0.2
;MAXX:186.692
;MAXY:120.962
;MAXZ:1.95
;Generated with Cura_SteamEngine 4.3.0
M140 S50
M105
M190 S50
M104 S195
M105
M109 S195
M82 ;absolute extrusion mode
G21 ;metric values
G90 ;absolute positioning
M82 ;set extruder to absolute mode
M107 ;start with the fan off
G28 X0 Y0 ;move X/Y to min endstops
G28 Z0 ;move Z to min endstops
G1 Z8.0 F120 ;move the platform down 15mm
G92 E0 ;zero the extruded length
G1 F120
;Put printing message on LCD screen
M117 Printing...
G92 E0
G92 E0
G1 F2400 E-3
;LAYER_COUNT:8
;LAYER:0
M107
G0 F5400 X19.714 Y83.972 Z0.2
;TYPE:SKIRT
G1 F2400 E0
G1 F3600 X20.646 Y83.814 E0.03144
G1 X21.095 Y83.779 E0.04642
G1 X23.833 Y83.531 E0.13786
G1 X26.526 Y83.211 E0.22806
G1 X29.129 Y82.827 E0.31557
G1 X32.017 Y82.313 E0.41314
G1 X32.512 Y82.25 E0.42973
G1 X33.104 Y82.203 E0.44948
G1 X35.844 Y81.951 E0.541
G1 X38.472 Y81.633 E0.62905
G1 X41.143 Y81.234 E0.71887
G1 X42.52 Y80.984 E0.76542
G1 X42.585 Y80.972 E0.76762
G1 X43.984 Y80.736 E0.81481
G1 X44.371 Y80.686 E0.82778
G1 X45.183 Y80.611 E0.85491
G1 X45.255 Y80.605 E0.85731
G1 X46.427 Y80.513 E0.89641
G1 X49.117 Y80.226 E0.98639
G1 X51.776 Y79.866 E1.07563
G1 X54.423 Y79.43 E1.16486
G1 X54.799 Y79.358 E1.17759
G1 X54.876 Y79.343 E1.1802
G1 X55.871 Y79.167 E1.21381
G1 X56.601 Y79.091 E1.23822
G1 X56.837 Y79.083 E1.24607
G1 X57.086 Y79.081 E1.25436
G1 X57.587 Y79.088 E1.27102
G1 X58.02 Y79.112 E1.28545
G1 X59.093 Y79.217 E1.3213
G1 X59.173 Y79.225 E1.32398
G1 X59.794 Y79.295 E1.34476
G1 X62.431 Y79.52 E1.43279
G1 X65.137 Y79.673 E1.52293
G1 X67.811 Y79.749 E1.61191
G1 X70.488 Y79.749 E1.70095
G1 X73.162 Y79.673 E1.78992
G1 X75.843 Y79.521 E1.87923
G1 X79.831 Y79.155 E2.01243
G1 X80.451 Y79.085 E2.03318
G1 X80.92 Y79.054 E2.04882
G1 X82.094 Y79.029 E2.08787
G1 X82.205 Y79.028 E2.09156
G1 X118.129 Y79.028 E3.2864
G1 X118.203 Y79.029 E3.28886
G1 X118.901 Y79.039 E3.31208
G1 X119.334 Y79.063 E3.32651
G1 X120.232 Y79.151 E3.35652
G1 X120.283 Y79.156 E3.35822
G1 X122.015 Y79.343 E3.41616
G1 X124.72 Y79.558 E3.50641
G1 X127.356 Y79.692 E3.5942
G1 X130.067 Y79.754 E3.68439
G1 X132.742 Y79.739 E3.77336
G1 X135.414 Y79.649 E3.86229
G1 X138.092 Y79.482 E3.95153
G1 X140.812 Y79.235 E4.04237
G1 X141.759 Y79.129 E4.07406
G1 X142.075 Y79.103 E4.08461
G1 X142.388 Y79.087 E4.09503
G1 X142.723 Y79.08 E4.10618
G1 X143.24 Y79.087 E4.12338
G1 X144.118 Y79.174 E4.15272
G1 X144.721 Y79.286 E4.17312
G1 X147.376 Y79.741 E4.26271
G1 X150.023 Y80.118 E4.35164
G1 X152.717 Y80.424 E4.44182
G1 X154.142 Y80.545 E4.48939
G1 X154.166 Y80.547 E4.49019
G1 X155.55 Y80.671 E4.5364
G1 X155.95 Y80.722 E4.54982
G1 X156.674 Y80.844 E4.57423
G1 X156.767 Y80.861 E4.57738
G1 X158.015 Y81.095 E4.61961
G1 X160.672 Y81.515 E4.70908
G1 X163.321 Y81.857 E4.79792
G1 X166.011 Y82.126 E4.88783
G1 X167.369 Y82.233 E4.93314
G1 X167.914 Y82.305 E4.95143
G1 X168.489 Y82.412 E4.97088
G1 X171.225 Y82.88 E5.0632
G1 X173.85 Y83.254 E5.15139
G1 X176.513 Y83.556 E5.24053
G1 X177.906 Y83.666 E5.287
G1 X177.996 Y83.674 E5.29001
G1 X179.379 Y83.807 E5.33622
G1 X179.958 Y83.896 E5.3557
G1 X180.199 Y83.947 E5.3639
G1 X180.532 Y84.029 E5.3753
G1 X181.022 Y84.167 E5.39224
G1 X181.63 Y84.38 E5.41366
G1 X182.021 Y84.563 E5.42802
G1 X182.308 Y84.713 E5.43879
G1 X182.51 Y84.825 E5.44647
G1 X182.894 Y85.048 E5.46124
G1 X183.431 Y85.406 E5.48271
G1 X183.84 Y85.752 E5.50053
G1 X184.258 Y86.144 E5.51959
G1 X184.388 Y86.27 E5.52561
G1 X184.572 Y86.455 E5.53429
G1 X184.997 Y86.939 E5.55571
G1 X185.289 Y87.357 E5.57267
G1 X185.424 Y87.572 E5.58111
G1 X185.564 Y87.808 E5.59024
G1 X185.79 Y88.214 E5.60569
G1 X186.144 Y88.997 E5.63428
G1 X186.216 Y89.199 E5.64141
G1 X186.338 Y89.588 E5.65497
G1 X186.504 Y90.202 E5.67612
G1 X186.633 Y90.833 E5.69754
G1 X186.681 Y91.388 E5.71607
G1 X186.689 Y91.631 E5.72416
G1 X186.692 Y91.873 E5.73221
G1 X186.687 Y92.24 E5.74442
G1 X186.658 Y92.715 E5.76024
G1 X186.537 Y93.86 E5.79854
G1 X186.524 Y93.977 E5.80245
G1 X186.492 Y94.226 E5.8108
G1 X186.49 Y94.242 E5.81134
G1 X184.001 Y113.15 E6.44565
G1 X183.991 Y113.221 E6.44803
G1 X183.886 Y113.941 E6.47223
G1 X183.802 Y114.381 E6.48713
G1 X183.747 Y114.615 E6.49513
G1 X183.691 Y114.833 E6.50261
G1 X183.554 Y115.32 E6.51944
G1 X183.341 Y115.929 E6.5409
G1 X183.101 Y116.424 E6.5592
G1 X182.85 Y116.879 E6.57648
G1 X182.765 Y117.027 E6.58216
G1 X182.64 Y117.237 E6.59028
G1 X182.277 Y117.769 E6.6117
G1 X182.004 Y118.092 E6.62577
G1 X181.816 Y118.297 E6.63502
G1 X181.661 Y118.459 E6.64248
G1 X181.317 Y118.803 E6.65866
G1 X180.834 Y119.23 E6.6801
G1 X180.376 Y119.548 E6.69865
G1 X179.93 Y119.824 E6.71609
G1 X179.79 Y119.908 E6.72152
G1 X179.514 Y120.067 E6.73212
G1 X178.936 Y120.353 E6.75357
G1 X178.378 Y120.552 E6.77327
G1 X178.125 Y120.626 E6.78204
G1 X177.929 Y120.679 E6.78879
G1 X177.466 Y120.795 E6.80467
G1 X176.832 Y120.913 E6.82611
G1 X176.458 Y120.945 E6.8386
G1 X176.235 Y120.956 E6.84603
G1 X175.979 Y120.962 E6.85454
G1 X175.429 Y120.962 E6.87284
G1 X174.552 Y120.888 E6.90211
G1 X173.722 Y120.746 E6.93012
G1 X173.652 Y120.733 E6.93248
G1 X172.485 Y120.517 E6.97196
G1 X169.793 Y120.096 E7.06258
G1 X167.183 Y119.764 E7.15009
G1 X164.464 Y119.495 E7.24097
G1 X164.238 Y119.479 E7.2485
G1 X164.168 Y119.474 E7.25084
G1 X163.073 Y119.38 E7.28739
G1 X162.653 Y119.327 E7.30147
G1 X161.924 Y119.204 E7.32606
G1 X161.833 Y119.187 E7.32914
G1 X160.595 Y118.955 E7.37103
G1 X157.932 Y118.534 E7.4607
G1 X155.283 Y118.192 E7.54954
G1 X152.593 Y117.923 E7.63946
G1 X151.235 Y117.816 E7.68476
G1 X150.691 Y117.744 E7.70301
G1 X150.045 Y117.624 E7.72487
G1 X147.309 Y117.156 E7.81719
G1 X144.684 Y116.782 E7.90538
G1 X141.992 Y116.476 E7.99549
G1 X139.296 Y116.247 E8.08548
G1 X138.516 Y116.121 E8.11176
G1 X138.011 Y115.999 E8.12904
G1 X137.827 Y115.951 E8.13537
G1 X137.574 Y115.88 E8.14411
G1 X137.085 Y115.716 E8.16126
G1 X134.711 Y114.788 E8.24604
G1 X132.168 Y113.872 E8.33594
G1 X129.632 Y113.039 E8.42472
G1 X127.064 Y112.276 E8.51382
G1 X124.476 Y111.585 E8.60292
G1 X121.869 Y110.968 E8.69202
G1 X119.238 Y110.422 E8.78139
G1 X116.575 Y109.951 E8.87134
G1 X113.966 Y109.563 E8.95907
G1 X111.264 Y109.239 E9.04958
G1 X108.643 Y109 E9.13712
G1 X105.935 Y108.83 E9.22736
G1 X103.26 Y108.738 E9.31639
G1 X101.215 Y108.718 E9.38441
G1 X98.609 Y108.72 E9.47108
G1 X95.932 Y108.76 E9.56013
G1 X93.26 Y108.875 E9.64908
G1 X90.554 Y109.069 E9.73932
G1 X87.891 Y109.336 E9.82833
G1 X85.267 Y109.673 E9.91632
G1 X82.591 Y110.095 E10.00643
G1 X79.937 Y110.59 E10.09622
G1 X77.331 Y111.154 E10.18491
G1 X74.773 Y111.783 E10.27252
G1 X72.145 Y112.508 E10.36319
G1 X69.59 Y113.292 E10.45208
G1 X67.072 Y114.144 E10.5405
G1 X63.363 Y115.542 E10.67233
G1 X63.02 Y115.68 E10.68463
G1 X62.581 Y115.834 E10.7001
G1 X62.325 Y115.911 E10.70899
G1 X62.096 Y115.974 E10.71689
G1 X61.619 Y116.094 E10.73325
G1 X60.756 Y116.235 E10.76233
G1 X60.247 Y116.275 E10.77932
G1 X57.485 Y116.526 E10.87156
G1 X54.846 Y116.842 E10.95996
G1 X52.197 Y117.234 E11.04903
G1 X49.409 Y117.729 E11.14321
G1 X48.955 Y117.789 E11.15844
G1 X48.341 Y117.843 E11.17894
G1 X45.64 Y118.09 E11.26915
G1 X42.939 Y118.415 E11.35963
G1 X40.293 Y118.81 E11.44861
G1 X38.814 Y119.073 E11.49858
G1 X38.793 Y119.077 E11.49929
G1 X37.401 Y119.319 E11.54628
G1 X36.99 Y119.374 E11.56007
G1 X36.202 Y119.447 E11.58639
G1 X36.127 Y119.453 E11.5889
G1 X34.903 Y119.549 E11.62973
G1 X32.211 Y119.836 E11.71977
G1 X29.552 Y120.196 E11.80902
G1 X26.89 Y120.634 E11.89875
G1 X25.604 Y120.864 E11.9422
G1 X24.849 Y120.943 E11.96745
G1 X24.297 Y120.96 E11.98582
G1 X24.137 Y120.962 E11.99114
G1 X23.901 Y120.962 E11.99899
G1 X23.258 Y120.922 E12.02042
G1 X22.713 Y120.825 E12.03883
G1 X22.146 Y120.692 E12.0582
G1 X21.998 Y120.654 E12.06328
G1 X21.746 Y120.587 E12.07195
G1 X21.134 Y120.383 E12.09341
G1 X20.634 Y120.15 E12.11176
G1 X20.456 Y120.055 E12.11847
G1 X20.246 Y119.936 E12.12649
G1 X19.787 Y119.663 E12.14426
G1 X19.254 Y119.3 E12.16571
G1 X18.914 Y119.012 E12.18053
G1 X18.648 Y118.766 E12.19258
G1 X18.485 Y118.608 E12.20013
G1 X18.16 Y118.28 E12.21548
G1 X17.736 Y117.795 E12.23691
G1 X17.443 Y117.374 E12.25397
G1 X17.32 Y117.177 E12.2617
G1 X17.191 Y116.959 E12.27012
G1 X16.943 Y116.515 E12.28704
G1 X16.664 Y115.934 E12.30847
G1 X16.516 Y115.517 E12.32319
G1 X16.438 Y115.265 E12.33196
G1 X16.382 Y115.073 E12.33862
G1 X16.251 Y114.584 E12.35545
G1 X16.13 Y113.996 E12.37542
G1 X16.014 Y113.209 E12.40188
G1 X16.003 Y113.131 E12.4045
G1 X13.439 Y93.692 E13.05664
G1 X13.43 Y93.621 E13.05902
G1 X13.35 Y92.943 E13.08173
G1 X13.316 Y92.483 E13.09707
G1 X13.31 Y92.274 E13.10402
G1 X13.308 Y92.055 E13.11131
G1 X13.315 Y91.538 E13.12851
G1 X13.364 Y90.895 E13.14995
G1 X13.44 Y90.475 E13.16415
G1 X13.507 Y90.175 E13.17437
G1 X13.558 Y89.965 E13.18156
G1 X13.674 Y89.531 E13.1965
G1 X13.879 Y88.92 E13.21794
G1 X14.117 Y88.413 E13.23657
G1 X14.406 Y87.875 E13.25688
G1 X14.495 Y87.716 E13.26294
G1 X14.6 Y87.536 E13.26987
G1 X14.959 Y87 E13.29133
G1 X15.191 Y86.717 E13.3035
G1 X15.34 Y86.548 E13.31099
G1 X15.612 Y86.262 E13.32412
G1 X16.001 Y85.883 E13.34218
G1 X16.49 Y85.463 E13.36362
G1 X16.833 Y85.224 E13.37753
G1 X17.065 Y85.076 E13.38668
G1 X17.267 Y84.954 E13.39453
G1 X17.741 Y84.681 E13.41272
G1 X18.318 Y84.394 E13.43416
G1 X19.002 Y84.161 E13.45819
G1 X19.714 Y83.972 E13.48269
G1 F2400 E10.48269
;MESH:Surgical_Mask_Strap_Remix.stl
G0 F5400 X20.758 Y88.377
G0 X21.186 Y89.985
;TYPE:WALL-INNER
G1 F2400 E13.48269
G1 F3600 X21.751 Y89.978 E13.50149
G1 X22.237 Y90.107 E13.51821
G1 X22.662 Y90.352 E13.53453
G1 X23.06 Y90.741 E13.55304
G1 X23.303 Y91.162 E13.5692
G1 X23.445 Y91.665 E13.58659
G1 X23.452 Y92.179 E13.60368
G1 X23.314 Y92.723 E13.62235
G1 X23.061 Y93.161 E13.63917
G1 X22.693 Y93.529 E13.65648
G1 X22.271 Y93.771 E13.67266
G1 X20.766 Y94.197 E13.72469
G1 X21.159 Y97.173 E13.82453
G1 X31.867 Y95.765 E14.18374
G1 X32.065 Y95.739 E14.19039
G1 X32.039 Y95.541 E14.19468
G1 X31.403 Y90.705 E14.35691
G1 X31.403 Y90.159 E14.37507
G1 X31.542 Y89.61 E14.3939
G1 X31.795 Y89.173 E14.4107
G1 X32.141 Y88.827 E14.42697
G1 X32.624 Y88.54 E14.44566
G1 X33.079 Y88.418 E14.46133
G1 X33.607 Y88.411 E14.47889
G1 X34.145 Y88.547 E14.49735
G1 X34.559 Y88.786 E14.51325
G1 X34.936 Y89.153 E14.53074
G1 X35.22 Y89.629 E14.54918
G1 X35.342 Y90.091 E14.56507
G1 X35.349 Y90.615 E14.5825
G1 X35.212 Y91.157 E14.6011
G1 X34.959 Y91.594 E14.61789
G1 X34.614 Y91.939 E14.63412
G1 X34.132 Y92.225 E14.65276
G1 X32.664 Y92.625 E14.70337
G1 X33.058 Y95.611 E14.80354
G1 X43.765 Y94.203 E15.16272
G1 X43.963 Y94.177 E15.16937
G1 X43.937 Y93.979 E15.17366
G1 X43.3 Y89.14 E15.33599
G1 X43.3 Y88.595 E15.35412
G1 X43.44 Y88.044 E15.37303
G1 X43.676 Y87.635 E15.38873
G1 X44.065 Y87.236 E15.40727
G1 X44.483 Y86.996 E15.4233
G1 X44.99 Y86.852 E15.44083
G1 X45.544 Y86.845 E15.45925
G1 X46.003 Y86.968 E15.47506
G1 X46.491 Y87.241 E15.49366
G1 X46.83 Y87.58 E15.5096
G1 X47.099 Y88.033 E15.52713
G1 X47.249 Y88.564 E15.54548
G1 X47.249 Y89.041 E15.56134
G1 X47.12 Y89.553 E15.5789
G1 X46.85 Y90.035 E15.59728
G1 X46.515 Y90.369 E15.61301
G1 X46.026 Y90.661 E15.63196
G1 X44.561 Y91.059 E15.68245
G1 X44.956 Y94.049 E15.78276
G1 X55.86 Y92.617 E16.14854
G1 X55.198 Y87.535 E16.319
G1 X55.198 Y86.989 E16.33716
G1 X55.323 Y86.523 E16.35321
G1 X55.596 Y86.035 E16.3718
G1 X55.933 Y85.698 E16.38766
G1 X56.389 Y85.426 E16.40532
G1 X56.92 Y85.277 E16.42366
G1 X57.399 Y85.277 E16.43959
G1 X57.909 Y85.406 E16.45709
G1 X58.361 Y85.658 E16.4743
G1 X58.756 Y86.044 E16.49267
G1 X59.014 Y86.49 E16.50981
G1 X59.138 Y86.953 E16.52575
G1 X59.145 Y87.52 E16.54461
G1 X59.023 Y87.977 E16.56034
G1 X58.75 Y88.466 E16.57897
G1 X58.412 Y88.804 E16.59487
G1 X57.952 Y89.078 E16.61267
G1 X56.459 Y89.495 E16.66423
G1 X56.854 Y92.487 E16.76461
G1 X77.999 Y89.711 E17.47393
G1 X79.441 Y86.231 E17.59922
G1 X79.756 Y85.819 E17.61647
G1 X80.168 Y85.504 E17.63372
G1 X80.589 Y85.33 E17.64887
G1 X81.242 Y85.228 E17.67085
G1 X118.767 Y85.228 E18.91894
G1 X119.284 Y85.296 E18.93628
G1 X119.782 Y85.486 E18.95401
G1 X120.252 Y85.83 E18.97338
G1 X120.513 Y86.171 E18.98766
G1 X122.004 Y89.711 E19.11542
G1 X143.146 Y92.487 E19.82464
G1 X143.544 Y89.485 E19.92536
G1 X142.059 Y89.089 E19.97648
G1 X141.647 Y88.851 E19.99231
G1 X141.245 Y88.458 E20.01101
G1 X141.005 Y88.041 E20.02701
G1 X140.853 Y87.504 E20.04557
G1 X140.853 Y86.989 E20.0627
G1 X140.978 Y86.523 E20.07875
G1 X141.251 Y86.035 E20.09734
G1 X141.588 Y85.698 E20.1132
G1 X142.048 Y85.424 E20.131
G1 X142.572 Y85.277 E20.14911
G1 X143.052 Y85.277 E20.16507
G1 X143.601 Y85.416 E20.18391
G1 X144.038 Y85.669 E20.2007
G1 X144.383 Y86.014 E20.21693
G1 X144.651 Y86.466 E20.23441
G1 X144.793 Y86.966 E20.25169
G1 X144.802 Y87.58 E20.27212
G1 X144.165 Y92.417 E20.43439
G1 X144.139 Y92.615 E20.44103
G1 X144.337 Y92.641 E20.44532
G1 X155.044 Y94.049 E20.8045
G1 X155.443 Y91.055 E20.90496
G1 X153.999 Y90.667 E20.95469
G1 X153.51 Y90.393 E20.97334
G1 X153.169 Y90.052 E20.98938
G1 X152.902 Y89.603 E21.00675
G1 X152.76 Y89.101 E21.0241
G1 X152.753 Y88.548 E21.0425
G1 X152.876 Y88.089 E21.0583
G1 X153.149 Y87.601 E21.0769
G1 X153.489 Y87.261 E21.09289
G1 X153.94 Y86.993 E21.11034
G1 X154.438 Y86.852 E21.12756
G1 X154.995 Y86.845 E21.14608
G1 X155.451 Y86.967 E21.16178
G1 X155.941 Y87.241 E21.18046
G1 X156.304 Y87.605 E21.19755
G1 X156.549 Y88.03 E21.21387
G1 X156.7 Y88.564 E21.23233
G1 X156.7 Y89.1 E21.25015
G1 X156.039 Y94.179 E21.42051
G1 X166.942 Y95.611 E21.78626
G1 X167.34 Y92.621 E21.88658
G1 X165.863 Y92.224 E21.93745
G1 X165.41 Y91.963 E21.95484
G1 X165.07 Y91.623 E21.97083
G1 X164.78 Y91.137 E21.98965
G1 X164.658 Y90.677 E22.00548
G1 X164.651 Y90.114 E22.02421
G1 X164.783 Y89.618 E22.04128
G1 X165.023 Y89.203 E22.05723
G1 X165.418 Y88.799 E22.07602
G1 X165.86 Y88.544 E22.09299
G1 X166.361 Y88.409 E22.11025
G1 X166.846 Y88.409 E22.12638
G1 X167.394 Y88.548 E22.14518
G1 X167.806 Y88.786 E22.16101
G1 X168.208 Y89.178 E22.17968
G1 X168.443 Y89.586 E22.19534
G1 X168.597 Y90.132 E22.21421
G1 X168.597 Y90.666 E22.23197
G1 X167.937 Y95.741 E22.40219
G1 X178.841 Y97.173 E22.76797
G1 X179.238 Y94.185 E22.86823
G1 X177.793 Y93.8 E22.91797
G1 X177.332 Y93.541 E22.93555
G1 X176.939 Y93.159 E22.95378
G1 X176.699 Y92.741 E22.96981
G1 X176.546 Y92.203 E22.98842
G1 X176.546 Y91.687 E23.00558
G1 X176.67 Y91.224 E23.02152
G1 X176.929 Y90.76 E23.03919
G1 X177.311 Y90.369 E23.05738
G1 X177.731 Y90.127 E23.0735
G1 X178.233 Y89.985 E23.09085
G1 X178.787 Y89.978 E23.10928
G1 X179.252 Y90.101 E23.12527
G1 X179.711 Y90.36 E23.1428
G1 X180.102 Y90.741 E23.16096
G1 X180.342 Y91.159 E23.17699
G1 X180.495 Y91.696 E23.19556
G1 X180.495 Y92.24 E23.21366
G1 X180.366 Y93.254 E23.24766
G1 X177.766 Y113.007 E23.91031
G1 X177.618 Y113.559 E23.92932
G1 X177.377 Y113.976 E23.94534
G1 X177.006 Y114.357 E23.96302
G1 X176.53 Y114.641 E23.98146
G1 X176.068 Y114.763 E23.99735
G1 X175.543 Y114.77 E24.01482
G1 X175.04 Y114.643 E24.03207
G1 X174.56 Y114.374 E24.05037
G1 X174.219 Y114.033 E24.06641
G1 X173.95 Y113.581 E24.08391
G1 X173.801 Y113.052 E24.10219
G1 X173.801 Y112.574 E24.11808
G1 X173.931 Y112.061 E24.13569
G1 X174.2 Y111.583 E24.15393
G1 X174.538 Y111.244 E24.16985
G1 X175.022 Y110.956 E24.18858
G1 X175.482 Y110.833 E24.20442
G1 X177.044 Y110.816 E24.25638
G1 X177.457 Y107.691 E24.36122
G1 X177.483 Y107.493 E24.36786
G1 X177.285 Y107.467 E24.37215
G1 X166.577 Y106.062 E24.73135
G1 X165.869 Y111.438 E24.9117
G1 X165.73 Y111.955 E24.92951
G1 X165.471 Y112.418 E24.94715
G1 X165.106 Y112.793 E24.96456
G1 X164.664 Y113.055 E24.98165
G1 X164.163 Y113.197 E24.99897
G1 X163.61 Y113.204 E25.01736
G1 X163.121 Y113.073 E25.0342
G1 X162.693 Y112.827 E25.05062
G1 X162.296 Y112.439 E25.06908
G1 X162.057 Y112.025 E25.08498
G1 X161.913 Y111.516 E25.10257
G1 X161.906 Y110.958 E25.12113
G1 X162.027 Y110.507 E25.13667
G1 X162.303 Y110.015 E25.15543
G1 X162.643 Y109.675 E25.17142
G1 X163.095 Y109.406 E25.18892
G1 X163.624 Y109.257 E25.20719
G1 X165.147 Y109.257 E25.25785
G1 X165.559 Y106.129 E25.36279
G1 X165.585 Y105.931 E25.36943
