;FLAVOR:Marlin
;TIME:3824
;Filament used: 6.80178m
;Layer height: 0.25
;MINX:8.129
;MINY:1.284
;MINZ:0.13
;MAXX:191.871
;MAXY:198.716
;MAXZ:4.88
;Generated with Cura_SteamEngine 4.5.0
M140 S50
M105
M190 S50
M104 S195
M105
M109 S195
M82 ;absolute extrusion mode
G21 ;metric values
G90 ;absolute positioning
M82 ;set extruder to absolute mode
M107 ;start with the fan off
G28 X0 Y0 ;move X/Y to min endstops
G28 Z0 ;move Z to min endstops
G1 Z8.0 F120 ;move the platform down 8mm
G92 E0 ;zero the extruded length
G1 F200 E1 ;extrude 1 mm of feed stock
G92 E0 ;zero the extruded length again
G1 F120
;Put printing message on LCD screen
M117 Printing...
G92 E0
G92 E0
;LAYER_COUNT:20
;LAYER:0
M107
;MESH:HybridV2_Short.stl
G0 F3600 X88.395 Y9.66 Z0.13
;TYPE:WALL-INNER
G1 F1800 X92.662 Y9.236 E0.0927
G1 X95.665 Y9.021 E0.15779
G1 X98.615 Y8.919 E0.22161
G1 X101.316 Y8.917 E0.28
G1 X104.267 Y9.015 E0.34383
G1 X107.007 Y9.196 E0.4032
G1 X111.613 Y9.66 E0.50328
G1 X111.597 Y10.292 E0.51695
G1 X111.592 Y10.496 E0.52136
G1 X111.796 Y10.496 E0.52419
G1 X116.183 Y10.496 E0.61903
G1 X118.609 Y11.011 E0.67265
G1 X121.315 Y11.681 E0.73292
G1 X124.149 Y12.488 E0.79662
G1 X126.879 Y13.363 E0.8586
G1 X129.522 Y14.311 E0.9193
G1 X132.147 Y15.36 E0.98042
G1 X134.832 Y16.539 E1.04381
G1 X137.327 Y17.74 E1.10368
G1 X139.856 Y19.068 E1.16543
G1 X142.414 Y20.523 E1.22905
G1 X144.847 Y22.016 E1.29077
G1 X147.2 Y23.581 E1.35186
G1 X147.2 Y43.781 E1.78857
G1 X146.821 Y43.829 E1.79682
G1 X146.944 Y45.151 E1.82553
G1 X136.48 Y51.173 E2.08654
G1 X136.282 Y51.271 E2.09131
G1 X136.114 Y51.328 E2.09515
G1 X135.969 Y51.358 E2.09835
G1 X135.788 Y51.37 E2.10227
G1 X135.666 Y51.364 E2.10491
G1 X135.531 Y51.337 E2.10789
G1 X135.191 Y51.222 E2.11565
G1 X132.465 Y50.148 E2.17899
G1 X129.49 Y49.1 E2.24718
G1 X126.482 Y48.15 E2.31538
G1 X123.444 Y47.299 E2.38359
G1 X120.381 Y46.557 E2.45172
G1 X117.286 Y45.914 E2.52006
G1 X114.181 Y45.383 E2.58816
G1 X111.06 Y44.952 E2.65628
G1 X107.917 Y44.625 E2.72459
G1 X104.77 Y44.409 E2.79279
G1 X101.62 Y44.304 E2.86092
G1 X98.468 Y44.302 E2.92907
G1 X95.314 Y44.403 E2.99729
G1 X92.163 Y44.616 E3.06557
G1 X89.024 Y44.941 E3.13379
G1 X85.9 Y45.369 E3.20196
G1 X82.794 Y45.897 E3.27007
G1 X79.703 Y46.538 E3.33832
G1 X76.641 Y47.277 E3.40642
G1 X73.596 Y48.116 E3.4747
G1 X70.588 Y49.073 E3.54294
G1 X67.618 Y50.119 E3.61102
G1 X64.877 Y51.193 E3.67466
G1 X64.468 Y51.332 E3.684
G1 X64.335 Y51.359 E3.68693
G1 X64.17 Y51.37 E3.69051
G1 X64.019 Y51.361 E3.69378
G1 X63.882 Y51.333 E3.6968
G1 X63.74 Y51.285 E3.70004
G1 X63.557 Y51.194 E3.70446
G1 X52.887 Y45.048 E3.97067
G1 X52.908 Y43.772 E3.99826
G1 X52.788 Y43.757 E4.00087
G1 X52.8 Y25.349 E4.39884
G1 X52.613 Y23.712 E4.43446
G1 X52.817 Y23.566 E4.43988
G1 X55.095 Y22.055 E4.49898
G1 X57.609 Y20.51 E4.56277
G1 X60.109 Y19.088 E4.62495
G1 X62.667 Y17.743 E4.68743
G1 X65.19 Y16.527 E4.74798
G1 X67.812 Y15.378 E4.80987
G1 X70.427 Y14.332 E4.87076
G1 X73.037 Y13.393 E4.93073
G1 X75.771 Y12.515 E4.9928
G1 X78.614 Y11.703 E5.05673
G1 X81.385 Y11.012 E5.11847
G1 X83.8 Y10.501 E5.17183
G1 X84.186 Y10.496 E5.18018
G1 X88.213 Y10.496 E5.26724
G1 X88.214 Y10.496 E5.26726
G1 X88.418 Y10.496 E5.27167
G1 X88.414 Y10.292 E5.27451
G1 X88.413 Y10.291 E5.27454
G1 X88.395 Y9.66 E5.28819
G0 F3600 X88.003 Y9.892
G1 F1800 X88.002 Y9.891 E5.28822
G1 X87.985 Y9.299 E5.30102
G1 X92.627 Y8.837 E5.40187
G1 X95.651 Y8.621 E5.46741
G1 X98.601 Y8.519 E5.53123
G1 X101.329 Y8.517 E5.59021
G1 X104.28 Y8.615 E5.65404
G1 X107.045 Y8.798 E5.71395
G1 X112.022 Y9.299 E5.82209
G1 X112.007 Y9.892 E5.83491
G1 X112.002 Y10.096 E5.83932
G1 X112.206 Y10.096 E5.84216
G1 X116.224 Y10.096 E5.92902
G1 X118.698 Y10.621 E5.9837
G1 X121.425 Y11.296 E6.04443
G1 X124.259 Y12.103 E6.10814
G1 X127.014 Y12.986 E6.17068
G1 X129.657 Y13.934 E6.23139
G1 X132.303 Y14.992 E6.29299
G1 X134.993 Y16.173 E6.35651
G1 X137.513 Y17.386 E6.41697
G1 X140.054 Y18.72 E6.47901
G1 X142.612 Y20.175 E6.54264
G1 X145.056 Y21.675 E6.60463
G1 X147.353 Y23.199 E6.66423
G1 X147.6 Y23.375 E6.67078
G1 X147.6 Y44.133 E7.11955
G1 X147.255 Y44.177 E7.12707
G1 X147.366 Y45.37 E7.15297
G1 X136.672 Y51.525 E7.41973
G1 X136.435 Y51.642 E7.42544
G1 X136.22 Y51.715 E7.43035
G1 X136.026 Y51.755 E7.43463
G1 X135.792 Y51.771 E7.4397
G1 X135.615 Y51.761 E7.44354
G1 X135.425 Y51.723 E7.44772
G1 X135.054 Y51.598 E7.45619
G1 X132.325 Y50.523 E7.5196
G1 X129.363 Y49.479 E7.5875
G1 X126.368 Y48.533 E7.6554
G1 X123.343 Y47.686 E7.72331
G1 X120.293 Y46.947 E7.79116
G1 X117.212 Y46.307 E7.85919
G1 X114.12 Y45.778 E7.92701
G1 X111.012 Y45.349 E7.99483
G1 X107.883 Y45.024 E8.06284
G1 X104.75 Y44.809 E8.13074
G1 X101.613 Y44.704 E8.19859
G1 X98.474 Y44.702 E8.26646
G1 X95.334 Y44.803 E8.33437
G1 X92.197 Y45.015 E8.40235
G1 X89.072 Y45.338 E8.47027
G1 X85.961 Y45.764 E8.53815
G1 X82.868 Y46.29 E8.60598
G1 X79.791 Y46.928 E8.67392
G1 X76.741 Y47.664 E8.74175
G1 X73.71 Y48.5 E8.80972
G1 X70.715 Y49.452 E8.87766
G1 X67.757 Y50.494 E8.94547
G1 X65.005 Y51.572 E9.00936
G1 X64.571 Y51.719 E9.01927
G1 X64.392 Y51.756 E9.02322
G1 X64.196 Y51.768 E9.02747
G1 X64.173 Y51.77 E9.02796
G1 X63.966 Y51.758 E9.03245
G1 X63.777 Y51.72 E9.03662
G1 X63.588 Y51.656 E9.04093
G1 X63.358 Y51.542 E9.04648
G1 X52.483 Y45.278 E9.3178
G1 X52.502 Y44.125 E9.34273
G1 X52.388 Y44.111 E9.34521
G1 X52.4 Y25.372 E9.75033
G1 X52.189 Y23.524 E9.79054
G1 X52.584 Y23.241 E9.80105
G1 X54.886 Y21.714 E9.86077
G1 X57.411 Y20.162 E9.92485
G1 X59.911 Y18.74 E9.98702
G1 X62.481 Y17.389 E10.0498
G1 X65.023 Y16.164 E10.1108
G1 X67.651 Y15.012 E10.17283
G1 X70.278 Y13.961 E10.234
G1 X70.291 Y13.957 E10.2343
G1 X72.915 Y13.012 E10.29459
G1 X75.661 Y12.13 E10.35695
G1 X78.504 Y11.318 E10.42087
G1 X81.288 Y10.624 E10.4829
G1 X83.717 Y10.111 E10.53657
G1 X83.757 Y10.102 E10.53745
G1 X84.18 Y10.096 E10.5466
G1 X87.802 Y10.096 E10.6249
G1 X87.803 Y10.096 E10.62493
G1 X88.007 Y10.096 E10.62934
G1 X88.003 Y9.892 E10.63217
G0 F3600 X87.596 Y9.696
G1 F1800 X87.592 Y9.492 E10.63658
G1 X87.591 Y9.491 E10.63662
G1 X87.575 Y8.938 E10.64858
G1 X92.592 Y8.438 E10.75758
G1 X95.637 Y8.221 E10.82357
G1 X98.587 Y8.119 E10.88739
G1 X101.342 Y8.117 E10.94695
G1 X104.293 Y8.215 E11.01078
G1 X107.083 Y8.4 E11.07123
G1 X112.431 Y8.938 E11.18743
G1 X112.417 Y9.492 E11.19941
G1 X112.412 Y9.696 E11.20383
G1 X112.616 Y9.696 E11.20666
G1 X116.265 Y9.696 E11.28555
G1 X118.787 Y10.231 E11.34128
G1 X121.535 Y10.911 E11.40248
G1 X124.369 Y11.718 E11.46619
G1 X127.136 Y12.605 E11.52901
G1 X129.806 Y13.563 E11.59033
G1 X132.459 Y14.624 E11.6521
G1 X135.154 Y15.807 E11.71573
G1 X137.699 Y17.032 E11.7768
G1 X140.252 Y18.372 E11.83913
G1 X142.81 Y19.827 E11.90275
G1 X145.265 Y21.334 E11.96503
G1 X147.585 Y22.873 E12.02522
G1 X148.142 Y23.27 E12.04001
G1 X148.252 Y23.348 E12.04292
G1 X148 Y23.471 E12.04626
G1 X148 Y44.108 E12.49241
G1 X148.586 Y44.41 E12.50666
G1 X148.048 Y44.479 E12.5118
G1 X147.689 Y44.525 E12.51962
G1 X147.788 Y45.589 E12.54272
G1 X136.864 Y51.877 E12.81522
G1 X136.588 Y52.013 E12.82187
G1 X136.327 Y52.102 E12.82783
G1 X136.081 Y52.152 E12.83326
G1 X136.053 Y52.153 E12.83387
G1 X135.797 Y52.171 E12.83941
G1 X135.564 Y52.158 E12.84446
G1 X135.319 Y52.109 E12.84986
G1 X134.918 Y51.974 E12.85901
G1 X132.185 Y50.898 E12.92251
G1 X129.236 Y49.858 E12.99011
G1 X126.254 Y48.916 E13.05772
G1 X123.242 Y48.073 E13.12534
G1 X120.205 Y47.337 E13.1929
G1 X117.138 Y46.7 E13.26062
G1 X114.059 Y46.173 E13.32815
G1 X110.964 Y45.746 E13.39569
G1 X107.849 Y45.423 E13.4634
G1 X104.73 Y45.209 E13.53099
G1 X101.606 Y45.104 E13.59856
G1 X98.48 Y45.102 E13.66615
G1 X95.354 Y45.203 E13.73376
G1 X92.231 Y45.414 E13.80143
G1 X89.12 Y45.735 E13.86905
G1 X86.022 Y46.159 E13.93665
G1 X82.942 Y46.683 E14.00419
G1 X79.879 Y47.318 E14.07182
G1 X76.841 Y48.051 E14.13938
G1 X73.824 Y48.884 E14.20705
G1 X70.842 Y49.831 E14.27469
G1 X67.896 Y50.869 E14.34221
G1 X65.134 Y51.951 E14.40634
G1 X64.678 Y52.106 E14.41676
G1 X64.447 Y52.153 E14.42185
G1 X64.417 Y52.154 E14.4225
G1 X64.198 Y52.168 E14.42725
G1 X64.175 Y52.17 E14.42775
G1 X63.913 Y52.155 E14.43342
G1 X63.675 Y52.107 E14.43867
G1 X63.434 Y52.026 E14.44416
G1 X63.159 Y51.889 E14.45081
G1 X52.079 Y45.508 E14.72723
G1 X52.096 Y44.479 E14.74948
G1 X51.946 Y44.461 E14.75275
G1 X51.426 Y44.398 E14.76407
G1 X51.921 Y44.142 E14.76941
G1 X51.988 Y44.107 E14.77105
G1 X52 Y25.395 E15.17558
G1 X51.765 Y23.335 E15.22041
G1 X52.351 Y22.916 E15.23598
G1 X54.665 Y21.382 E15.296
G1 X54.676 Y21.374 E15.2963
G1 X57.201 Y19.821 E15.36038
G1 X59.713 Y18.392 E15.42286
G1 X62.295 Y17.035 E15.48592
G1 X64.856 Y15.801 E15.54738
G1 X67.49 Y14.646 E15.60956
G1 X70.129 Y13.59 E15.67101
G1 X70.142 Y13.586 E15.6713
G1 X72.793 Y12.631 E15.73222
G1 X75.551 Y11.745 E15.79485
G1 X78.394 Y10.933 E15.85877
G1 X81.191 Y10.236 E15.92109
G1 X83.714 Y9.702 E15.97684
G1 X84.175 Y9.696 E15.98681
G1 X87.391 Y9.696 E16.05633
G1 X87.392 Y9.696 E16.05636
G1 X87.596 Y9.696 E16.05919
G0 F3600 X87.185 Y9.296
G1 F1800 X87.18 Y9.092 E16.06361
G1 X87.165 Y8.552 E16.07528
G1 X87.104 Y6.334 E16.12325
G1 X87.099 Y6.185 E16.12648
G1 X87.103 Y3.684 E16.18055
G1 X87.494 Y3.684 E16.189
G1 X87.502 Y6.185 E16.24253
G1 X87.503 Y6.324 E16.24553
G1 X87.509 Y8.323 E16.28875
G1 X87.509 Y8.324 E16.28877
G1 X87.509 Y8.542 E16.29348
G1 X87.726 Y8.521 E16.29646
G1 X92.557 Y8.039 E16.40142
G1 X95.623 Y7.821 E16.46787
G1 X98.573 Y7.719 E16.53168
G1 X101.355 Y7.717 E16.59183
G1 X104.306 Y7.815 E16.65566
G1 X107.119 Y8.002 E16.71661
G1 X112.265 Y8.52 E16.82842
G1 X112.482 Y8.541 E16.83314
G1 X112.482 Y8.323 E16.83611
G1 X112.482 Y8.322 E16.83613
G1 X112.489 Y6.595 E16.87347
G1 X112.5 Y3.684 E16.9364
G1 X112.899 Y3.684 E16.94503
G1 X112.901 Y4.311 E16.95858
G1 X112.9 Y6.117 E16.99762
G1 X112.888 Y6.603 E17.00813
G1 X112.841 Y8.549 E17.05022
G1 X112.827 Y9.092 E17.06196
G1 X112.822 Y9.296 E17.06637
G1 X113.026 Y9.296 E17.0692
G1 X116.306 Y9.296 E17.14012
G1 X118.876 Y9.841 E17.19691
G1 X121.645 Y10.526 E17.25858
G1 X124.479 Y11.333 E17.32228
G1 X127.258 Y12.224 E17.38538
G1 X129.941 Y13.187 E17.447
G1 X132.62 Y14.258 E17.50938
G1 X135.315 Y15.441 E17.57301
G1 X137.885 Y16.678 E17.63467
G1 X140.45 Y18.024 E17.69729
G1 X143.008 Y19.479 E17.76091
G1 X145.474 Y20.993 E17.82347
G1 X147.817 Y22.547 E17.88426
G1 X148.759 Y23.219 E17.90927
G1 X149.031 Y23.413 E17.91649
G1 X148.73 Y23.559 E17.92061
G1 X148.4 Y23.721 E17.92856
G1 X148.4 Y43.864 E18.36404
G1 X149.344 Y44.351 E18.387
G1 X149.912 Y44.644 E18.40082
G1 X149.278 Y44.724 E18.40804
G1 X149.277 Y44.725 E18.40807
G1 X148.123 Y44.873 E18.43322
G1 X148.21 Y45.808 E18.45352
G1 X137.056 Y52.229 E18.73176
G1 X136.743 Y52.383 E18.7393
G1 X136.43 Y52.489 E18.74645
G1 X136.138 Y52.549 E18.75289
G1 X135.824 Y52.569 E18.7597
G1 X135.801 Y52.571 E18.76019
G1 X135.511 Y52.555 E18.76647
G1 X135.217 Y52.496 E18.77296
G1 X134.776 Y52.348 E18.78301
G1 X132.045 Y51.273 E18.84646
G1 X129.109 Y50.237 E18.91377
G1 X126.14 Y49.299 E18.98109
G1 X123.141 Y48.46 E19.04841
G1 X120.117 Y47.727 E19.11568
G1 X117.064 Y47.093 E19.18309
G1 X113.998 Y46.568 E19.25034
G1 X110.916 Y46.143 E19.3176
G1 X107.815 Y45.822 E19.385
G1 X104.71 Y45.609 E19.45229
G1 X101.599 Y45.504 E19.51958
G1 X98.486 Y45.502 E19.58688
G1 X95.374 Y45.603 E19.6542
G1 X92.265 Y45.813 E19.72156
G1 X89.168 Y46.132 E19.78887
G1 X86.083 Y46.554 E19.85619
G1 X83.016 Y47.076 E19.92345
G1 X79.967 Y47.708 E19.99077
G1 X76.941 Y48.438 E20.05806
G1 X73.938 Y49.268 E20.12542
G1 X70.969 Y50.21 E20.19276
G1 X68.035 Y51.244 E20.26001
G1 X65.276 Y52.324 E20.32407
G1 X65.264 Y52.328 E20.32434
G1 X64.779 Y52.494 E20.33542
G1 X64.526 Y52.544 E20.341
G1 X64.5 Y52.55 E20.34157
G1 X64.472 Y52.551 E20.34218
G1 X64.201 Y52.568 E20.34805
G1 X64.177 Y52.57 E20.34857
G1 X63.862 Y52.552 E20.35539
G1 X63.572 Y52.494 E20.36179
G1 X63.28 Y52.396 E20.36844
G1 X62.96 Y52.237 E20.37617
G1 X51.675 Y45.738 E20.65771
G1 X51.69 Y44.833 E20.67727
G1 X50.732 Y44.717 E20.69814
G1 X50.09 Y44.64 E20.71212
G1 X50.664 Y44.343 E20.71941
G1 X51.242 Y44.044 E20.73348
G1 X51.588 Y43.864 E20.74191
G1 X51.6 Y25.418 E21.1407
G1 X51.388 Y23.557 E21.18119
G1 X50.997 Y23.393 E21.19036
G1 X51.178 Y23.264 E21.19176
G1 X52.118 Y22.591 E21.21675
G1 X54.455 Y21.042 E21.27737
G1 X54.466 Y21.034 E21.27766
G1 X56.991 Y19.48 E21.34176
G1 X59.515 Y18.044 E21.40454
G1 X62.109 Y16.681 E21.46789
G1 X64.689 Y15.438 E21.5298
G1 X67.329 Y14.28 E21.59212
G1 X69.988 Y13.216 E21.65404
G1 X72.671 Y12.25 E21.71569
G1 X75.441 Y11.36 E21.77859
G1 X78.284 Y10.548 E21.84251
G1 X81.094 Y9.848 E21.90512
G1 X83.631 Y9.312 E21.96118
G1 X83.671 Y9.303 E21.96206
G1 X84.169 Y9.296 E21.97283
G1 X86.981 Y9.296 E22.03362
G1 X87.185 Y9.296 E22.03645
G0 F3600 X88.125 Y8.079
G1 F1800 X92.522 Y7.64 E22.13199
G1 X95.609 Y7.421 E22.19889
G1 X98.559 Y7.319 E22.26271
G1 X101.368 Y7.317 E22.32343
G1 X104.319 Y7.415 E22.38727
G1 X107.155 Y7.604 E22.44872
G1 X111.867 Y8.078 E22.5511
G1 X112.084 Y8.099 E22.55581
G1 X112.084 Y7.881 E22.55878
G1 X112.084 Y7.88 E22.55881
G1 X112.102 Y3.284 E22.65817
G1 X113.297 Y3.284 E22.684
G1 X113.301 Y4.311 E22.70621
G1 X113.3 Y6.127 E22.74547
G1 X113.237 Y8.692 E22.80094
G1 X113.232 Y8.896 E22.80535
G1 X113.436 Y8.896 E22.80818
G1 X116.347 Y8.896 E22.87111
G1 X118.965 Y9.451 E22.92897
G1 X121.754 Y10.141 E22.99108
G1 X124.593 Y10.949 E23.0549
G1 X127.38 Y11.843 E23.11817
G1 X130.09 Y12.816 E23.18042
G1 X132.776 Y13.89 E23.24296
G1 X135.476 Y15.075 E23.30671
G1 X138.071 Y16.324 E23.36897
G1 X140.648 Y17.676 E23.43188
G1 X143.206 Y19.131 E23.49551
G1 X145.683 Y20.652 E23.55835
G1 X148.049 Y22.221 E23.61972
G1 X149.539 Y23.284 E23.65929
G1 X149.811 Y23.478 E23.66651
G1 X149.51 Y23.624 E23.67063
G1 X148.8 Y23.971 E23.68772
G1 X148.8 Y43.62 E24.11251
G1 X150.62 Y44.559 E24.15679
G1 X150.695 Y44.597 E24.1586
G1 X151.147 Y44.889 E24.17024
G1 X150.74 Y44.941 E24.17365
G1 X150.656 Y44.951 E24.17536
G1 X148.557 Y45.221 E24.22111
G1 X148.632 Y46.027 E24.23861
G1 X137.248 Y52.58 E24.52259
G1 X136.896 Y52.754 E24.53108
G1 X136.537 Y52.876 E24.53927
G1 X136.193 Y52.946 E24.54686
G1 X136.164 Y52.947 E24.54749
G1 X135.828 Y52.969 E24.55477
G1 X135.805 Y52.971 E24.55527
G1 X135.459 Y52.952 E24.56276
G1 X135.115 Y52.883 E24.57035
G1 X134.641 Y52.724 E24.58116
G1 X131.905 Y51.648 E24.64471
G1 X128.982 Y50.616 E24.71173
G1 X126.026 Y49.682 E24.77875
G1 X123.04 Y48.847 E24.84578
G1 X120.029 Y48.117 E24.91276
G1 X116.99 Y47.486 E24.97986
G1 X113.937 Y46.963 E25.04683
G1 X110.868 Y46.54 E25.1138
G1 X107.781 Y46.221 E25.1809
G1 X104.69 Y46.009 E25.24788
G1 X101.592 Y45.904 E25.31489
G1 X98.492 Y45.902 E25.38191
G1 X95.394 Y46.003 E25.44893
G1 X92.299 Y46.212 E25.51599
G1 X89.216 Y46.529 E25.58299
G1 X86.144 Y46.949 E25.65002
G1 X83.09 Y47.469 E25.717
G1 X80.055 Y48.098 E25.78401
G1 X77.041 Y48.825 E25.85104
G1 X74.052 Y49.652 E25.91808
G1 X71.096 Y50.589 E25.98512
G1 X68.174 Y51.619 E26.0521
G1 X65.405 Y52.703 E26.11639
G1 X64.887 Y52.88 E26.12822
G1 X64.858 Y52.885 E26.12886
G1 X64.553 Y52.947 E26.13559
G1 X64.526 Y52.948 E26.13617
G1 X64.179 Y52.971 E26.14369
G1 X63.809 Y52.949 E26.1517
G1 X63.47 Y52.881 E26.15918
G1 X63.126 Y52.766 E26.16702
G1 X62.761 Y52.585 E26.17583
G1 X51.271 Y45.968 E26.46248
G1 X51.284 Y45.187 E26.47937
G1 X49.344 Y44.953 E26.52161
G1 X49.256 Y44.943 E26.52353
G1 X48.85 Y44.894 E26.53237
G1 X49.297 Y44.601 E26.53846
G1 X49.376 Y44.561 E26.54025
G1 X49.906 Y44.286 E26.55316
G1 X51.188 Y43.621 E26.58438
G1 X51.2 Y25.441 E26.97742
G1 X51.017 Y23.835 E27.01236
G1 X50.51 Y23.622 E27.02425
G1 X50.181 Y23.484 E27.03196
G1 X50.471 Y23.277 E27.0363
G1 X51.885 Y22.266 E27.07388
G1 X54.245 Y20.702 E27.13509
G1 X54.256 Y20.694 E27.13538
G1 X56.785 Y19.137 E27.19959
G1 X59.317 Y17.696 E27.26257
G1 X61.923 Y16.327 E27.32621
G1 X64.522 Y15.075 E27.38858
G1 X67.168 Y13.914 E27.45105
G1 X69.847 Y12.842 E27.51343
G1 X72.549 Y11.869 E27.57552
G1 X75.331 Y10.975 E27.63869
G1 X78.174 Y10.163 E27.70261
G1 X80.997 Y9.46 E27.76551
G1 X83.628 Y8.903 E27.82365
G1 X84.164 Y8.896 E27.83524
G1 X86.569 Y8.896 E27.88723
G1 X86.57 Y8.896 E27.88725
G1 X86.774 Y8.896 E27.89166
