;FLAVOR:Marlin
;TIME:2208
;Filament used: 2.37411m
;Layer height: 0.2
;MINX:57.488
;MINY:74.963
;MINZ:0.2
;MAXX:142.512
;MAXY:125.01
;MAXZ:5
;Generated with Cura_SteamEngine 4.3.0
M140 S50
M105
M190 S50
M104 S195
M105
M109 S195
M82 ;absolute extrusion mode
G21 ;metric values
G90 ;absolute positioning
M82 ;set extruder to absolute mode
M107 ;start with the fan off
G28 X0 Y0 ;move X/Y to min endstops
G28 Z0 ;move Z to min endstops
G1 Z15.0 F120 ;move the platform down 15mm
G92 E0 ;zero the extruded length
G1 F200 E3 ;extrude 6 mm of feed stock
G92 E0 ;zero the extruded length again
G1 F120
;Put printing message on LCD screen
M117 Printing...
G92 E0
G92 E0
G1 F2400 E-3
;LAYER_COUNT:25
;LAYER:0
M107
G0 F3600 X61.967 Y77.388 Z0.2
;TYPE:SKIRT
G1 F2400 E0
G1 F1500 X62.516 Y76.989 E0.02257
G1 X63.131 Y76.597 E0.04683
G1 X63.739 Y76.26 E0.06995
G1 X64.394 Y75.949 E0.09407
G1 X65.053 Y75.686 E0.11767
G1 X65.789 Y75.445 E0.14342
G1 X66.474 Y75.268 E0.16696
G1 X67.176 Y75.133 E0.19073
G1 X67.566 Y75.072 E0.20386
G1 X67.907 Y75.031 E0.21529
G1 X68.458 Y74.992 E0.23366
G1 X69.752 Y74.965 E0.27671
G1 X69.869 Y74.964 E0.2806
G1 X130.292 Y74.963 E2.29027
G1 X130.371 Y74.964 E2.2929
G1 X131.222 Y74.976 E2.32121
G1 X131.498 Y74.986 E2.33039
G1 X131.923 Y75.013 E2.34456
G1 X132.414 Y75.066 E2.36098
G1 X133.042 Y75.162 E2.38211
G1 X133.6 Y75.277 E2.40106
G1 X133.932 Y75.363 E2.41247
G1 X134.066 Y75.399 E2.41709
G1 X134.339 Y75.477 E2.42653
G1 X134.823 Y75.64 E2.44352
G1 X135.474 Y75.892 E2.46673
G1 X136.069 Y76.163 E2.48848
G1 X136.663 Y76.477 E2.51083
G1 X137.214 Y76.81 E2.53224
G1 X137.816 Y77.223 E2.55652
G1 X138.372 Y77.659 E2.58002
G1 X138.938 Y78.163 E2.60523
G1 X139.436 Y78.666 E2.62877
G1 X139.91 Y79.21 E2.65277
G1 X140.317 Y79.737 E2.67492
G1 X140.701 Y80.301 E2.69761
G1 X141.048 Y80.885 E2.7202
G1 X141.401 Y81.569 E2.7458
G1 X141.686 Y82.219 E2.76941
G1 X141.928 Y82.883 E2.79292
G1 X142.121 Y83.529 E2.81534
G1 X142.294 Y84.271 E2.84068
G1 X142.412 Y84.983 E2.86469
G1 X142.485 Y85.709 E2.88895
G1 X142.512 Y86.381 E2.91132
G1 X142.498 Y87.079 E2.93454
G1 X142.441 Y87.769 E2.95757
G1 X142.332 Y88.522 E2.98288
G1 X142.189 Y89.206 E3.00612
G1 X141.995 Y89.911 E3.03044
G1 X141.775 Y90.556 E3.0531
G1 X141.51 Y91.2 E3.07627
G1 X141.212 Y91.814 E3.09897
G1 X140.843 Y92.47 E3.124
G1 X140.465 Y93.054 E3.14714
G1 X140.045 Y93.622 E3.17063
G1 X139.721 Y94.02 E3.1877
G1 X139.416 Y94.362 E3.20294
G1 X139.164 Y94.627 E3.21511
G1 X138.916 Y94.871 E3.22668
G1 X138.751 Y95.028 E3.23425
G1 X138.365 Y95.378 E3.25158
G1 X138.281 Y95.451 E3.25529
G1 X108.144 Y121.705 E4.58466
G1 X108.081 Y121.76 E4.58744
G1 X107.661 Y122.115 E4.60573
G1 X107.531 Y122.221 E4.61131
G1 X106.965 Y122.671 E4.63536
G1 X106.518 Y122.992 E4.65366
G1 X106.007 Y123.322 E4.67389
G1 X105.784 Y123.459 E4.6826
G1 X105.6 Y123.566 E4.68968
G1 X105.122 Y123.814 E4.70759
G1 X104.545 Y124.079 E4.72871
G1 X103.955 Y124.31 E4.74978
G1 X103.215 Y124.553 E4.77569
G1 X102.526 Y124.732 E4.79936
G1 X101.824 Y124.867 E4.82314
G1 X101.158 Y124.954 E4.84548
G1 X100.46 Y125.003 E4.86875
G1 X99.779 Y125.01 E4.8914
G1 X99.024 Y124.971 E4.91655
G1 X98.333 Y124.892 E4.93968
G1 X97.658 Y124.772 E4.96248
G1 X96.989 Y124.61 E4.98538
G1 X96.21 Y124.37 E5.01249
G1 X95.542 Y124.116 E5.03626
G1 X94.983 Y123.862 E5.05668
G1 X94.436 Y123.576 E5.07721
G1 X93.779 Y123.185 E5.10264
G1 X93.487 Y122.999 E5.11415
G1 X93.314 Y122.881 E5.12112
G1 X92.87 Y122.545 E5.13964
G1 X92.36 Y122.117 E5.16178
G1 X92.293 Y122.06 E5.16471
G1 X86.798 Y117.3 E5.40651
G1 X86.787 Y117.29 E5.407
G1 X61.941 Y95.651 E6.50286
G1 X61.873 Y95.59 E6.5059
G1 X61.383 Y95.149 E6.52782
G1 X61.286 Y95.061 E6.53218
G1 X61.039 Y94.828 E6.54347
G1 X60.904 Y94.696 E6.54975
G1 X60.682 Y94.472 E6.56024
G1 X60.443 Y94.214 E6.57194
G1 X60.291 Y94.04 E6.57962
G1 X60.127 Y93.844 E6.58812
G1 X59.869 Y93.52 E6.6019
G1 X59.585 Y93.129 E6.61797
G1 X59.263 Y92.644 E6.63733
G1 X58.952 Y92.115 E6.65774
G1 X58.599 Y91.431 E6.68334
G1 X58.314 Y90.781 E6.70695
G1 X58.065 Y90.098 E6.73113
G1 X57.868 Y89.433 E6.7542
G1 X57.702 Y88.71 E6.77887
G1 X57.588 Y88.017 E6.80223
G1 X57.515 Y87.291 E6.8265
G1 X57.488 Y86.619 E6.84887
G1 X57.502 Y85.921 E6.87209
G1 X57.559 Y85.231 E6.89512
G1 X57.668 Y84.478 E6.92042
G1 X57.813 Y83.787 E6.9439
G1 X58.01 Y83.075 E6.96848
G1 X58.228 Y82.438 E6.99087
G1 X58.49 Y81.801 E7.01378
G1 X58.788 Y81.186 E7.03651
G1 X59.158 Y80.528 E7.06161
G1 X59.538 Y79.941 E7.08487
G1 X59.957 Y79.375 E7.10829
G1 X60.392 Y78.856 E7.13082
G1 X60.894 Y78.326 E7.1551
G1 X61.401 Y77.854 E7.17814
G1 X61.967 Y77.388 E7.20252
G0 F3600 X62.221 Y77.697
G1 F1500 X62.731 Y77.326 E7.2235
G1 X63.346 Y76.934 E7.24776
G1 X63.911 Y76.622 E7.26922
G1 X64.566 Y76.311 E7.29334
G1 X65.178 Y76.066 E7.31526
G1 X65.914 Y75.825 E7.34102
G1 X66.55 Y75.661 E7.36287
G1 X67.252 Y75.526 E7.38664
G1 X67.613 Y75.469 E7.3988
G1 X67.954 Y75.428 E7.41022
G1 X68.467 Y75.392 E7.42733
G1 X69.761 Y75.365 E7.47038
G1 X69.869 Y75.364 E7.47397
G1 X130.292 Y75.363 E9.48365
G1 X130.365 Y75.364 E9.48607
G1 X131.216 Y75.376 E9.51438
G1 X131.473 Y75.385 E9.52293
G1 X131.898 Y75.412 E9.5371
G1 X132.354 Y75.462 E9.55236
G1 X132.982 Y75.558 E9.57349
G1 X133.5 Y75.664 E9.59107
G1 X133.832 Y75.75 E9.60248
G1 X133.957 Y75.784 E9.60679
G1 X134.23 Y75.862 E9.61623
G1 X134.678 Y76.013 E9.63195
G1 X135.329 Y76.265 E9.65517
G1 X135.882 Y76.517 E9.67538
G1 X136.476 Y76.831 E9.69773
G1 X136.988 Y77.14 E9.71762
G1 X137.59 Y77.553 E9.7419
G1 X138.106 Y77.958 E9.76372
G1 X138.672 Y78.462 E9.78893
G1 X139.135 Y78.929 E9.8108
G1 X139.609 Y79.473 E9.8348
G1 X139.986 Y79.962 E9.85533
G1 X140.37 Y80.526 E9.87803
G1 X140.693 Y81.068 E9.89901
G1 X141.046 Y81.752 E9.92461
G1 X141.311 Y82.356 E9.94655
G1 X141.553 Y83.02 E9.97006
G1 X141.731 Y83.62 E9.99087
G1 X141.904 Y84.362 E10.01621
G1 X142.014 Y85.023 E10.0385
G1 X142.087 Y85.749 E10.06277
G1 X142.112 Y86.373 E10.08354
G1 X142.098 Y87.071 E10.10676
G1 X142.045 Y87.712 E10.12815
G1 X141.936 Y88.465 E10.15346
G1 X141.804 Y89.1 E10.17503
G1 X141.61 Y89.805 E10.19935
G1 X141.405 Y90.404 E10.22041
G1 X141.14 Y91.048 E10.24357
G1 X140.863 Y91.618 E10.26465
G1 X140.494 Y92.274 E10.28968
G1 X140.143 Y92.817 E10.31119
G1 X139.723 Y93.385 E10.33468
G1 X139.423 Y93.754 E10.3505
G1 X139.118 Y94.096 E10.36574
G1 X138.884 Y94.342 E10.37703
G1 X138.636 Y94.586 E10.38861
G1 X138.482 Y94.731 E10.39564
G1 X138.096 Y95.081 E10.41297
G1 X138.019 Y95.15 E10.41641
G1 X107.882 Y121.404 E11.74578
G1 X107.823 Y121.454 E11.74835
G1 X107.403 Y121.809 E11.76664
G1 X107.282 Y121.908 E11.77184
G1 X106.716 Y122.358 E11.79589
G1 X106.301 Y122.656 E11.81289
G1 X105.79 Y122.986 E11.83312
G1 X105.583 Y123.113 E11.8412
G1 X105.399 Y123.22 E11.84828
G1 X104.955 Y123.45 E11.86491
G1 X104.378 Y123.715 E11.88603
G1 X103.83 Y123.93 E11.9056
G1 X103.09 Y124.173 E11.93151
G1 X102.45 Y124.339 E11.9535
G1 X101.748 Y124.474 E11.97728
G1 X101.13 Y124.555 E11.99801
G1 X100.432 Y124.604 E12.02128
G1 X99.8 Y124.61 E12.0423
G1 X99.045 Y124.571 E12.06745
G1 X98.403 Y124.498 E12.08894
G1 X97.728 Y124.378 E12.11174
G1 X97.107 Y124.227 E12.133
G1 X96.328 Y123.987 E12.16011
G1 X95.708 Y123.752 E12.18216
G1 X95.149 Y123.498 E12.20258
G1 X94.641 Y123.233 E12.22164
G1 X93.984 Y122.842 E12.24707
G1 X93.713 Y122.669 E12.25776
G1 X93.54 Y122.551 E12.26473
G1 X93.127 Y122.238 E12.28196
G1 X92.617 Y121.81 E12.30411
G1 X92.555 Y121.757 E12.30682
G1 X87.06 Y116.997 E12.54862
G1 X87.05 Y116.988 E12.54907
G1 X62.204 Y95.349 E13.64492
G1 X62.14 Y95.293 E13.64775
G1 X61.65 Y94.852 E13.66968
G1 X61.561 Y94.77 E13.6737
G1 X61.314 Y94.537 E13.685
G1 X61.189 Y94.414 E13.69083
G1 X60.967 Y94.19 E13.70132
G1 X60.744 Y93.951 E13.71219
G1 X60.592 Y93.777 E13.71987
G1 X60.44 Y93.595 E13.72776
G1 X60.182 Y93.271 E13.74154
G1 X59.918 Y92.908 E13.75646
G1 X59.596 Y92.423 E13.77583
G1 X59.307 Y91.932 E13.79478
G1 X58.954 Y91.248 E13.82038
G1 X58.69 Y90.644 E13.8423
G1 X58.441 Y89.961 E13.86648
G1 X58.258 Y89.344 E13.88789
G1 X58.092 Y88.621 E13.91256
G1 X57.986 Y87.977 E13.93427
G1 X57.913 Y87.251 E13.95854
G1 X57.888 Y86.627 E13.97931
G1 X57.902 Y85.929 E14.00253
G1 X57.955 Y85.288 E14.02392
G1 X58.064 Y84.535 E14.04923
G1 X58.198 Y83.893 E14.07104
G1 X58.395 Y83.181 E14.09561
G1 X58.598 Y82.59 E14.11639
G1 X58.86 Y81.953 E14.1393
G1 X59.136 Y81.382 E14.1604
G1 X59.506 Y80.724 E14.1855
G1 X59.86 Y80.179 E14.20712
G1 X60.279 Y79.613 E14.23054
G1 X60.683 Y79.131 E14.25146
G1 X61.185 Y78.601 E14.27574
G1 X61.655 Y78.163 E14.29711
G1 X62.221 Y77.697 E14.32149
G1 F2400 E11.32149
;MESH:Toothpaste_Squeezer.stl
G0 F3600 X65.204 Y81.11
G0 X66.221 Y82.426
;TYPE:WALL-INNER
G1 F2400 E14.32149
G1 F1500 X66.75 Y82.112 E14.34195
G1 X67.313 Y81.865 E14.3624
G1 X67.88 Y81.697 E14.38207
G1 X68.502 Y81.593 E14.40304
G1 X68.953 Y81.564 E14.41808
G1 X130.952 Y81.563 E16.48017
G1 X131.461 Y81.587 E16.49712
G1 X131.997 Y81.671 E16.51516
G1 X132.581 Y81.828 E16.53528
G1 X133.143 Y82.059 E16.55549
G1 X133.679 Y82.36 E16.57593
G1 X134.167 Y82.719 E16.59608
G1 X134.604 Y83.133 E16.61611
G1 X134.992 Y83.605 E16.63643
G1 X135.315 Y84.112 E16.65642
G1 X135.574 Y84.659 E16.67655
G1 X135.772 Y85.255 E16.69744
G1 X135.888 Y85.833 E16.71705
G1 X135.931 Y86.427 E16.73686
G1 X135.9 Y87.058 E16.75787
G1 X135.796 Y87.654 E16.77799
G1 X135.624 Y88.214 E16.79747
G1 X135.367 Y88.793 E16.81854
G1 X135.062 Y89.297 E16.83814
G1 X134.68 Y89.783 E16.8587
G1 X134.332 Y90.137 E16.87521
G1 X103.259 Y117.207 E18.24588
G1 X102.775 Y117.576 E18.26612
G1 X102.246 Y117.89 E18.28658
G1 X101.691 Y118.134 E18.30675
G1 X101.12 Y118.303 E18.32655
G1 X100.516 Y118.403 E18.34692
G1 X99.903 Y118.43 E18.36732
G1 X99.299 Y118.381 E18.38748
G1 X98.703 Y118.259 E18.40771
G1 X98.127 Y118.062 E18.42796
G1 X97.588 Y117.802 E18.44786
G1 X97.079 Y117.474 E18.468
G1 X91.122 Y112.312 E18.73017
G1 X65.777 Y90.239 E19.84802
G1 X65.395 Y89.864 E19.86583
G1 X65.008 Y89.395 E19.88605
G1 X64.685 Y88.888 E19.90605
G1 X64.426 Y88.341 E19.92618
G1 X64.228 Y87.744 E19.9471
G1 X64.112 Y87.165 E19.96674
G1 X64.069 Y86.568 E19.98664
G1 X64.1 Y85.942 E20.00749
G1 X64.204 Y85.346 E20.02761
G1 X64.376 Y84.786 E20.0471
G1 X64.633 Y84.207 E20.06817
G1 X64.934 Y83.708 E20.08755
G1 X65.318 Y83.22 E20.1082
G1 X65.755 Y82.786 E20.12869
G1 X66.221 Y82.426 E20.14827
G1 F2400 E17.14827
G0 F3600 X65.371 Y80.995
G0 X69.562 Y86.176
G0 X68.6 Y84.892
G1 F2400 E20.14827
G1 F1500 X68.1 Y85.406 E20.17212
G1 X67.783 Y86.048 E20.19594
G1 X67.674 Y86.75 E20.21957
G1 X67.783 Y87.452 E20.24319
G1 X68.1 Y88.094 E20.26701
G1 X68.598 Y88.606 E20.29076
G1 X69.232 Y88.946 E20.31469
G1 X69.893 Y89.063 E20.33702
G1 X80.909 Y89.064 E20.70341
G1 X130.08 Y89.063 E22.33885
G1 X130.744 Y88.955 E22.36122
G1 X131.4 Y88.608 E22.38591
G1 X131.9 Y88.094 E22.40976
G1 X132.217 Y87.452 E22.43357
G1 X132.326 Y86.75 E22.4572
G1 X132.217 Y86.048 E22.48083
G1 X131.9 Y85.406 E22.50464
G1 X131.402 Y84.894 E22.5284
G1 X130.768 Y84.554 E22.55232
G1 X130.107 Y84.437 E22.57465
G1 X69.92 Y84.437 E24.57648
G1 X69.256 Y84.545 E24.59885
G1 X68.6 Y84.892 E24.62354
G1 F2400 E21.62354
G0 F3600 X69.612 Y86.239
G0 X71.612 Y87.435
G0 X94.712 Y101.255
G0 X93.411 Y100.349
G1 F2400 E24.62354
G1 F1500 X92.948 Y101.092 E24.65265
G1 X92.669 Y101.638 E24.67305
G1 X92.349 Y102.455 E24.70223
G1 X92.177 Y103.042 E24.72258
G1 X92.011 Y103.904 E24.75177
G1 X91.949 Y104.514 E24.77217
G1 X91.946 Y105.391 E24.80134
G1 X91.997 Y105.999 E24.82163
G1 X92.156 Y106.864 E24.85088
G1 X92.317 Y107.453 E24.87119
G1 X92.631 Y108.273 E24.90039
G1 X92.899 Y108.823 E24.92074
G1 X93.357 Y109.572 E24.94994
G1 X93.722 Y110.063 E24.97029
G1 X94.311 Y110.714 E24.99949
G1 X94.759 Y111.129 E25.0198
G1 X95.458 Y111.663 E25.04906
G1 X95.976 Y111.989 E25.06942
G1 X96.759 Y112.384 E25.09859
G1 X97.33 Y112.609 E25.119
G1 X98.172 Y112.854 E25.14816
G1 X98.772 Y112.971 E25.1685
G1 X99.647 Y113.057 E25.19774
G1 X100.257 Y113.061 E25.21803
G1 X101.132 Y112.984 E25.24724
G1 X101.733 Y112.876 E25.26755
G1 X102.581 Y112.639 E25.29684
G1 X103.152 Y112.423 E25.31714
G1 X103.94 Y112.036 E25.34634
G1 X104.462 Y111.718 E25.36667
G1 X105.166 Y111.193 E25.39588
G1 X105.621 Y110.784 E25.41623
G1 X106.215 Y110.138 E25.44542
G1 X106.589 Y109.651 E25.46584
G1 X107.052 Y108.908 E25.49496
G1 X107.331 Y108.362 E25.51535
G1 X107.651 Y107.545 E25.54454
G1 X107.823 Y106.958 E25.56488
G1 X107.989 Y106.096 E25.59408
G1 X108.051 Y105.486 E25.61447
G1 X108.054 Y104.609 E25.64364
G1 X108.003 Y104.001 E25.66393
G1 X107.844 Y103.136 E25.69319
G1 X107.683 Y102.547 E25.71349
G1 X107.369 Y101.727 E25.7427
G1 X107.101 Y101.177 E25.76305
G1 X106.643 Y100.428 E25.79225
G1 X106.278 Y99.937 E25.8126
G1 X105.689 Y99.286 E25.8418
G1 X105.241 Y98.871 E25.86211
G1 X104.542 Y98.337 E25.89136
G1 X104.024 Y98.011 E25.91172
G1 X103.241 Y97.616 E25.94089
G1 X102.67 Y97.391 E25.9613
G1 X101.828 Y97.146 E25.99047
G1 X101.228 Y97.029 E26.0108
G1 X100.353 Y96.943 E26.04004
G1 X99.743 Y96.939 E26.06033
G1 X98.868 Y97.016 E26.08955
G1 X98.267 Y97.124 E26.10986
G1 X97.419 Y97.361 E26.13914
G1 X96.848 Y97.577 E26.15945
G1 X96.06 Y97.964 E26.18865
G1 X95.538 Y98.282 E26.20898
G1 X94.834 Y98.807 E26.23819
G1 X94.379 Y99.216 E26.25854
G1 X93.785 Y99.862 E26.28772
G1 X93.411 Y100.349 E26.30815
G0 F3600 X93.74 Y100.577
G1 F1500 X93.296 Y101.289 E26.33606
G1 X93.034 Y101.802 E26.35521
G1 X92.728 Y102.584 E26.38314
G1 X92.566 Y103.136 E26.40228
G1 X92.407 Y103.962 E26.43026
G1 X92.349 Y104.535 E26.44941
G1 X92.346 Y105.375 E26.47735
G1 X92.394 Y105.946 E26.49641
G1 X92.546 Y106.775 E26.52444
G1 X92.698 Y107.328 E26.54352
G1 X92.998 Y108.114 E26.5715
G1 X93.25 Y108.63 E26.5906
G1 X93.689 Y109.348 E26.61859
G1 X94.032 Y109.809 E26.6377
G1 X94.596 Y110.433 E26.66567
G1 X95.017 Y110.823 E26.68476
G1 X95.686 Y111.334 E26.71276
G1 X96.173 Y111.64 E26.73189
G1 X96.923 Y112.019 E26.75984
G1 X97.459 Y112.23 E26.779
G1 X98.266 Y112.465 E26.80696
G1 X98.83 Y112.575 E26.82607
G1 X99.668 Y112.657 E26.85407
G1 X100.241 Y112.661 E26.87313
G1 X101.079 Y112.587 E26.90111
G1 X101.644 Y112.486 E26.9202
G1 X102.456 Y112.259 E26.94824
G1 X102.993 Y112.056 E26.96734
G1 X103.747 Y111.685 E26.99529
G1 X104.238 Y111.386 E27.01441
G1 X104.912 Y110.883 E27.04238
G1 X105.34 Y110.499 E27.06151
G1 X105.909 Y109.88 E27.08947
G1 X106.26 Y109.423 E27.10864
G1 X106.704 Y108.711 E27.13654
G1 X106.966 Y108.198 E27.1557
G1 X107.272 Y107.416 E27.18363
G1 X107.434 Y106.864 E27.20277
G1 X107.593 Y106.038 E27.23074
G1 X107.651 Y105.465 E27.2499
G1 X107.654 Y104.625 E27.27784
G1 X107.606 Y104.054 E27.2969
G1 X107.454 Y103.225 E27.32493
G1 X107.302 Y102.672 E27.344
G1 X107.002 Y101.886 E27.37199
G1 X106.75 Y101.37 E27.39109
G1 X106.311 Y100.652 E27.41908
G1 X105.968 Y100.191 E27.43819
G1 X105.404 Y99.567 E27.46616
G1 X104.983 Y99.177 E27.48525
G1 X104.314 Y98.666 E27.51325
G1 X103.827 Y98.36 E27.53238
G1 X103.077 Y97.981 E27.56033
G1 X102.541 Y97.77 E27.57949
G1 X101.734 Y97.535 E27.60744
G1 X101.17 Y97.425 E27.62656
G1 X100.332 Y97.343 E27.65456
G1 X99.759 Y97.339 E27.67362
G1 X98.921 Y97.413 E27.7016
G1 X98.356 Y97.514 E27.72069
G1 X97.544 Y97.741 E27.74873
G1 X97.007 Y97.944 E27.76783
G1 X96.253 Y98.315 E27.79578
G1 X95.762 Y98.614 E27.8149
G1 X95.088 Y99.117 E27.84287
G1 X94.66 Y99.501 E27.86199
G1 X94.091 Y100.12 E27.88996
G1 X93.74 Y100.577 E27.90912
G1 F2400 E24.90912
G0 F3600 X94.78 Y101.297
G0 X93.607 Y104.322
G0 X90.058 Y113.491
G0 X90.859 Y112.614
G1 F2400 E27.90912
G1 F1500 X65.508 Y90.536 E29.02723
G1 X65.101 Y90.137 E29.04619
G1 X64.685 Y89.632 E29.06795
G1 X64.336 Y89.084 E29.08956
G1 X64.051 Y88.483 E29.11168
G1 X63.842 Y87.852 E29.13379
G1 X63.715 Y87.218 E29.1553
G1 X63.668 Y86.569 E29.17694
G1 X63.701 Y85.902 E29.19915
G1 X63.814 Y85.256 E29.22096
G1 X64.003 Y84.64 E29.2424
G1 X64.276 Y84.025 E29.26478
G1 X64.607 Y83.477 E29.28607
G1 X65.018 Y82.954 E29.30819
G1 X65.489 Y82.487 E29.33025
G1 X66 Y82.092 E29.35173
G1 X66.566 Y81.755 E29.37364
G1 X67.17 Y81.491 E29.39557
G1 X67.797 Y81.305 E29.41732
G1 X68.45 Y81.196 E29.43934
G1 X68.942 Y81.164 E29.45574
G1 X130.971 Y81.163 E31.51883
