;FLAVOR:RepRap
;TIME:2226
;Filament used: 1.90917m
;Layer height: 0.2
;Generated with Cura_SteamEngine 2.6.2
M190 S50
M104 S210
M109 S210
G21 ;metric values
G90 ;absolute positioning
M82 ;set extruder to absolute mode
M107 ;start with the fan off
G28 X0 Y0 ;move X/Y to min endstops
G28 Z0 ;move Z to min endstops
G1 Z15.0 F9000 ;move the platform down 15mm
G92 E0 ;zero the extruded length
G1 F200 E3 ;extrude 3mm of feed stock
G92 E0 ;zero the extruded length again
G1 F9000
;Put printing message on LCD screen
M117 Printing...
;LAYER_COUNT:55
;LAYER:0
M107
G0 F3600 X81.217 Y68.77 Z0.2
;TYPE:SKIRT
G1 F1950 X81.65 Y68.26 E0.02225
G1 X82.141 Y67.805 E0.04452
G1 X82.712 Y67.394 E0.06792
G1 X83.349 Y66.993 E0.09295
G1 X83.935 Y66.671 E0.11519
G1 X84.556 Y66.421 E0.13746
G1 X85.109 Y66.267 E0.15655
G1 X85.623 Y66.152 E0.17407
G1 X86.284 Y66.045 E0.19634
G1 X86.848 Y66.017 E0.21512
G1 X111.264 Y66.027 E1.0272
G1 X111.932 Y66.067 E1.04946
G1 X112.59 Y66.187 E1.0717
G1 X113.299 Y66.41 E1.09642
G1 X114.111 Y66.727 E1.12542
G1 X114.718 Y67.008 E1.14766
G1 X115.288 Y67.358 E1.16991
G1 X115.812 Y67.774 E1.19216
G1 X116.107 Y68.059 E1.20581
G1 X116.63 Y68.602 E1.23088
G1 X117.065 Y69.111 E1.25315
G1 X117.436 Y69.668 E1.27541
G1 X117.738 Y70.266 E1.29769
G1 X117.97 Y70.803 E1.31715
G1 X118.198 Y71.432 E1.3394
G1 X118.349 Y72.084 E1.36166
G1 X118.404 Y72.498 E1.37555
G1 X119.033 Y79.171 E1.59848
G1 X119.834 Y84.438 E1.77567
G1 X120.946 Y89.716 E1.95508
G1 X121.591 Y92.244 E2.04185
G1 X122.571 Y95.649 E2.1597
G1 X122.718 Y96.301 E2.18193
G1 X122.79 Y97.198 E2.21186
G1 X122.79 Y101.686 E2.36113
G1 X122.75 Y102.354 E2.38339
G1 X122.631 Y103.012 E2.40563
G1 X122.506 Y103.446 E2.42065
G1 X121.14 Y107.572 E2.56521
G1 X119.695 Y112.797 E2.74551
G1 X119.099 Y115.369 E2.83333
G1 X118.581 Y117.94 E2.92056
G1 X117.745 Y123.234 E3.09882
G1 X117.186 Y128.846 E3.2864
G1 X117.08 Y129.506 E3.30863
G1 X116.896 Y130.149 E3.33087
G1 X116.637 Y130.766 E3.35313
G1 X116.306 Y131.347 E3.37537
G1 X115.908 Y131.885 E3.39763
G1 X115.448 Y132.371 E3.41989
G1 X114.934 Y132.8 E3.44215
G1 X114.373 Y133.163 E3.46438
G1 X113.772 Y133.458 E3.48665
G1 X113.029 Y133.708 E3.51272
G1 X112.784 Y133.772 E3.52114
G1 X112.128 Y133.902 E3.54338
G1 X111.374 Y133.954 E3.56852
G1 X86.784 Y133.977 E4.38639
G1 X86.116 Y133.938 E4.40864
G1 X85.753 Y133.882 E4.42086
G1 X85.474 Y133.83 E4.4303
G1 X84.962 Y133.71 E4.44779
G1 X84.85 Y133.678 E4.45167
G1 X84.218 Y133.456 E4.47394
G1 X83.618 Y133.16 E4.4962
G1 X83.058 Y132.795 E4.51843
G1 X82.544 Y132.366 E4.5407
G1 X82.086 Y131.878 E4.56296
G1 X81.689 Y131.34 E4.5852
G1 X81.359 Y130.758 E4.60745
G1 X81.101 Y130.14 E4.62972
G1 X80.919 Y129.497 E4.65195
G1 X80.814 Y128.836 E4.67421
G1 X80.789 Y128.389 E4.6891
G1 X80.741 Y125.572 E4.78281
G1 X80.436 Y120.186 E4.96223
G1 X79.833 Y114.88 E5.13985
G1 X78.928 Y109.602 E5.31796
G1 X78.378 Y107.043 E5.40501
G1 X77.377 Y103.04 E5.54225
G1 X77.254 Y102.382 E5.56452
G1 X77.21 Y101.682 E5.58785
G1 X77.21 Y97.21 E5.73658
G1 X77.25 Y96.542 E5.75884
G1 X77.32 Y96.107 E5.7735
G1 X77.908 Y93.179 E5.87283
G1 X78.738 Y87.885 E6.05106
G1 X79.271 Y82.507 E6.23081
G1 X79.417 Y79.924 E6.31685
G1 X79.559 Y72.96 E6.54853
G1 X79.613 Y72.293 E6.57078
G1 X79.745 Y71.637 E6.59304
G1 X79.908 Y71.124 E6.61094
G1 X80.074 Y70.677 E6.6268
G1 X80.344 Y70.065 E6.64905
G1 X80.846 Y69.264 E6.68049
G1 X81.217 Y68.77 E6.70104
G0 F3600 X81.537 Y69.01
G1 F1950 X81.955 Y68.52 E6.72246
G1 X82.431 Y68.085 E6.74391
G1 X82.925 Y67.732 E6.7641
G1 X83.562 Y67.331 E6.78914
G1 X84.128 Y67.022 E6.81058
G1 X84.727 Y66.786 E6.832
G1 X85.197 Y66.657 E6.84821
G1 X85.711 Y66.542 E6.86573
G1 X86.347 Y66.441 E6.88714
G1 X86.848 Y66.417 E6.90383
G1 X111.264 Y66.427 E7.71591
G1 X111.908 Y66.467 E7.73737
G1 X112.541 Y66.587 E7.7588
G1 X113.153 Y66.783 E7.78017
G1 X113.965 Y67.1 E7.80916
G1 X114.55 Y67.371 E7.83061
G1 X115.097 Y67.713 E7.85206
G1 X115.819 Y68.337 E7.8838
G1 X116.342 Y68.88 E7.90888
G1 X116.76 Y69.371 E7.93032
G1 X117.113 Y69.91 E7.95175
G1 X117.371 Y70.425 E7.97091
G1 X117.603 Y70.962 E7.99037
G1 X117.821 Y71.568 E8.01179
G1 X117.963 Y72.197 E8.03324
G1 X118.006 Y72.536 E8.0446
G1 X118.636 Y79.218 E8.26783
G1 X119.442 Y84.523 E8.4463
G1 X120.55 Y89.783 E8.62509
G1 X121.205 Y92.348 E8.71314
G1 X122.187 Y95.759 E8.8312
G1 X122.327 Y96.389 E8.85266
G1 X122.39 Y97.198 E8.87965
G1 X122.39 Y101.686 E9.02892
G1 X122.35 Y102.329 E9.05035
G1 X122.231 Y102.963 E9.0718
G1 X122.126 Y103.32 E9.08418
G1 X120.757 Y107.455 E9.22905
G1 X119.306 Y112.703 E9.41015
G1 X118.712 Y115.265 E9.49762
G1 X118.188 Y117.868 E9.58594
G1 X117.348 Y123.186 E9.76501
G1 X116.788 Y128.806 E9.95286
G1 X116.685 Y129.442 E9.97428
G1 X116.503 Y130.061 E9.99574
G1 X116.247 Y130.652 E10.01717
G1 X115.919 Y131.207 E10.03861
G1 X115.525 Y131.717 E10.06004
G1 X115.07 Y132.175 E10.08152
G1 X114.563 Y132.573 E10.10295
G1 X114.011 Y132.905 E10.12438
G1 X113.421 Y133.166 E10.14584
G1 X112.928 Y133.321 E10.16302
G1 X112.683 Y133.385 E10.17145
G1 X112.051 Y133.509 E10.19287
G1 X111.374 Y133.554 E10.21543
G1 X86.784 Y133.577 E11.0333
G1 X85.826 Y133.489 E11.0653
G1 X85.547 Y133.437 E11.07474
G1 X85.071 Y133.325 E11.091
G1 X84.959 Y133.293 E11.09488
G1 X84.352 Y133.078 E11.11629
G1 X83.775 Y132.789 E11.13776
G1 X83.239 Y132.431 E11.1592
G1 X82.751 Y132.01 E11.18063
G1 X82.319 Y131.531 E11.20209
G1 X81.95 Y131.003 E11.22351
G1 X81.649 Y130.433 E11.24495
G1 X81.42 Y129.83 E11.2664
G1 X81.268 Y129.204 E11.28783
G1 X81.189 Y128.382 E11.3153
G1 X81.141 Y125.568 E11.4089
G1 X80.834 Y120.154 E11.58926
G1 X80.229 Y114.821 E11.76778
G1 X79.32 Y109.52 E11.94666
G1 X78.767 Y106.952 E12.03403
G1 X77.765 Y102.943 E12.17147
G1 X77.648 Y102.309 E12.19292
G1 X77.61 Y101.682 E12.21381
G1 X77.61 Y97.21 E12.36255
G1 X77.65 Y96.567 E12.38398
G1 X77.712 Y96.186 E12.39681
G1 X78.302 Y93.251 E12.49639
G1 X79.135 Y87.933 E12.67542
G1 X79.669 Y82.546 E12.85547
G1 X79.817 Y79.927 E12.94272
G1 X79.959 Y72.968 E13.17422
G1 X80.012 Y72.325 E13.19568
G1 X80.144 Y71.694 E13.21712
G1 X80.283 Y71.264 E13.23215
G1 X80.449 Y70.817 E13.24801
G1 X80.711 Y70.227 E13.26949
G1 X81.166 Y69.504 E13.2979
G1 X81.537 Y69.01 E13.31845
G1 F2400 E12.81845
G0 F3600 X84.866 Y72.082
G0 X86.238 Y73.024
;TYPE:WALL-INNER
G1 F2400 E13.31845
G1 F1950 X86.271 Y72.975 E13.32041
G1 X86.426 Y72.808 E13.32799
G1 X86.571 Y72.711 E13.33379
G1 X86.705 Y72.651 E13.33867
G1 X86.85 Y72.613 E13.34366
G1 X87.042 Y72.6 E13.35006
G1 X88.505 Y72.6 E13.39872
G1 X109.429 Y72.603 E14.09466
G1 X109.457 Y72.603 E14.09559
G1 X109.525 Y72.603 E14.09785
G1 X111.087 Y72.604 E14.1498
G1 X111.211 Y72.625 E14.15398
G1 X111.434 Y72.712 E14.16195
G1 X111.61 Y72.839 E14.16916
G1 X111.721 Y72.962 E14.17467
G1 X111.8 Y73.089 E14.17965
G1 X111.832 Y73.159 E14.18221
G1 X111.88 Y73.309 E14.18745
G1 X111.897 Y73.446 E14.19204
G1 X111.897 Y73.761 E14.20252
G1 X111.897 Y73.763 E14.20258
G1 X111.897 Y73.905 E14.20731
G1 X111.897 Y74.133 E14.21489
G1 X111.897 Y74.2 E14.21712
G1 X111.849 Y74.133
G1 X111.646 Y73.905
G1 X111.499 Y73.763 E14.22291
G1 X111.498 Y73.762 E14.22296
G1 X111.246 Y73.562 E14.23366
G1 X110.927 Y73.359 E14.24624
G1 X110.586 Y73.204 E14.25869
G1 X110.268 Y73.098 E14.26984
G1 X109.979 Y73.039 E14.27965
G1 X109.758 Y73.01 E14.28707
G1 X109.525 Y73.003 E14.29482
G1 X109.457 Y73.001 E14.29708
G1 X109.429 Y73.002 E14.29801
G1 X109.132 Y73.024 E14.30791
G1 X108.763 Y73.09 E14.32038
G1 X108.456 Y73.188 E14.3311
G1 X108.27 Y73.263 E14.33777
G1 X107.981 Y73.413 E14.3486
G1 X107.674 Y73.617 E14.36086
G1 X107.447 Y73.812 E14.37081
G1 X107.284 Y73.976 E14.3785
G1 X107.056 Y74.26 E14.39061
G1 X106.879 Y74.539 E14.4016
G1 X106.741 Y74.818 E14.41196
G1 X106.617 Y75.168 E14.42431
G1 X106.542 Y75.494 E14.43543
G1 X106.509 Y75.782 E14.44507
G1 X106.498 Y76.02 E14.453
G1 X106.539 Y76.492 E14.46876
G1 X106.617 Y76.834 E14.48042
G1 X106.742 Y77.181 E14.49269
G1 X106.879 Y77.46 E14.50303
G1 X107.056 Y77.739 E14.51402
G1 X107.29 Y78.033 E14.52652
G1 X107.539 Y78.269 E14.53793
G1 X107.83 Y78.492 E14.55012
G1 X108.084 Y78.646 E14.56
G1 X108.288 Y78.745 E14.56754
G1 X108.552 Y78.845 E14.57693
G1 X108.779 Y78.913 E14.58481
G1 X109.246 Y78.991 E14.60056
G1 X109.597 Y78.998 E14.61224
G1 X109.961 Y78.964 E14.6244
G1 X110.263 Y78.902 E14.63465
G1 X110.584 Y78.798 E14.64587
G1 X110.93 Y78.639 E14.65854
G1 X111.246 Y78.438 E14.67099
G1 X111.499 Y78.237 E14.68174
G1 X111.505 Y78.233 E14.68198
G1 X111.715 Y78.023 E14.69186
G1 X111.897 Y77.8 E14.70143
G1 X111.897 Y78.023
G1 X111.897 Y78.233 E14.7032
G1 X111.897 Y78.241 E14.70347
G1 X111.897 Y78.537 E14.71331
G1 X111.878 Y78.687 E14.71834
G1 X111.833 Y78.836 E14.72352
G1 X111.766 Y78.968 E14.72844
G1 X111.67 Y79.098 E14.73382
G1 X111.622 Y79.149 E14.73614
G1 X111.506 Y79.243 E14.74111
G1 X111.436 Y79.286 E14.74384
G1 X111.295 Y79.349 E14.74898
G1 X111.15 Y79.387 E14.75397
G1 X110.958 Y79.4 E14.76037
G1 X88.588 Y79.397 E15.5044
G1 X88.533 Y79.397 E15.50622
G1 X88.413 Y79.397 E15.51022
G1 X86.912 Y79.396 E15.56014
G1 X86.791 Y79.375 E15.56422
G1 X86.616 Y79.313 E15.5704
G1 X86.562 Y79.286 E15.57241
G1 X86.431 Y79.197 E15.57767
G1 X86.333 Y79.104 E15.58217
G1 X86.229 Y78.964 E15.58797
G1 X86.198 Y78.908 E15.5901
G1 X86.14 Y78.763 E15.59529
G1 X86.11 Y78.627 E15.59992
G1 X86.103 Y78.542 E15.60276
G1 X86.103 Y78.243 E15.61271
G1 X86.103 Y78.221 E15.61344
G1 X86.103 Y78.075 E15.61829
G1 X86.103 Y77.852 E15.62571
G1 X86.103 Y77.801 E15.62741
G1 X86.14 Y77.852
G1 X86.337 Y78.075
G1 X86.481 Y78.221 E15.63296
G1 X86.498 Y78.234 E15.63365
G1 X86.768 Y78.45 E15.64515
G1 X87.05 Y78.627 E15.65622
G1 X87.314 Y78.756 E15.666
G1 X87.524 Y78.837 E15.67348
G1 X87.795 Y78.915 E15.68286
G1 X88.016 Y78.962 E15.69038
G1 X88.319 Y78.993 E15.70051
G1 X88.413 Y78.997 E15.70364
G1 X88.533 Y79.002 E15.70761
G1 X88.587 Y78.998 E15.7094
G1 X89.003 Y78.96 E15.72329
G1 X89.344 Y78.879 E15.73495
G1 X89.697 Y78.753 E15.74741
G1 X89.979 Y78.608 E15.75796
G1 X90.162 Y78.5 E15.76503
G1 X90.541 Y78.203 E15.78104
G1 X90.8 Y77.923 E15.79373
G1 X91.002 Y77.659 E15.80479
G1 X91.151 Y77.403 E15.81464
G1 X91.255 Y77.191 E15.82249
G1 X91.413 Y76.732 E15.83864
G1 X91.494 Y76.229 E15.85558
G1 X91.491 Y75.734 E15.87205
G1 X91.437 Y75.391 E15.8836
G1 X91.341 Y75.032 E15.89596
G1 X91.22 Y74.738 E15.90653
G1 X91.131 Y74.554 E15.91333
G1 X90.966 Y74.294 E15.92357
G1 X90.854 Y74.14 E15.9299
G1 X90.716 Y73.979 E15.93696
G1 X90.542 Y73.802 E15.94521
G1 X90.307 Y73.604 E15.95543
G1 X89.999 Y73.403 E15.96766
G1 X89.712 Y73.255 E15.9784
G1 X89.497 Y73.171 E15.98608
G1 X89.227 Y73.089 E15.99547
G1 X89.006 Y73.043 E16.00297
G1 X88.728 Y73.009 E16.01229
G1 X88.505 Y73 E16.01971
G1 X88.219 Y73.013 E16.02924
G1 X87.996 Y73.043 E16.03672
G1 X87.699 Y73.11 E16.04685
G1 X87.506 Y73.169 E16.05356
G1 X87.204 Y73.294 E16.06443
G1 X86.882 Y73.473 E16.07668
G1 X86.639 Y73.647 E16.08662
G1 X86.496 Y73.769 E16.09288
G1 X86.468 Y73.793 E16.0941
G1 X86.273 Y73.991 E16.10334
G1 X86.103 Y74.196 E16.1122
G1 X86.103 Y73.991
G1 X86.103 Y73.793 E16.11308
G1 X86.103 Y73.756 E16.11426
G1 X86.103 Y73.454 E16.1243
G1 X86.121 Y73.319 E16.12883
G1 X86.166 Y73.167 E16.1341
G1 X86.238 Y73.024 E16.13943
G0 F3600 X85.957 Y72.726
G1 F1950 X86.106 Y72.556 E16.14695
G1 X86.179 Y72.492 E16.15018
G1 X86.375 Y72.36 E16.15804
G1 X86.568 Y72.274 E16.16506
G1 X86.67 Y72.243 E16.16861
G1 X86.786 Y72.218 E16.17256
G1 X86.879 Y72.206 E16.17568
G1 X87.026 Y72.2 E16.18057
G1 X110.974 Y72.199 E16.97708
G1 X111.124 Y72.205 E16.98208
G1 X111.317 Y72.238 E16.98859
G1 X111.541 Y72.318 E16.9965
G1 X111.636 Y72.365 E17.00002
G1 X111.815 Y72.487 E17.00723
G1 X111.894 Y72.556 E17.01072
G1 X112.035 Y72.713 E17.01774
G1 X112.107 Y72.818 E17.02197
G1 X112.16 Y72.913 E17.02559
G1 X112.205 Y73.013 E17.02924
G1 X112.269 Y73.215 E17.03628
G1 X112.287 Y73.319 E17.03979
G1 X112.297 Y73.434 E17.04363
G1 X112.297 Y75.004 E17.09585
G1 X112.297 Y75.09 E17.09871
G1 X112.297 Y75.37 E17.10803
G1 X112.297 Y75.691 E17.1187
G1 X112.297 Y75.977 E17.12821
G1 X112.297 Y76.242 E17.13703
G1 X112.297 Y76.526 E17.14647
G1 X112.297 Y76.834 E17.15672
G1 X112.297 Y77.011 E17.16261
G1 X112.297 Y78.564 E17.21426
G1 X112.271 Y78.768 E17.2211
G1 X112.206 Y78.984 E17.2286
G1 X112.108 Y79.178 E17.23583
G1 X111.975 Y79.359 E17.2433
G1 X111.894 Y79.444 E17.24721
G1 X111.742 Y79.567 E17.25371
G1 X111.625 Y79.64 E17.2583
G1 X111.432 Y79.726 E17.26532
G1 X111.33 Y79.757 E17.26887
G1 X111.214 Y79.782 E17.27282
G1 X111.121 Y79.794 E17.27594
G1 X110.974 Y79.8 E17.28083
G1 X87.026 Y79.801 E18.07734
G1 X86.876 Y79.795 E18.08234
G1 X86.687 Y79.763 E18.08871
G1 X86.459 Y79.682 E18.09676
G1 X86.364 Y79.635 E18.10028
G1 X86.181 Y79.511 E18.10764
G1 X86.107 Y79.446 E18.11091
G1 X86.025 Y79.36 E18.11486
G1 X85.893 Y79.181 E18.12226
G1 X85.837 Y79.081 E18.12607
G1 X85.759 Y78.887 E18.13303
G1 X85.729 Y78.772 E18.13698
G1 X85.712 Y78.672 E18.14035
G1 X85.703 Y78.563 E18.14399
G1 X85.703 Y77.006 E18.19578
G1 X85.703 Y76.82 E18.20196
G1 X85.703 Y76.508 E18.21234
G1 X85.703 Y76.226 E18.22172
G1 X85.703 Y76.059 E18.22728
G1 X85.703 Y75.786 E18.23636
G1 X85.703 Y75.595 E18.24271
G1 X85.703 Y75.353 E18.25076
G1 X85.703 Y75.17 E18.25684
G1 X85.703 Y74.994 E18.2627
G1 X85.703 Y73.431 E18.31468
G1 X85.73 Y73.229 E18.32146
G1 X85.791 Y73.023 E18.32861
G1 X85.892 Y72.822 E18.33609
G1 X85.957 Y72.726 E18.33995
G0 F3600 X87.096 Y73.812
G1 F1950 X86.886 Y73.962 E18.34853
G1 X86.741 Y74.086 E18.35487
G1 X86.568 Y74.262 E18.36308
G1 X86.441 Y74.41 E18.36957
G1 X86.263 Y74.677 E18.38024
G1 X86.129 Y74.932 E18.38982
G1 X86.1 Y75.006 E18.39247
G1 X86.037 Y75.17 E18.39751
G1 X85.981 Y75.353 E18.39993
G1 X85.933 Y75.595 E18.40056
G1 X85.908 Y75.786
G1 X85.902 Y76.059
G1 X85.909 Y76.226
G1 X85.951 Y76.508 E18.4012
G1 X86.032 Y76.82 E18.40851
G1 X86.1 Y76.993 E18.41415
G1 X86.13 Y77.068 E18.41684
G1 X86.257 Y77.313 E18.42602
G1 X86.342 Y77.448 E18.43132
G1 X86.453 Y77.602 E18.43764
G1 X86.629 Y77.802 E18.4465
G1 X86.749 Y77.923 E18.45217
G1 X87 Y78.123 E18.46284
G1 X87.245 Y78.277 E18.47247
G1 X87.474 Y78.389 E18.48094
G1 X87.652 Y78.458 E18.48729
G1 X87.891 Y78.527 E18.49557
G1 X88.078 Y78.566 E18.50192
G1 X88.348 Y78.594 E18.51095
G1 X88.523 Y78.601 E18.51677
G1 X88.939 Y78.564 E18.53067
G1 X89.23 Y78.495 E18.54061
G1 X89.538 Y78.385 E18.55149
G1 X89.786 Y78.258 E18.56076
G1 X89.936 Y78.169 E18.56656
G1 X90.269 Y77.908 E18.58063
G1 X90.494 Y77.665 E18.59165
G1 X90.669 Y77.436 E18.60123
G1 X90.798 Y77.214 E18.60977
G1 X90.885 Y77.037 E18.61633
G1 X91.024 Y76.634 E18.63051
G1 X91.094 Y76.198 E18.6452
G1 X91.091 Y75.767 E18.65953
G1 X91.045 Y75.474 E18.6694
G1 X90.961 Y75.16 E18.68021
G1 X90.855 Y74.901 E18.68952
G1 X90.781 Y74.749 E18.69514
G1 X90.635 Y74.519 E18.7042
G1 X90.54 Y74.388 E18.70958
G1 X90.421 Y74.25 E18.71564
G1 X90.27 Y74.096 E18.72282
G1 X90.068 Y73.926 E18.7316
G1 X89.797 Y73.749 E18.74236
G1 X89.547 Y73.62 E18.75172
G1 X89.366 Y73.549 E18.75819
G1 X89.128 Y73.477 E18.76646
G1 X88.941 Y73.438 E18.77281
G1 X88.695 Y73.408 E18.78105
G1 X88.506 Y73.4 E18.78734
G1 X88.255 Y73.412 E18.7957
G1 X88.067 Y73.437 E18.80201
G1 X87.802 Y73.497 E18.81105
G1 X87.641 Y73.546 E18.81664
G1 X87.378 Y73.655 E18.82611
G1 X87.096 Y73.812 E18.83685
G1 F2400 E18.33685
G0 F3600 X87.93 Y74.795
G0 X89.216 Y74.856
G0 X89.296 Y74.86
G0 X108.106 Y75.766
G0 X108.186 Y75.77
G0 X108.186 Y75.771
G0 X106.937 Y75.562
G1 F2400 E18.83685
G1 F1950 X106.908 Y75.814 E18.84529
G1 X106.899 Y76.012 E18.85188
G1 X106.935 Y76.43 E18.86583
G1 X107.002 Y76.721 E18.87576
G1 X107.111 Y77.025 E18.88651
G1 X107.228 Y77.264 E18.89536
G1 X107.382 Y77.506 E18.9049
G1 X107.586 Y77.762 E18.91578
G1 X107.799 Y77.965 E18.92557
G1 X108.055 Y78.161 E18.93629
G1 X108.276 Y78.294 E18.94487
G1 X108.447 Y78.378 E18.95121
G1 X108.68 Y78.466 E18.95949
G1 X108.87 Y78.523 E18.96609
G1 X109.283 Y78.592 E18.98002
G1 X109.582 Y78.598 E18.98996
G1 X109.902 Y78.568 E19.00065
G1 X110.161 Y78.515 E19.00945
G1 X110.438 Y78.425 E19.01913
G1 X110.738 Y78.287 E19.03012
G1 X111.014 Y78.112 E19.04099
G1 X111.238 Y77.934 E19.0505
G1 X111.421 Y77.751 E19.05911
