;FLAVOR:RepRap
;TIME:1673
;Filament used: 1.50861m
;Layer height: 0.2
;Generated with Cura_SteamEngine 2.6.2
M190 S50
M104 S210
M109 S210
G21 ;metric values
G90 ;absolute positioning
M82 ;set extruder to absolute mode
M107 ;start with the fan off
G28 X0 Y0 ;move X/Y to min endstops
G28 Z0 ;move Z to min endstops
G1 Z15.0 F9000 ;move the platform down 15mm
G92 E0 ;zero the extruded length
G1 F200 E3 ;extrude 3mm of feed stock
G92 E0 ;zero the extruded length again
G1 F9000
;Put printing message on LCD screen
M117 Printing...
;LAYER_COUNT:55
;LAYER:0
M107
G0 F3600 X82.698 Y78.22 Z0.2
G0 X82.266 Y78.731
;TYPE:SKIRT
G1 F1950 X82.698 Y78.22 E0.02226
G1 X83.187 Y77.764 E0.04449
G1 X83.863 Y77.285 E0.07205
G1 X84.447 Y76.933 E0.09473
G1 X85.04 Y76.622 E0.117
G1 X85.665 Y76.385 E0.13923
G1 X86.314 Y76.223 E0.16148
G1 X86.757 Y76.159 E0.17637
G1 X87.965 Y76.033 E0.21676
G1 X88.564 Y76.003 E0.23671
G1 X112.515 Y76.078 E1.03333
G1 X113.182 Y76.12 E1.05556
G1 X113.84 Y76.241 E1.07781
G1 X114.535 Y76.462 E1.10207
G1 X114.919 Y76.612 E1.11578
G1 X115.526 Y76.892 E1.13801
G1 X116.324 Y77.412 E1.16969
G1 X116.846 Y77.819 E1.19171
G1 X117.348 Y78.261 E1.21395
G1 X117.794 Y78.76 E1.23621
G1 X118.067 Y79.136 E1.25167
G1 X118.378 Y79.604 E1.27036
G1 X118.714 Y80.182 E1.29259
G1 X118.979 Y80.796 E1.31484
G1 X119.122 Y81.248 E1.3306
G1 X119.288 Y81.865 E1.35185
G1 X119.448 Y82.723 E1.38088
G1 X120.122 Y89.009 E1.59116
G1 X120.999 Y94.225 E1.76708
G1 X122.642 Y101.222 E2.00613
G1 X122.755 Y101.881 E2.02836
G1 X122.79 Y102.502 E2.04905
G1 X122.79 Y106.986 E2.19819
G1 X122.75 Y107.654 E2.22045
G1 X122.631 Y108.312 E2.24269
G1 X122.449 Y108.91 E2.26348
G1 X120.736 Y113.591 E2.42927
G1 X119.038 Y119.016 E2.61833
G1 X118.8 Y119.642 E2.64061
G1 X118.363 Y120.435 E2.67072
G1 X118.11 Y120.817 E2.68596
G1 X117.708 Y121.352 E2.70822
G1 X117.002 Y122.047 E2.74117
G1 X116.497 Y122.463 E2.76293
G1 X115.956 Y122.857 E2.78519
G1 X115.372 Y123.184 E2.80745
G1 X114.705 Y123.454 E2.83139
G1 X114.011 Y123.685 E2.85572
G1 X113.364 Y123.858 E2.87799
G1 X112.702 Y123.953 E2.90023
G1 X112.236 Y123.972 E2.91575
G1 X87.594 Y123.946 E3.73534
G1 X86.926 Y123.905 E3.7576
G1 X86.268 Y123.785 E3.77985
G1 X85.638 Y123.591 E3.80177
G1 X85.13 Y123.401 E3.81981
G1 X84.519 Y123.13 E3.84204
G1 X83.686 Y122.601 E3.87486
G1 X83.228 Y122.25 E3.89406
G1 X82.722 Y121.812 E3.91632
G1 X82.272 Y121.317 E3.93857
G1 X81.999 Y120.948 E3.95383
G1 X81.645 Y120.426 E3.97481
G1 X81.303 Y119.851 E3.99706
G1 X80.943 Y118.979 E4.02844
G1 X78.851 Y112.396 E4.25818
G1 X77.562 Y108.937 E4.38096
G1 X77.366 Y108.297 E4.40322
G1 X77.248 Y107.638 E4.42549
G1 X77.209 Y106.98 E4.44741
G1 X77.21 Y102.509 E4.59612
G1 X77.25 Y101.841 E4.61837
G1 X77.37 Y101.18 E4.64072
G1 X78.685 Y95.8 E4.82492
G1 X79.19 Y93.271 E4.9107
G1 X80.023 Y87.944 E5.09003
G1 X80.56 Y82.653 E5.26691
G1 X80.667 Y81.993 E5.28915
G1 X80.762 Y81.625 E5.30179
G1 X80.911 Y81.123 E5.31921
G1 X81.14 Y80.494 E5.34147
G1 X81.442 Y79.897 E5.36373
G1 X81.792 Y79.366 E5.38488
G1 X82.266 Y78.731 E5.41123
G0 F3600 X82.587 Y78.97
G1 F1950 X83.004 Y78.479 E5.43266
G1 X83.478 Y78.042 E5.4541
G1 X84.07 Y77.627 E5.47815
G1 X84.654 Y77.275 E5.50083
G1 X85.225 Y76.978 E5.52223
G1 X85.83 Y76.753 E5.5437
G1 X86.457 Y76.604 E5.56514
G1 X86.799 Y76.557 E5.57662
G1 X88.007 Y76.431 E5.61702
G1 X88.562 Y76.403 E5.6355
G1 X112.513 Y76.478 E6.43212
G1 X113.157 Y76.52 E6.45358
G1 X113.79 Y76.641 E6.47502
G1 X114.389 Y76.834 E6.49595
G1 X114.773 Y76.984 E6.50966
G1 X115.358 Y77.256 E6.53112
G1 X116.078 Y77.727 E6.55973
G1 X116.6 Y78.134 E6.58175
G1 X117.083 Y78.561 E6.60319
G1 X117.51 Y79.045 E6.62466
G1 X117.734 Y79.357 E6.63743
G1 X118.045 Y79.825 E6.65612
G1 X118.368 Y80.383 E6.67757
G1 X118.619 Y80.977 E6.69901
G1 X118.735 Y81.352 E6.71207
G1 X118.901 Y81.969 E6.73332
G1 X119.05 Y82.766 E6.76029
G1 X119.724 Y89.049 E6.97046
G1 X120.61 Y94.319 E7.1482
G1 X122.252 Y101.313 E7.38715
G1 X122.36 Y101.949 E7.4086
G1 X122.39 Y102.502 E7.42702
G1 X122.39 Y106.986 E7.57616
G1 X122.35 Y107.629 E7.59759
G1 X122.231 Y108.263 E7.61905
G1 X122.074 Y108.772 E7.63676
G1 X120.354 Y113.473 E7.80325
G1 X118.656 Y118.897 E7.99229
G1 X118.426 Y119.499 E8.01373
G1 X118.029 Y120.214 E8.04093
G1 X117.776 Y120.596 E8.05617
G1 X117.388 Y121.111 E8.07761
G1 X116.747 Y121.739 E8.10746
G1 X116.242 Y122.155 E8.12922
G1 X115.72 Y122.533 E8.15066
G1 X115.155 Y122.844 E8.17211
G1 X114.578 Y123.075 E8.19278
G1 X113.884 Y123.306 E8.21711
G1 X113.261 Y123.471 E8.23854
G1 X112.622 Y123.558 E8.25999
G1 X112.237 Y123.572 E8.2728
G1 X87.595 Y123.546 E9.0924
G1 X86.951 Y123.505 E9.11386
G1 X86.318 Y123.385 E9.13529
G1 X85.778 Y123.216 E9.15411
G1 X85.27 Y123.026 E9.17215
G1 X84.682 Y122.764 E9.19356
G1 X83.929 Y122.283 E9.22328
G1 X83.471 Y121.932 E9.24247
G1 X82.985 Y121.509 E9.2639
G1 X82.554 Y121.029 E9.28536
G1 X82.33 Y120.724 E9.29794
G1 X81.976 Y120.202 E9.31892
G1 X81.648 Y119.647 E9.34036
G1 X81.324 Y118.858 E9.36873
G1 X79.231 Y112.273 E9.59855
G1 X77.936 Y108.797 E9.72192
G1 X77.749 Y108.18 E9.74337
G1 X77.64 Y107.545 E9.76479
G1 X77.609 Y106.98 E9.78362
G1 X77.61 Y102.509 E9.93232
G1 X77.65 Y101.865 E9.95378
G1 X77.759 Y101.275 E9.97374
G1 X79.079 Y95.877 E10.15857
G1 X79.58 Y93.369 E10.24363
G1 X80.421 Y87.989 E10.42474
G1 X80.958 Y82.693 E10.60179
G1 X81.062 Y82.057 E10.62323
G1 X81.146 Y81.738 E10.6342
G1 X81.295 Y81.236 E10.65161
G1 X81.516 Y80.631 E10.67304
G1 X81.811 Y80.057 E10.6945
G1 X82.113 Y79.605 E10.71258
G1 X82.587 Y78.97 E10.73894
G1 F2400 E10.23894
G0 F3600 X86.092 Y81.787
G0 X87.353 Y82.875
;TYPE:WALL-INNER
G1 F2400 E10.73894
G1 F1950 X87.393 Y82.836 E10.7408
G1 X87.536 Y82.731 E10.7467
G1 X87.67 Y82.664 E10.75168
G1 X87.814 Y82.62 E10.75669
G1 X87.959 Y82.603 E10.76154
G1 X89.428 Y82.603 E10.8104
G1 X89.466 Y82.603 E10.81167
G1 X89.537 Y82.603 E10.81403
G1 X110.428 Y82.603 E11.50887
G1 X110.466 Y82.603 E11.51013
G1 X110.537 Y82.603 E11.51249
G1 X112.034 Y82.603 E11.56228
G1 X112.121 Y82.61 E11.56518
G1 X112.275 Y82.644 E11.57043
G1 X112.475 Y82.737 E11.57777
G1 X112.526 Y82.772 E11.57982
G1 X112.66 Y82.89 E11.58576
G1 X112.692 Y82.926 E11.58736
G1 X112.787 Y83.068 E11.59305
G1 X112.85 Y83.207 E11.59812
G1 X112.887 Y83.353 E11.60313
G1 X112.9 Y83.535 E11.6092
G1 X112.9 Y83.762 E11.61675
G1 X112.9 Y83.77 E11.61702
G1 X112.9 Y83.949 E11.62297
G1 X112.899 Y84.202 E11.63138
G1 X112.691 Y83.949
G1 X112.508 Y83.77 E11.63823
G1 X112.502 Y83.765 E11.63849
G1 X112.312 Y83.61 E11.64664
G1 X112.108 Y83.467 E11.65493
G1 X111.922 Y83.359 E11.66208
G1 X111.702 Y83.25 E11.67025
G1 X111.465 Y83.159 E11.67869
G1 X111.221 Y83.086 E11.68716
G1 X110.968 Y83.036 E11.69574
G1 X110.716 Y83.008 E11.70417
G1 X110.537 Y83.002 E11.71013
G1 X110.466 Y83.001 E11.71249
G1 X110.428 Y83.002 E11.71375
G1 X110.198 Y83.015 E11.72141
G1 X109.814 Y83.08 E11.73436
G1 X109.562 Y83.153 E11.74309
G1 X109.324 Y83.242 E11.75154
G1 X109.099 Y83.35 E11.75984
G1 X108.877 Y83.477 E11.76835
G1 X108.667 Y83.627 E11.77693
G1 X108.476 Y83.788 E11.78524
G1 X108.296 Y83.966 E11.79366
G1 X108.135 Y84.155 E11.80192
G1 X107.986 Y84.36 E11.81035
G1 X107.854 Y84.584 E11.81899
G1 X107.744 Y84.813 E11.82744
G1 X107.654 Y85.049 E11.83584
G1 X107.584 Y85.293 E11.84429
G1 X107.535 Y85.541 E11.8527
G1 X107.508 Y85.789 E11.86099
G1 X107.501 Y86 E11.86801
G1 X107.509 Y86.252 E11.8764
G1 X107.544 Y86.506 E11.88493
G1 X107.594 Y86.75 E11.89321
G1 X107.668 Y86.995 E11.90172
G1 X107.764 Y87.234 E11.91029
G1 X107.877 Y87.456 E11.91858
G1 X108.016 Y87.683 E11.92743
G1 X108.284 Y88.025 E11.94188
G1 X108.475 Y88.214 E11.95082
G1 X108.666 Y88.374 E11.9591
G1 X108.876 Y88.524 E11.96769
G1 X109.098 Y88.651 E11.97619
G1 X109.322 Y88.759 E11.98447
G1 X109.556 Y88.848 E11.99279
G1 X109.8 Y88.918 E12.00124
G1 X110.01 Y88.959 E12.00835
G1 X110.255 Y88.992 E12.01657
G1 X110.418 Y88.998 E12.022
G1 X110.515 Y89 E12.02523
G1 X110.583 Y88.998 E12.02749
G1 X110.765 Y88.989 E12.03355
G1 X111.014 Y88.956 E12.0419
G1 X111.265 Y88.902 E12.05044
G1 X111.51 Y88.825 E12.05898
G1 X111.737 Y88.732 E12.06714
G1 X111.922 Y88.641 E12.074
G1 X112.143 Y88.513 E12.0825
G1 X112.351 Y88.361 E12.09106
G1 X112.505 Y88.231 E12.09777
G1 X112.541 Y88.2 E12.09935
G1 X112.72 Y88.018 E12.10784
G1 X112.896 Y87.806 E12.117
G1 X112.896 Y88.018
G1 X112.896 Y88.2 E12.11741
G1 X112.896 Y88.248 E12.11893
G1 X112.895 Y88.591 E12.13034
G1 X112.875 Y88.711 E12.13438
G1 X112.788 Y88.934 E12.14234
G1 X112.659 Y89.113 E12.14968
G1 X112.55 Y89.211 E12.15456
G1 X112.404 Y89.302 E12.16028
G1 X112.256 Y89.362 E12.16559
G1 X112.128 Y89.39 E12.16995
G1 X112.041 Y89.397 E12.17285
G1 X110.583 Y89.397 E12.22135
G1 X110.515 Y89.397 E12.2236
G1 X110.418 Y89.397 E12.22681
G1 X89.583 Y89.397 E12.91979
G1 X89.515 Y89.397 E12.92205
G1 X89.418 Y89.397 E12.92528
G1 X87.968 Y89.397 E12.9735
G1 X87.811 Y89.378 E12.97876
G1 X87.672 Y89.336 E12.98359
G1 X87.525 Y89.263 E12.98905
G1 X87.402 Y89.171 E12.99416
G1 X87.296 Y89.06 E12.99926
G1 X87.214 Y88.936 E13.00421
G1 X87.15 Y88.792 E13.00945
G1 X87.113 Y88.65 E13.01433
G1 X87.1 Y88.465 E13.0205
G1 X87.1 Y88.24 E13.02798
G1 X87.1 Y88.214 E13.02885
G1 X87.1 Y88.025 E13.03513
G1 X87.101 Y87.791 E13.04292
G1 X87.284 Y88.025
G1 X87.475 Y88.214 E13.04882
G1 X87.494 Y88.23 E13.04963
G1 X87.666 Y88.374 E13.05709
G1 X87.876 Y88.524 E13.06567
G1 X88.098 Y88.651 E13.07418
G1 X88.322 Y88.759 E13.08245
G1 X88.556 Y88.848 E13.09077
G1 X88.8 Y88.918 E13.09922
G1 X89.01 Y88.959 E13.10633
G1 X89.255 Y88.992 E13.11456
G1 X89.418 Y88.998 E13.11998
G1 X89.515 Y89 E13.1232
G1 X89.583 Y88.998 E13.12545
G1 X89.765 Y88.989 E13.13151
G1 X90.014 Y88.956 E13.13987
G1 X90.265 Y88.902 E13.1484
G1 X90.51 Y88.825 E13.15695
G1 X90.737 Y88.732 E13.16511
G1 X90.922 Y88.641 E13.17196
G1 X91.143 Y88.513 E13.18046
G1 X91.351 Y88.361 E13.18903
G1 X91.541 Y88.2 E13.19731
G1 X91.72 Y88.018 E13.2058
G1 X91.883 Y87.824 E13.21423
G1 X92.028 Y87.617 E13.22263
G1 X92.158 Y87.393 E13.23125
G1 X92.263 Y87.167 E13.23954
G1 X92.337 Y86.973 E13.24644
G1 X92.41 Y86.735 E13.25472
G1 X92.462 Y86.482 E13.26331
G1 X92.492 Y86.228 E13.27182
G1 X92.5 Y85.975 E13.28024
G1 X92.488 Y85.722 E13.28866
G1 X92.453 Y85.475 E13.29696
G1 X92.4 Y85.229 E13.30533
G1 X92.336 Y85.022 E13.31254
G1 X92.247 Y84.794 E13.32068
G1 X92.136 Y84.565 E13.32914
G1 X92.004 Y84.346 E13.33765
G1 X91.855 Y84.141 E13.34607
G1 X91.691 Y83.949 E13.35447
G1 X91.508 Y83.77 E13.36299
G1 X91.312 Y83.61 E13.3714
G1 X91.108 Y83.467 E13.37969
G1 X90.922 Y83.359 E13.38684
G1 X90.702 Y83.25 E13.39501
G1 X90.465 Y83.159 E13.40345
G1 X90.221 Y83.086 E13.41192
G1 X89.968 Y83.036 E13.4205
G1 X89.716 Y83.008 E13.42893
G1 X89.537 Y83.002 E13.43489
G1 X89.466 Y83.001 E13.43725
G1 X89.428 Y83.002 E13.43851
G1 X89.198 Y83.015 E13.44617
G1 X88.814 Y83.08 E13.45912
G1 X88.562 Y83.153 E13.46785
G1 X88.324 Y83.242 E13.4763
G1 X88.099 Y83.35 E13.4846
G1 X87.877 Y83.477 E13.49311
G1 X87.667 Y83.627 E13.50169
G1 X87.499 Y83.769 E13.50901
G1 X87.476 Y83.788 E13.51
G1 X87.296 Y83.966 E13.51842
G1 X87.104 Y84.197 E13.52841
G1 X87.104 Y83.966
G1 X87.104 Y83.788 E13.53031
G1 X87.104 Y83.758 E13.53128
G1 X87.105 Y83.411 E13.54282
G1 X87.127 Y83.285 E13.54707
G1 X87.188 Y83.112 E13.55318
G1 X87.251 Y83.001 E13.55742
G1 X87.353 Y82.875 E13.56281
G0 F3600 X86.869 Y82.858
G1 F1950 X86.924 Y82.77 E13.56626
G1 X87.061 Y82.6 E13.57353
G1 X87.135 Y82.529 E13.57694
G1 X87.323 Y82.39 E13.58471
G1 X87.518 Y82.293 E13.59196
G1 X87.613 Y82.259 E13.59531
G1 X87.728 Y82.229 E13.59927
G1 X87.827 Y82.212 E13.60261
G1 X87.94 Y82.203 E13.60638
G1 X112.055 Y82.203 E14.40845
G1 X112.176 Y82.213 E14.41248
G1 X112.391 Y82.261 E14.41981
G1 X112.477 Y82.291 E14.42284
G1 X112.678 Y82.392 E14.43032
G1 X112.773 Y82.456 E14.43413
G1 X112.944 Y82.606 E14.4417
G1 X113.008 Y82.679 E14.44493
G1 X113.139 Y82.874 E14.45274
G1 X113.224 Y83.063 E14.45963
G1 X113.256 Y83.167 E14.46325
G1 X113.282 Y83.286 E14.4673
G1 X113.294 Y83.379 E14.47042
G1 X113.3 Y83.518 E14.47505
G1 X113.3 Y85 E14.52434
G1 X113.3 Y85.154 E14.52946
G1 X113.3 Y85.331 E14.53535
G1 X113.3 Y85.545 E14.54247
G1 X113.3 Y85.76 E14.54962
G1 X113.3 Y85.979 E14.5569
G1 X113.3 Y86.198 E14.56419
G1 X113.299 Y86.418 E14.5715
G1 X113.298 Y86.635 E14.57872
G1 X113.297 Y86.843 E14.58564
G1 X113.297 Y87.01 E14.59119
G1 X113.295 Y88.623 E14.64484
G1 X113.262 Y88.817 E14.65139
G1 X113.182 Y89.041 E14.6593
G1 X113.135 Y89.136 E14.66282
G1 X113.013 Y89.315 E14.67003
G1 X112.944 Y89.394 E14.67352
G1 X112.86 Y89.475 E14.6774
G1 X112.779 Y89.54 E14.68085
G1 X112.584 Y89.661 E14.68849
G1 X112.387 Y89.741 E14.69556
G1 X112.272 Y89.771 E14.69951
G1 X112.173 Y89.788 E14.70285
G1 X112.06 Y89.797 E14.70662
G1 X87.945 Y89.797 E15.50869
G1 X87.731 Y89.771 E15.51586
G1 X87.523 Y89.709 E15.52308
G1 X87.322 Y89.608 E15.53056
G1 X87.227 Y89.544 E15.53437
G1 X87.136 Y89.47 E15.53827
G1 X87.056 Y89.393 E15.54196
G1 X86.989 Y89.317 E15.54533
G1 X86.925 Y89.229 E15.54895
G1 X86.857 Y89.119 E15.55325
G1 X86.774 Y88.932 E15.56006
G1 X86.743 Y88.83 E15.56361
G1 X86.718 Y88.714 E15.56755
G1 X86.706 Y88.621 E15.57067
G1 X86.7 Y88.482 E15.5753
G1 X86.7 Y87.001 E15.62456
G1 X86.7 Y86.862 E15.62918
G1 X86.7 Y86.651 E15.6362
G1 X86.7 Y86.438 E15.64328
G1 X86.7 Y86.218 E15.6506
G1 X86.7 Y86 E15.65785
G1 X86.7 Y85.818 E15.6639
G1 X86.701 Y85.602 E15.67109
G1 X86.702 Y85.387 E15.67824
G1 X86.703 Y85.176 E15.68526
G1 X86.703 Y84.988 E15.69151
G1 X86.705 Y83.378 E15.74506
G1 X86.739 Y83.18 E15.75174
G1 X86.818 Y82.959 E15.75955
G1 X86.869 Y82.858 E15.76331
G0 F3600 X87.912 Y83.943
G1 F1950 X87.746 Y84.083 E15.77053
G1 X87.59 Y84.238 E15.77785
G1 X87.45 Y84.403 E15.78504
G1 X87.321 Y84.58 E15.79233
G1 X87.207 Y84.773 E15.79978
G1 X87.112 Y84.971 E15.80709
G1 X87.1 Y85.001 E15.80816
G1 X87.034 Y85.176 E15.81386
G1 X86.973 Y85.387 E15.81837
G1 X86.931 Y85.602 E15.82101
G1 X86.907 Y85.818
G1 X86.901 Y86
G1 X86.908 Y86.218
G1 X86.938 Y86.438
G1 X86.982 Y86.651 E15.82212
G1 X87.046 Y86.862 E15.82746
G1 X87.097 Y86.99 E15.83174
G1 X87.129 Y87.068 E15.83454
G1 X87.227 Y87.261 E15.84174
G1 X87.345 Y87.455 E15.84929
G1 X87.583 Y87.758 E15.86211
G1 X87.745 Y87.918 E15.86968
G1 X87.911 Y88.058 E15.8769
G1 X88.092 Y88.187 E15.88429
G1 X88.284 Y88.297 E15.89165
G1 X88.48 Y88.391 E15.89888
G1 X88.683 Y88.468 E15.90611
G1 X88.894 Y88.529 E15.91341
G1 X89.075 Y88.564 E15.91954
G1 X89.288 Y88.593 E15.92669
G1 X89.512 Y88.6 E15.93415
G1 X89.73 Y88.59 E15.9414
G1 X89.946 Y88.562 E15.94865
G1 X90.162 Y88.515 E15.956
G1 X90.374 Y88.448 E15.9634
G1 X90.573 Y88.367 E15.97054
G1 X90.733 Y88.288 E15.97648
G1 X90.924 Y88.177 E15.98382
G1 X91.104 Y88.046 E15.99123
G1 X91.269 Y87.906 E15.99843
G1 X91.424 Y87.749 E16.00576
G1 X91.565 Y87.58 E16.01308
G1 X91.691 Y87.401 E16.02036
G1 X91.803 Y87.208 E16.02779
G1 X91.894 Y87.012 E16.03497
G1 X91.958 Y86.843 E16.04098
G1 X92.022 Y86.635 E16.04822
G1 X92.067 Y86.418 E16.05559
G1 X92.093 Y86.198 E16.06296
G1 X92.1 Y85.979 E16.07025
G1 X92.089 Y85.76 E16.07754
G1 X92.059 Y85.545 E16.08476
G1 X92.013 Y85.331 E16.09204
G1 X91.958 Y85.154 E16.09821
G1 X91.88 Y84.954 E16.10535
G1 X91.784 Y84.756 E16.11267
G1 X91.67 Y84.567 E16.12001
G1 X91.541 Y84.389 E16.12732
G1 X91.398 Y84.222 E16.13463
G1 X91.241 Y84.068 E16.14195
G1 X91.071 Y83.929 E16.14925
G1 X90.893 Y83.805 E16.15647
G1 X90.733 Y83.712 E16.16262
G1 X90.541 Y83.617 E16.16975
G1 X90.336 Y83.538 E16.17705
G1 X90.125 Y83.475 E16.18438
G1 X89.907 Y83.432 E16.19177
G1 X89.688 Y83.407 E16.1991
G1 X89.471 Y83.401 E16.20632
G1 X89.242 Y83.413 E16.21395
G1 X88.903 Y83.471 E16.22538
G1 X88.687 Y83.533 E16.23286
G1 X88.481 Y83.61 E16.24017
G1 X88.285 Y83.704 E16.2474
G1 X88.093 Y83.814 E16.25476
G1 X87.912 Y83.943 E16.26216
G1 F2400 E15.76216
G0 F3600 X88.774 Y84.881
G0 X90.359 Y84.959
G0 X90.439 Y84.963
G0 X109.089 Y85.9
G0 X109.169 Y85.904
G0 X109.169 Y85.905
G0 X107.907 Y85.818
G1 F2400 E16.26216
G1 F1950 X107.901 Y86 E16.26821
G1 X107.908 Y86.218 E16.27547
G1 X107.938 Y86.438 E16.28285
G1 X107.982 Y86.651 E16.29009
G1 X108.046 Y86.862 E16.29742
G1 X108.129 Y87.068 E16.30481
G1 X108.227 Y87.261 E16.31201
