;FLAVOR:Marlin
;TIME:1582
;Filament used: 2.20692m
;Layer height: 0.2
;MINX:67.483
;MINY:55.387
;MINZ:0.1
;MAXX:132.515
;MAXY:144.621
;MAXZ:5.9
;Generated with Cura_SteamEngine 4.7.1
M140 S50
M105
M190 S50
M104 S195
M105
M109 S195
M82 ;absolute extrusion mode
G21 ;metric values
G90 ;absolute positioning
M82 ;set extruder to absolute mode
M107 ;start with the fan off
G28 X0 Y0 ;move X/Y to min endstops
G28 Z0 ;move Z to min endstops
G1 Z8.0 F120 ;move the platform down 8mm
G92 E0 ;zero the extruded length
G1 F200 E1 ;extrude 1 mm of feed stock
G92 E0 ;zero the extruded length again
G1 F120
;Put printing message on LCD screen
M117 Printing...
G92 E0
G92 E0
G1 F1500 E-0.5
;LAYER_COUNT:30
;LAYER:0
M107
G0 F4628.6 X70.898 Y68.191 Z0.1
;TYPE:SKIRT
G1 F1500 E0
G1 F2700 X71.317 Y67.775 E0.00982
G1 X71.516 Y67.591 E0.01433
G1 X71.959 Y67.21 E0.02404
G1 X72.162 Y67.047 E0.02837
G1 X72.617 Y66.707 E0.03782
G1 X72.805 Y66.575 E0.04164
G1 X73.298 Y66.251 E0.05145
G1 X73.498 Y66.129 E0.05535
G1 X74.003 Y65.84 E0.06502
G1 X74.191 Y65.739 E0.06857
G1 X74.715 Y65.477 E0.07831
G1 X74.974 Y65.36 E0.08304
G1 X76.053 Y64.918 E0.10243
G1 X76.384 Y64.799 E0.10828
G1 X77.521 Y64.452 E0.12805
G1 X77.791 Y64.381 E0.13269
G1 X78.97 Y64.114 E0.1528
G1 X79.21 Y64.067 E0.15686
G1 X80.438 Y63.871 E0.17754
G1 X80.651 Y63.844 E0.18111
G1 X81.944 Y63.712 E0.20273
G1 X82.133 Y63.697 E0.20588
G1 X83.482 Y63.627 E0.22834
G1 X83.638 Y63.622 E0.23094
G1 X85.038 Y63.607 E0.25422
G1 X85.172 Y63.608 E0.25645
G1 X86.596 Y63.643 E0.28014
G1 X86.711 Y63.648 E0.28206
G1 X88.322 Y63.737 E0.30889
G1 X89.89 Y63.864 E0.33505
G1 X91.572 Y64.041 E0.36317
G1 X93.332 Y64.266 E0.39268
G1 X95.206 Y64.543 E0.42419
G1 X97.092 Y64.859 E0.45599
G1 X98.754 Y65.164 E0.48409
G1 X99.404 Y64.479 E0.49979
G1 X100.081 Y63.784 E0.51593
G1 X100.752 Y63.112 E0.53172
G1 X101.4 Y62.481 E0.54676
G1 X102.045 Y61.873 E0.5615
G1 X102.636 Y61.331 E0.57484
G1 X102.716 Y61.26 E0.57662
G1 X103.847 Y60.28 E0.6015
G1 X103.967 Y60.18 E0.6041
G1 X105.055 Y59.313 E0.62724
G1 X105.205 Y59.199 E0.63037
G1 X106.261 Y58.44 E0.652
G1 X106.444 Y58.317 E0.65566
G1 X107.474 Y57.664 E0.67594
G1 X107.687 Y57.538 E0.68006
G1 X108.703 Y56.983 E0.69931
G1 X108.978 Y56.847 E0.70441
G1 X109.988 Y56.397 E0.7228
G1 X110.316 Y56.269 E0.72866
G1 X111.329 Y55.926 E0.74644
G1 X111.707 Y55.819 E0.75298
G1 X112.725 Y55.588 E0.77034
G1 X113.172 Y55.514 E0.77787
G1 X114.198 Y55.407 E0.79503
G1 X114.645 Y55.387 E0.80247
G1 X115.652 Y55.401 E0.81922
G1 X116.106 Y55.435 E0.82679
G1 X117.072 Y55.565 E0.843
G1 X117.542 Y55.659 E0.85097
G1 X118.493 Y55.912 E0.86733
G1 X118.906 Y56.047 E0.87456
G1 X119.771 Y56.387 E0.89001
G1 X120.124 Y56.547 E0.89646
G1 X120.953 Y56.975 E0.91198
G1 X121.248 Y57.145 E0.91764
G1 X122.008 Y57.628 E0.93261
G1 X122.243 Y57.79 E0.93736
G1 X122.965 Y58.329 E0.95234
G1 X123.153 Y58.478 E0.95633
G1 X123.839 Y59.061 E0.9713
G1 X123.98 Y59.187 E0.97445
G1 X124.624 Y59.792 E0.98914
G1 X124.74 Y59.906 E0.99185
G1 X125.384 Y60.565 E1.00717
G1 X125.467 Y60.653 E1.00918
G1 X126.108 Y61.352 E1.02495
G1 X126.847 Y62.202 E1.04369
G1 X127.527 Y63.02 E1.06138
G1 X128.21 Y63.866 E1.07946
G1 X128.881 Y64.72 E1.09752
G1 X129.584 Y65.632 E1.11667
G1 X130.302 Y66.581 E1.13646
G1 X131.033 Y67.558 E1.15675
G1 X131.775 Y68.56 E1.17749
G1 X132.07 Y69.025 E1.18664
G1 X132.294 Y69.528 E1.1958
G1 X132.444 Y70.059 E1.20498
G1 X132.515 Y70.605 E1.21413
G1 X132.506 Y71.156 E1.2233
G1 X132.418 Y71.7 E1.23246
G1 X132.252 Y72.225 E1.24162
G1 X132.012 Y72.721 E1.25078
G1 X131.702 Y73.177 E1.25995
G1 X131.33 Y73.583 E1.26911
G1 X130.975 Y73.88 E1.27681
G1 X126.144 Y77.439 E1.37659
G1 X125.678 Y77.733 E1.38576
G1 X125.174 Y77.956 E1.39492
G1 X124.643 Y78.105 E1.40409
G1 X124.097 Y78.174 E1.41325
G1 X123.546 Y78.164 E1.42241
G1 X123.002 Y78.075 E1.43158
G1 X122.477 Y77.908 E1.44074
G1 X121.982 Y77.666 E1.4499
G1 X121.527 Y77.356 E1.45906
G1 X121.121 Y76.983 E1.46823
G1 X120.836 Y76.641 E1.47563
G1 X120.104 Y75.653 E1.49608
G1 X119.393 Y74.701 E1.51584
G1 X118.726 Y73.821 E1.5342
G1 X118.101 Y73.009 E1.55124
G1 X117.53 Y72.284 E1.56659
G1 X116.946 Y71.562 E1.58203
G1 X116.461 Y70.983 E1.59459
G1 X115.934 Y70.378 E1.60794
G1 X115.514 Y69.922 E1.61825
G1 X115.122 Y69.523 E1.62755
G1 X114.742 Y69.175 E1.63612
G1 X114.395 Y69.372 E1.64275
G1 X113.847 Y69.732 E1.65366
G1 X113.161 Y70.239 E1.66784
G1 X112.806 Y70.522 E1.67539
G1 X112.381 Y70.873 E1.68456
G1 X111.976 Y71.224 E1.69347
G1 X111.544 Y71.613 E1.70314
G1 X111.015 Y72.105 E1.71515
G1 X110.534 Y72.568 E1.72626
G1 X110.018 Y73.078 E1.73832
G1 X109.479 Y73.625 E1.75109
G1 X108.887 Y74.243 E1.76532
G1 X108.267 Y74.903 E1.78038
G1 X107.993 Y75.201 E1.78712
G1 X107.993 Y93.021 E2.08346
G1 X127.193 Y93.021 E2.40276
G1 X127.743 Y93.061 E2.41193
G1 X128.281 Y93.18 E2.42109
G1 X128.796 Y93.376 E2.43026
G1 X129.277 Y93.644 E2.43941
G1 X129.715 Y93.978 E2.44858
G1 X130.099 Y94.373 E2.45774
G1 X130.423 Y94.819 E2.4669
G1 X130.678 Y95.307 E2.47606
G1 X130.861 Y95.827 E2.48523
G1 X130.966 Y96.368 E2.49439
G1 X130.993 Y96.821 E2.50194
G1 X130.993 Y140.821 E3.23366
G1 X130.953 Y141.371 E3.24283
G1 X130.834 Y141.909 E3.252
G1 X130.638 Y142.424 E3.26116
G1 X130.37 Y142.905 E3.27032
G1 X130.036 Y143.343 E3.27948
G1 X129.641 Y143.727 E3.28864
G1 X129.195 Y144.051 E3.29781
G1 X128.707 Y144.306 E3.30696
G1 X128.187 Y144.489 E3.31613
G1 X127.646 Y144.594 E3.3253
G1 X127.193 Y144.621 E3.33284
G1 X75.193 Y144.621 E4.19761
G1 X74.643 Y144.581 E4.20678
G1 X74.105 Y144.462 E4.21594
G1 X73.59 Y144.266 E4.2251
G1 X73.109 Y143.998 E4.23426
G1 X72.671 Y143.664 E4.24342
G1 X72.287 Y143.269 E4.25258
G1 X71.963 Y142.823 E4.26175
G1 X71.708 Y142.335 E4.27091
G1 X71.525 Y141.815 E4.28007
G1 X71.42 Y141.274 E4.28924
G1 X71.393 Y140.821 E4.29678
G1 X71.393 Y96.821 E5.02851
G1 X71.433 Y96.271 E5.03768
G1 X71.552 Y95.733 E5.04684
G1 X71.748 Y95.218 E5.05601
G1 X72.016 Y94.737 E5.06516
G1 X72.35 Y94.299 E5.07432
G1 X72.745 Y93.915 E5.08348
G1 X73.191 Y93.591 E5.09265
G1 X73.679 Y93.336 E5.10181
G1 X74.199 Y93.153 E5.11098
G1 X74.74 Y93.048 E5.12014
G1 X75.193 Y93.021 E5.12769
G1 X94.393 Y93.021 E5.44698
G1 X94.393 Y78.197 E5.69351
G1 X94.081 Y78.142 E5.69878
G1 X92.497 Y77.888 E5.72546
G1 X91.029 Y77.68 E5.75011
G1 X89.552 Y77.502 E5.77485
G1 X88.251 Y77.373 E5.79659
G1 X86.957 Y77.278 E5.81817
G1 X85.792 Y77.225 E5.83757
G1 X84.696 Y77.212 E5.85579
G1 X83.718 Y77.235 E5.87206
G1 X82.87 Y77.29 E5.88619
G1 X82.102 Y77.377 E5.89905
G1 X81.517 Y77.475 E5.90891
G1 X81.112 Y77.572 E5.91584
G1 X81.173 Y78.012 E5.92323
G1 X81.293 Y78.592 E5.93307
G1 X81.485 Y79.304 E5.94534
G1 X81.738 Y80.09 E5.95907
G1 X82.07 Y80.98 E5.97487
G1 X82.512 Y82.034 E5.99387
G1 X82.687 Y82.556 E6.00303
G1 X82.786 Y83.099 E6.01221
G1 X82.804 Y83.649 E6.02136
G1 X82.743 Y84.197 E6.03053
G1 X82.603 Y84.73 E6.03969
G1 X82.388 Y85.237 E6.04885
G1 X82.101 Y85.708 E6.05802
G1 X81.75 Y86.132 E6.06718
G1 X81.341 Y86.501 E6.07634
G1 X80.882 Y86.807 E6.08551
G1 X80.54 Y86.979 E6.09188
G1 X75.049 Y89.399 E6.19167
G1 X74.53 Y89.584 E6.20083
G1 X73.989 Y89.692 E6.21001
G1 X73.439 Y89.721 E6.21917
G1 X72.89 Y89.67 E6.22834
G1 X72.355 Y89.54 E6.23749
G1 X71.844 Y89.334 E6.24665
G1 X71.368 Y89.057 E6.25581
G1 X70.937 Y88.713 E6.26498
G1 X70.561 Y88.311 E6.27414
G1 X70.246 Y87.858 E6.28331
G1 X70.009 Y87.386 E6.2921
G1 X69.451 Y86.049 E6.31619
G1 X69.399 Y85.917 E6.31855
G1 X68.913 Y84.618 E6.34161
G1 X68.854 Y84.448 E6.34461
G1 X68.452 Y83.196 E6.36647
G1 X68.396 Y83.005 E6.36978
G1 X68.069 Y81.768 E6.39106
G1 X68.02 Y81.56 E6.39462
G1 X67.774 Y80.359 E6.415
G1 X67.73 Y80.093 E6.41949
G1 X67.572 Y78.896 E6.43957
G1 X67.544 Y78.592 E6.44464
G1 X67.485 Y77.432 E6.46396
G1 X67.483 Y77.092 E6.46961
G1 X67.527 Y75.958 E6.48849
G1 X67.55 Y75.659 E6.49347
G1 X67.618 Y75.083 E6.50312
G1 X67.648 Y74.88 E6.50653
G1 X67.747 Y74.309 E6.51617
G1 X67.797 Y74.067 E6.52028
G1 X67.929 Y73.52 E6.52964
G1 X67.988 Y73.304 E6.53336
G1 X68.157 Y72.749 E6.54301
G1 X68.242 Y72.5 E6.54738
G1 X68.451 Y71.953 E6.55712
G1 X68.555 Y71.707 E6.56156
G1 X68.801 Y71.178 E6.57126
G1 X68.925 Y70.936 E6.57579
G1 X69.202 Y70.437 E6.58528
G1 X69.342 Y70.203 E6.58981
G1 X69.664 Y69.71 E6.59961
G1 X69.81 Y69.503 E6.60382
G1 X70.163 Y69.034 E6.61358
G1 X70.336 Y68.821 E6.61814
G1 X70.712 Y68.39 E6.62765
G1 X70.898 Y68.191 E6.63218
G0 F4628.6 X71.179 Y68.475
G1 F2700 X71.598 Y68.059 E6.642
G1 X71.777 Y67.894 E6.64605
G1 X72.22 Y67.513 E6.65577
G1 X72.402 Y67.367 E6.65965
G1 X72.857 Y67.027 E6.6691
G1 X73.025 Y66.91 E6.6725
G1 X73.518 Y66.586 E6.68231
G1 X73.696 Y66.476 E6.68579
G1 X74.201 Y66.187 E6.69547
G1 X74.369 Y66.097 E6.69864
G1 X74.893 Y65.835 E6.70838
G1 X75.125 Y65.73 E6.71261
G1 X76.204 Y65.288 E6.732
G1 X76.501 Y65.182 E6.73725
G1 X77.638 Y64.835 E6.75702
G1 X77.879 Y64.771 E6.76116
G1 X79.058 Y64.504 E6.78127
G1 X79.273 Y64.462 E6.78491
G1 X80.501 Y64.266 E6.80559
G1 X80.692 Y64.242 E6.80879
G1 X81.985 Y64.11 E6.83041
G1 X82.154 Y64.097 E6.83323
G1 X83.503 Y64.027 E6.85569
G1 X83.643 Y64.022 E6.85802
G1 X85.043 Y64.007 E6.8813
G1 X85.163 Y64.008 E6.8833
G1 X86.587 Y64.043 E6.90699
G1 X86.689 Y64.047 E6.90868
G1 X88.201 Y64.13 E6.93387
G1 X88.289 Y64.136 E6.93533
G1 X89.857 Y64.263 E6.9615
G1 X91.529 Y64.439 E6.98945
G1 X93.281 Y64.663 E7.01883
G1 X95.14 Y64.938 E7.05008
G1 X97.02 Y65.252 E7.08178
G1 X98.896 Y65.597 E7.1135
G1 X99.005 Y65.48 E7.11616
G1 X99.691 Y64.758 E7.13272
G1 X100.364 Y64.067 E7.14876
G1 X101.031 Y63.399 E7.16446
G1 X101.674 Y62.772 E7.17939
G1 X102.315 Y62.168 E7.19404
G1 X102.977 Y61.562 E7.20897
G1 X104.108 Y60.582 E7.23385
G1 X104.216 Y60.493 E7.23618
G1 X105.304 Y59.626 E7.25932
G1 X105.439 Y59.524 E7.26213
G1 X106.495 Y58.765 E7.28376
G1 X106.658 Y58.654 E7.28704
G1 X107.688 Y58.001 E7.30732
G1 X107.879 Y57.889 E7.311
G1 X108.895 Y57.334 E7.33025
G1 X109.141 Y57.212 E7.33482
G1 X110.151 Y56.762 E7.35321
G1 X110.445 Y56.648 E7.35845
G1 X111.458 Y56.305 E7.37624
G1 X111.796 Y56.209 E7.38208
G1 X112.814 Y55.978 E7.39944
G1 X113.213 Y55.912 E7.40617
G1 X114.239 Y55.805 E7.42332
G1 X114.639 Y55.787 E7.42998
G1 X115.646 Y55.801 E7.44673
G1 X116.052 Y55.831 E7.4535
G1 X117.018 Y55.961 E7.46971
G1 X117.439 Y56.045 E7.47685
G1 X118.39 Y56.298 E7.49321
G1 X118.76 Y56.42 E7.49969
G1 X119.625 Y56.76 E7.51515
G1 X119.941 Y56.903 E7.52092
G1 X120.77 Y57.331 E7.53643
G1 X121.034 Y57.482 E7.54149
G1 X121.794 Y57.965 E7.55646
G1 X122.004 Y58.11 E7.56071
G1 X122.726 Y58.649 E7.57569
G1 X122.894 Y58.783 E7.57927
G1 X123.58 Y59.366 E7.59424
G1 X123.706 Y59.479 E7.59705
G1 X124.35 Y60.084 E7.61175
G1 X124.454 Y60.186 E7.61417
G1 X125.098 Y60.845 E7.62949
G1 X125.172 Y60.923 E7.63128
G1 X125.813 Y61.622 E7.64705
G1 X126.539 Y62.458 E7.66547
G1 X127.216 Y63.271 E7.68306
G1 X127.896 Y64.113 E7.70106
G1 X128.565 Y64.964 E7.71906
G1 X129.265 Y65.873 E7.73814
G1 X129.982 Y66.82 E7.75789
G1 X130.711 Y67.796 E7.77815
G1 X131.453 Y68.798 E7.79889
G1 X131.731 Y69.239 E7.80756
G1 X131.937 Y69.718 E7.81623
G1 X132.068 Y70.222 E7.82489
G1 X132.12 Y70.74 E7.83354
G1 X132.092 Y71.261 E7.84222
G1 X131.986 Y71.771 E7.85088
G1 X131.802 Y72.259 E7.85956
G1 X131.546 Y72.713 E7.86822
G1 X131.224 Y73.122 E7.87688
G1 X130.738 Y73.558 E7.88774
G1 X125.907 Y77.117 E7.98753
G1 X125.465 Y77.393 E7.99619
G1 X124.986 Y77.599 E8.00486
G1 X124.481 Y77.728 E8.01353
G1 X123.962 Y77.779 E8.0222
G1 X123.442 Y77.75 E8.03087
G1 X122.932 Y77.642 E8.03953
G1 X122.445 Y77.457 E8.0482
G1 X121.991 Y77.2 E8.05687
G1 X121.583 Y76.877 E8.06553
G1 X121.157 Y76.403 E8.07613
G1 X120.416 Y75.402 E8.09684
G1 X119.714 Y74.462 E8.11635
G1 X119.06 Y73.599 E8.13436
G1 X118.441 Y72.795 E8.15123
G1 X117.814 Y71.999 E8.16808
G1 X117.256 Y71.31 E8.18283
G1 X116.719 Y70.669 E8.19673
G1 X116.247 Y70.129 E8.20866
G1 X115.796 Y69.638 E8.21975
G1 X115.403 Y69.239 E8.22906
G1 X114.838 Y68.734 E8.24166
G1 X114.792 Y68.702 E8.24259
G1 X114.637 Y68.774 E8.24544
G1 X114.2 Y69.023 E8.2538
G1 X113.6 Y69.416 E8.26573
G1 X112.931 Y69.911 E8.27957
G1 X112.558 Y70.208 E8.2875
G1 X112.124 Y70.566 E8.29685
G1 X111.698 Y70.936 E8.30624
G1 X111.272 Y71.32 E8.31577
G1 X110.743 Y71.812 E8.32779
G1 X110.236 Y72.3 E8.33949
G1 X109.701 Y72.829 E8.352
G1 X109.158 Y73.381 E8.36488
G1 X108.572 Y73.993 E8.37897
G1 X107.975 Y74.629 E8.39348
G1 X107.593 Y75.045 E8.40287
G1 X107.593 Y93.421 E8.70846
G1 X127.193 Y93.421 E9.03441
G1 X127.713 Y93.461 E9.04309
G1 X128.22 Y93.58 E9.05175
G1 X128.703 Y93.775 E9.06041
G1 X129.151 Y94.041 E9.06907
G1 X129.553 Y94.373 E9.07774
G1 X129.899 Y94.763 E9.08641
G1 X130.182 Y95.201 E9.09509
G1 X130.395 Y95.676 E9.10374
G1 X130.532 Y96.179 E9.11241
G1 X130.593 Y96.821 E9.12314
G1 X130.593 Y140.821 E9.85486
G1 X130.553 Y141.341 E9.86353
G1 X130.434 Y141.848 E9.87219
G1 X130.239 Y142.331 E9.88086
G1 X129.973 Y142.779 E9.88952
G1 X129.641 Y143.181 E9.89819
G1 X129.251 Y143.527 E9.90686
G1 X128.813 Y143.81 E9.91553
G1 X128.338 Y144.023 E9.92419
G1 X127.835 Y144.16 E9.93286
G1 X127.193 Y144.221 E9.94359
G1 X75.193 Y144.221 E10.80835
G1 X74.673 Y144.181 E10.81702
G1 X74.166 Y144.062 E10.82568
G1 X73.683 Y143.867 E10.83434
G1 X73.235 Y143.601 E10.84301
G1 X72.833 Y143.269 E10.85168
G1 X72.487 Y142.879 E10.86035
G1 X72.204 Y142.441 E10.86902
G1 X71.991 Y141.966 E10.87768
G1 X71.854 Y141.463 E10.88635
G1 X71.793 Y140.821 E10.89707
G1 X71.793 Y96.821 E11.6288
G1 X71.833 Y96.301 E11.63747
G1 X71.952 Y95.794 E11.64613
G1 X72.147 Y95.311 E11.65479
G1 X72.413 Y94.863 E11.66346
G1 X72.745 Y94.461 E11.67213
G1 X73.135 Y94.115 E11.6808
G1 X73.573 Y93.832 E11.68947
G1 X74.048 Y93.619 E11.69813
G1 X74.551 Y93.482 E11.7068
G1 X75.193 Y93.421 E11.71752
G1 X94.793 Y93.421 E12.04347
G1 X94.793 Y77.861 E12.30223
G1 X94.147 Y77.748 E12.31314
G1 X92.56 Y77.493 E12.33987
G1 X91.083 Y77.284 E12.36468
G1 X89.595 Y77.105 E12.3896
G1 X88.28 Y76.974 E12.41158
G1 X87.004 Y76.88 E12.43286
G1 X85.785 Y76.825 E12.45315
G1 X84.691 Y76.812 E12.47134
G1 X83.706 Y76.835 E12.48773
G1 X82.841 Y76.891 E12.50214
G1 X82.03 Y76.983 E12.51572
G1 X81.444 Y77.081 E12.5256
G1 X80.922 Y77.207 E12.53453
G1 X80.689 Y77.282 E12.5386
G1 X80.705 Y77.559 E12.54321
G1 X80.777 Y78.073 E12.55184
G1 X80.907 Y78.702 E12.56253
G1 X81.095 Y79.4 E12.57455
G1 X81.356 Y80.206 E12.58864
G1 X81.707 Y81.148 E12.60535
G1 X82.143 Y82.189 E12.62412
G1 X82.307 Y82.683 E12.63278
G1 X82.393 Y83.197 E12.64145
G1 X82.4 Y83.718 E12.65011
G1 X82.327 Y84.234 E12.65878
G1 X82.176 Y84.733 E12.66745
G1 X81.951 Y85.203 E12.67611
G1 X81.656 Y85.633 E12.68479
G1 X81.3 Y86.013 E12.69344
G1 X80.889 Y86.334 E12.70212
G1 X80.378 Y86.613 E12.7118
G1 X74.887 Y89.033 E12.81159
G1 X74.396 Y89.206 E12.82025
G1 X73.883 Y89.302 E12.82893
G1 X73.362 Y89.319 E12.8376
G1 X72.845 Y89.255 E12.84626
G1 X72.344 Y89.113 E12.85492
G1 X71.87 Y88.897 E12.86358
G1 X71.434 Y88.61 E12.87226
G1 X71.048 Y88.261 E12.88092
G1 X70.72 Y87.856 E12.88958
G1 X70.378 Y87.232 E12.90142
G1 X69.82 Y85.895 E12.92551
G1 X69.774 Y85.776 E12.92763
G1 X69.288 Y84.477 E12.9507
G1 X69.235 Y84.325 E12.95337
G1 X68.833 Y83.073 E12.97524
G1 X68.783 Y82.903 E12.97819
G1 X68.456 Y81.666 E12.99947
G1 X68.412 Y81.479 E13.00266
G1 X68.166 Y80.278 E13.02305
G1 X68.126 Y80.041 E13.02704
G1 X67.968 Y78.844 E13.04712
G1 X67.943 Y78.572 E13.05167
G1 X67.884 Y77.412 E13.07098
G1 X67.883 Y77.107 E13.07605
G1 X67.927 Y75.973 E13.09493
G1 X67.947 Y75.706 E13.09938
G1 X68.015 Y75.13 E13.10902
G1 X68.042 Y74.948 E13.11208
G1 X68.141 Y74.377 E13.12172
G1 X68.186 Y74.16 E13.12541
G1 X68.318 Y73.613 E13.13477
G1 X68.37 Y73.421 E13.13807
G1 X68.539 Y72.866 E13.14772
G1 X68.616 Y72.642 E13.15166
G1 X68.825 Y72.095 E13.1614
G1 X68.918 Y71.875 E13.16537
G1 X69.164 Y71.346 E13.17507
G1 X69.274 Y71.13 E13.1791
G1 X69.551 Y70.631 E13.1886
G1 X69.677 Y70.422 E13.19265
G1 X69.999 Y69.929 E13.20245
G1 X70.129 Y69.743 E13.20622
G1 X70.482 Y69.274 E13.21598
G1 X70.637 Y69.084 E13.22006
G1 X71.013 Y68.653 E13.22957
G1 X71.179 Y68.475 E13.23362
G0 F4628.6 X71.461 Y68.759
G1 F2700 X71.88 Y68.343 E13.24344
G1 X72.038 Y68.197 E13.24702
G1 X72.481 Y67.816 E13.25673
G1 X72.641 Y67.688 E13.26014
