;FLAVOR:Marlin
;TIME:5254
;Filament used: 8.12235m
;Layer height: 0.2
;MINX:65.9
;MINY:78.941
;MINZ:0.18
;MAXX:129.165
;MAXY:121.059
;MAXZ:46.98
;Generated with Cura_SteamEngine 4.5.0
M140 S50
M105
M190 S50
M104 S195
M105
M109 S195
M82 ;absolute extrusion mode
G21 ;metric values
G90 ;absolute positioning
M82 ;set extruder to absolute mode
M107 ;start with the fan off
G28 X0 Y0 ;move X/Y to min endstops
G28 Z0 ;move Z to min endstops
G1 Z8.0 F120 ;move the platform down 8mm
G92 E0 ;zero the extruded length
G1 F200 E1 ;extrude 1 mm of feed stock
G92 E0 ;zero the extruded length again
G1 F120
;Put printing message on LCD screen
M117 Printing...
G92 E0
G92 E0
G1 F3600 E-0.5
;LAYER_COUNT:235
;LAYER:0
M107
G0 F3600 X68.06 Y80.142 Z0.18
;TYPE:SKIRT
G1 F3600 E0
G1 F1800 X68.611 Y79.762 E0.02004
G1 X69.203 Y79.45 E0.04007
G1 X69.827 Y79.211 E0.06007
G1 X70.476 Y79.048 E0.0801
G1 X71.337 Y78.954 E0.10603
G1 X82.343 Y78.941 E0.43548
G1 X83.121 Y78.952 E0.45877
G1 X84.314 Y79.048 E0.4946
G1 X85.721 Y79.207 E0.53698
G1 X88.389 Y79.433 E0.61714
G1 X91.038 Y79.581 E0.69655
G1 X93.728 Y79.656 E0.77711
G1 X96.382 Y79.654 E0.85655
G1 X99.063 Y79.577 E0.93684
G1 X101.721 Y79.425 E1.01653
G1 X104.404 Y79.195 E1.09714
G1 X105.488 Y79.072 E1.1298
G1 X106.392 Y78.981 E1.157
G1 X107.594 Y78.942 E1.193
G1 X117.614 Y78.941 E1.49294
G1 X118.343 Y78.951 E1.51476
G1 X118.898 Y78.982 E1.5314
G1 X119.561 Y79.071 E1.55142
G1 X120.208 Y79.239 E1.57143
G1 X120.831 Y79.483 E1.59146
G1 X121.42 Y79.8 E1.61148
G1 X121.968 Y80.185 E1.63153
G1 X122.465 Y80.632 E1.65154
G1 X122.906 Y81.135 E1.67157
G1 X123.284 Y81.688 E1.69162
G1 X123.593 Y82.281 E1.71163
G1 X123.829 Y82.907 E1.73166
G1 X123.988 Y83.557 E1.75169
G1 X124.079 Y84.451 E1.77859
G1 X124.099 Y85.422 E1.80766
G1 X124.1 Y90.065 E1.94665
G1 X124.089 Y90.86 E1.97045
G1 X124.04 Y91.527 E1.99047
G1 X123.912 Y92.184 E2.0105
G1 X123.706 Y92.82 E2.03051
G1 X123.5 Y93.284 E2.04571
G1 X123.017 Y94.251 E2.07807
G1 X121.842 Y96.669 E2.15854
G1 X120.741 Y99.109 E2.23867
G1 X119.705 Y101.585 E2.31902
G1 X118.756 Y104.056 E2.39825
G1 X117.872 Y106.562 E2.4778
G1 X117.046 Y109.134 E2.55866
G1 X116.735 Y110.192 E2.59167
G1 X116.359 Y111.255 E2.62542
G1 X116.047 Y111.847 E2.64545
G1 X115.667 Y112.397 E2.66546
G1 X115.038 Y113.076 E2.69317
G1 X114.612 Y113.466 E2.71046
G1 X114.197 Y113.834 E2.72706
G1 X113.615 Y114.334 E2.75003
G1 X112.733 Y115.018 E2.78344
G1 X111.725 Y115.763 E2.82096
G1 X111.106 Y116.206 E2.84375
G1 X110.249 Y116.744 E2.87404
G1 X109.09 Y117.419 E2.91418
G1 X108.445 Y117.782 E2.93634
G1 X107.562 Y118.214 E2.96577
G1 X106.321 Y118.768 E3.00645
G1 X105.645 Y119.058 E3.02847
G1 X105.156 Y119.246 E3.04415
G1 X104.675 Y119.41 E3.05936
G1 X103.52 Y119.786 E3.09572
G1 X102.744 Y120.027 E3.12004
G1 X102.216 Y120.167 E3.13639
G1 X100.57 Y120.523 E3.18681
G1 X99.778 Y120.683 E3.21099
G1 X99.206 Y120.771 E3.22832
G1 X97.511 Y120.954 E3.27935
G1 X96.764 Y121.023 E3.30181
G1 X96.223 Y121.051 E3.31802
G1 X94.455 Y121.059 E3.37095
G1 X93.713 Y121.049 E3.39316
G1 X93.139 Y121.018 E3.41037
G1 X91.472 Y120.848 E3.46052
G1 X90.664 Y120.753 E3.48488
G1 X89.748 Y120.591 E3.51272
G1 X88.477 Y120.322 E3.55161
G1 X87.681 Y120.141 E3.57605
G1 X86.761 Y119.876 E3.60471
G1 X85.525 Y119.477 E3.64359
G1 X84.788 Y119.226 E3.66689
G1 X84.308 Y119.042 E3.68228
G1 X83.845 Y118.843 E3.69737
G1 X82.705 Y118.336 E3.73471
G1 X82.011 Y118.017 E3.75758
G1 X81.55 Y117.782 E3.77307
G1 X81.072 Y117.515 E3.78945
G1 X80.04 Y116.918 E3.82514
G1 X79.335 Y116.499 E3.84969
G1 X78.553 Y115.97 E3.87795
G1 X77.478 Y115.19 E3.91771
G1 X76.973 Y114.813 E3.93658
G1 X75.855 Y113.879 E3.98018
G1 X74.989 Y113.103 E4.01499
G1 X74.521 Y112.626 E4.035
G1 X74.113 Y112.096 E4.05502
G1 X73.77 Y111.521 E4.07506
G1 X73.392 Y110.595 E4.105
G1 X73.071 Y109.551 E4.13769
G1 X72.155 Y106.651 E4.22873
G1 X71.287 Y104.178 E4.30718
G1 X70.314 Y101.638 E4.38861
G1 X69.309 Y99.223 E4.46691
G1 X68.194 Y96.74 E4.54838
G1 X67.034 Y94.342 E4.62812
G1 X66.517 Y93.325 E4.66227
G1 X66.25 Y92.712 E4.68229
G1 X66.059 Y92.071 E4.70231
G1 X65.945 Y91.412 E4.72233
G1 X65.903 Y90.632 E4.74571
G1 X65.9 Y85.269 E4.90625
G1 X65.911 Y84.511 E4.92894
G1 X66.013 Y83.498 E4.95942
G1 X66.178 Y82.849 E4.97946
G1 X66.419 Y82.225 E4.99949
G1 X66.732 Y81.634 E5.0195
G1 X67.114 Y81.085 E5.03953
G1 X67.559 Y80.585 E5.05956
G1 X68.06 Y80.142 E5.07958
G0 F3600 X68.438 Y80.358
G1 F1800 X68.98 Y80.009 E5.09888
G1 X69.562 Y79.731 E5.11818
G1 X70.173 Y79.527 E5.13747
G1 X70.805 Y79.399 E5.15677
G1 X71.35 Y79.354 E5.17314
G1 X82.343 Y79.341 E5.5022
G1 X83.115 Y79.352 E5.52532
G1 X84.275 Y79.446 E5.56015
G1 X85.675 Y79.604 E5.60233
G1 X88.372 Y79.832 E5.68335
G1 X91.038 Y79.981 E5.76328
G1 X93.717 Y80.056 E5.8435
G1 X96.393 Y80.054 E5.92361
G1 X99.098 Y79.977 E6.00461
G1 X101.742 Y79.825 E6.08389
G1 X104.412 Y79.597 E6.1641
G1 X105.533 Y79.469 E6.19788
G1 X106.432 Y79.379 E6.22492
G1 X107.6 Y79.342 E6.2599
G1 X117.686 Y79.341 E6.56182
G1 X118.338 Y79.35 E6.58134
G1 X118.868 Y79.38 E6.59723
G1 X119.506 Y79.468 E6.61651
G1 X120.129 Y79.634 E6.6358
G1 X120.727 Y79.876 E6.65512
G1 X121.29 Y80.19 E6.67441
G1 X121.81 Y80.572 E6.69373
G1 X122.278 Y81.014 E6.713
G1 X122.689 Y81.512 E6.73232
G1 X123.034 Y82.056 E6.75161
G1 X123.31 Y82.639 E6.77092
G1 X123.511 Y83.251 E6.7902
G1 X123.635 Y83.884 E6.80951
G1 X123.679 Y84.459 E6.82677
G1 X123.699 Y85.43 E6.85584
G1 X123.7 Y90.065 E6.99459
G1 X123.689 Y90.855 E7.01824
G1 X123.641 Y91.497 E7.03751
G1 X123.512 Y92.129 E7.05682
G1 X123.307 Y92.74 E7.07611
G1 X121.482 Y96.495 E7.20108
G1 X120.378 Y98.94 E7.28139
G1 X119.329 Y101.448 E7.36276
G1 X118.389 Y103.897 E7.44129
G1 X117.49 Y106.444 E7.52214
G1 X116.661 Y109.025 E7.60329
G1 X116.351 Y110.079 E7.63617
G1 X115.985 Y111.111 E7.66895
G1 X115.68 Y111.68 E7.68828
G1 X115.308 Y112.206 E7.70756
G1 X114.768 Y112.781 E7.73117
G1 X114.342 Y113.171 E7.74846
G1 X113.933 Y113.534 E7.76483
G1 X113.354 Y114.03 E7.78765
G1 X112.49 Y114.7 E7.82038
G1 X111.488 Y115.441 E7.85769
G1 X110.873 Y115.881 E7.88032
G1 X110.042 Y116.402 E7.90968
G1 X108.889 Y117.073 E7.94962
G1 X108.249 Y117.433 E7.9716
G1 X107.392 Y117.852 E8.00015
G1 X106.159 Y118.403 E8.04058
G1 X105.488 Y118.69 E8.06242
G1 X105.018 Y118.87 E8.07749
G1 X104.489 Y119.05 E8.09422
G1 X103.397 Y119.405 E8.12859
G1 X102.626 Y119.644 E8.15275
G1 X102.12 Y119.778 E8.16842
G1 X100.487 Y120.132 E8.21844
G1 X99.699 Y120.29 E8.2425
G1 X99.153 Y120.375 E8.25904
G1 X97.469 Y120.556 E8.30974
G1 X96.727 Y120.625 E8.33204
G1 X96.209 Y120.652 E8.34757
G1 X94.455 Y120.659 E8.40007
G1 X93.718 Y120.65 E8.42214
G1 X93.167 Y120.619 E8.43866
G1 X91.513 Y120.45 E8.48843
G1 X90.711 Y120.355 E8.5126
G1 X89.824 Y120.198 E8.53957
G1 X88.56 Y119.931 E8.57824
G1 X87.77 Y119.751 E8.60249
G1 X86.877 Y119.494 E8.63031
G1 X85.649 Y119.096 E8.66895
G1 X84.917 Y118.848 E8.69208
G1 X84.334 Y118.619 E8.71083
G1 X82.868 Y117.971 E8.75881
G1 X82.179 Y117.653 E8.78153
G1 X81.629 Y117.37 E8.80004
G1 X80.24 Y116.572 E8.848
G1 X79.54 Y116.156 E8.87237
G1 X78.782 Y115.642 E8.89979
G1 X77.714 Y114.866 E8.9393
G1 X77.212 Y114.493 E8.95802
G1 X76.114 Y113.574 E9.00088
G1 X75.258 Y112.806 E9.03531
G1 X74.807 Y112.345 E9.05461
G1 X74.417 Y111.832 E9.0739
G1 X74.094 Y111.274 E9.0932
G1 X73.775 Y110.477 E9.1189
G1 X73.454 Y109.433 E9.1516
G1 X72.545 Y106.557 E9.24189
G1 X71.65 Y104.008 E9.32275
G1 X70.693 Y101.508 E9.40289
G1 X69.672 Y99.054 E9.48245
G1 X68.567 Y96.593 E9.5632
G1 X67.382 Y94.145 E9.64461
G1 X66.874 Y93.144 E9.67822
G1 X66.618 Y92.552 E9.69752
G1 X66.438 Y91.934 E9.71679
G1 X66.335 Y91.297 E9.73611
G1 X66.302 Y90.619 E9.75643
G1 X66.3 Y85.269 E9.91657
G1 X66.311 Y84.517 E9.93909
G1 X66.41 Y83.55 E9.96818
G1 X66.573 Y82.926 E9.98749
G1 X66.812 Y82.328 E10.00677
G1 X67.124 Y81.763 E10.02609
G1 X67.502 Y81.241 E10.04538
G1 X67.943 Y80.77 E10.06469
G1 X68.438 Y80.358 E10.08397
G1 F3600 E9.58397
;MESH:TopM_CornerC.STL
G0 F3600 X72.5 Y83.876
G0 X72.5 Y85.541
;TYPE:WALL-INNER
G1 F3600 E10.08397
G1 F1800 X82.05 Y85.541 E10.36984
G1 X82.05 Y97.54 E10.72902
G1 X82.12 Y98.895 E10.76964
G1 X82.331 Y100.234 E10.81021
G1 X82.683 Y101.544 E10.85082
G1 X83.168 Y102.809 E10.89137
G1 X83.784 Y104.016 E10.93194
G1 X84.522 Y105.153 E10.97251
G1 X85.374 Y106.207 E11.01308
G1 X86.334 Y107.167 E11.05372
G1 X87.388 Y108.019 E11.09429
G1 X88.525 Y108.757 E11.13487
G1 X89.732 Y109.373 E11.17543
G1 X90.997 Y109.858 E11.21599
G1 X92.307 Y110.21 E11.25659
G1 X93.646 Y110.421 E11.29717
G1 X95 Y110.493 E11.33775
G1 X96.354 Y110.421 E11.37834
G1 X97.693 Y110.21 E11.41892
G1 X99.003 Y109.858 E11.45952
G1 X100.268 Y109.373 E11.50008
G1 X101.475 Y108.757 E11.54064
G1 X102.612 Y108.019 E11.58122
G1 X103.666 Y107.167 E11.62179
G1 X104.626 Y106.207 E11.66243
G1 X105.478 Y105.153 E11.703
G1 X106.216 Y104.016 E11.74357
G1 X106.832 Y102.809 E11.78414
G1 X107.317 Y101.544 E11.82469
G1 X107.669 Y100.234 E11.8653
G1 X107.88 Y98.895 E11.90587
G1 X107.95 Y97.566 E11.94571
G1 X107.95 Y85.541 E12.30567
G1 X117.5 Y85.541 E12.59154
G1 X117.5 Y89.791 E12.71876
G1 X110.935 Y89.791 E12.91528
G1 X110.281 Y108.488 E13.4753
G1 X109.335 Y109.322 E13.51305
G1 X107.301 Y110.824 E13.58874
G1 X105.224 Y112.031 E13.66064
G1 X103.065 Y112.993 E13.7314
G1 X100.833 Y113.719 E13.80166
G1 X98.531 Y114.21 E13.87211
G1 X96.178 Y114.458 E13.94294
G1 X93.833 Y114.459 E14.01313
G1 X91.481 Y114.213 E14.08392
G1 X89.178 Y113.723 E14.15441
G1 X86.949 Y113 E14.22455
G1 X84.78 Y112.036 E14.2956
G1 X82.766 Y110.872 E14.36523
G1 X80.824 Y109.461 E14.43709
G1 X79.719 Y108.488 E14.48116
G1 X79.065 Y89.791 E15.04118
G1 X72.5 Y89.791 E15.2377
G1 X72.5 Y85.541 E15.36492
G0 F3600 X72.1 Y85.141
G1 F1800 X82.45 Y85.141 E15.67474
G1 X82.45 Y97.53 E16.04559
G1 X82.518 Y98.853 E16.08525
G1 X82.723 Y100.151 E16.12458
G1 X83.064 Y101.42 E16.16392
G1 X83.534 Y102.646 E16.20322
G1 X84.131 Y103.816 E16.24254
G1 X84.846 Y104.918 E16.28186
G1 X85.672 Y105.939 E16.32117
G1 X86.602 Y106.869 E16.36054
G1 X87.623 Y107.695 E16.39986
G1 X88.725 Y108.41 E16.43918
G1 X89.895 Y109.007 E16.4785
G1 X91.121 Y109.477 E16.5178
G1 X92.39 Y109.818 E16.55714
G1 X93.688 Y110.023 E16.59647
G1 X95 Y110.092 E16.6358
G1 X96.312 Y110.023 E16.67513
G1 X97.61 Y109.818 E16.71446
G1 X98.879 Y109.477 E16.7538
G1 X100.105 Y109.007 E16.7931
G1 X101.275 Y108.41 E16.83242
G1 X102.377 Y107.695 E16.87174
G1 X103.398 Y106.869 E16.91105
G1 X104.328 Y105.939 E16.95042
G1 X105.154 Y104.918 E16.98974
G1 X105.869 Y103.816 E17.02906
G1 X106.466 Y102.646 E17.06838
G1 X106.936 Y101.42 E17.10768
G1 X107.277 Y100.151 E17.14701
G1 X107.482 Y98.853 E17.18635
G1 X107.55 Y97.556 E17.22523
G1 X107.55 Y85.141 E17.59686
G1 X117.9 Y85.141 E17.90668
G1 X117.9 Y90.191 E18.05785
G1 X111.321 Y90.191 E18.25478
G1 X110.675 Y108.673 E18.80836
G1 X109.579 Y109.639 E18.8521
G1 X107.523 Y111.158 E18.92861
G1 X105.41 Y112.386 E19.00177
G1 X103.209 Y113.367 E19.0739
G1 X100.937 Y114.106 E19.14542
G1 X98.589 Y114.606 E19.21728
G1 X96.201 Y114.858 E19.28916
G1 X93.81 Y114.859 E19.36074
G1 X91.423 Y114.609 E19.43258
G1 X89.074 Y114.11 E19.50446
G1 X86.801 Y113.372 E19.576
G1 X84.603 Y112.395 E19.648
G1 X82.543 Y111.205 E19.71922
G1 X80.579 Y109.778 E19.79189
G1 X79.325 Y108.673 E19.84192
G1 X78.679 Y90.191 E20.3955
G1 X72.1 Y90.191 E20.59243
G1 X72.1 Y85.141 E20.7436
G0 F3600 X71.7 Y84.741
;TYPE:WALL-OUTER
G1 F1800 X82.85 Y84.741 E21.07737
G1 X82.85 Y97.52 E21.4599
G1 X82.916 Y98.811 E21.49859
G1 X83.115 Y100.068 E21.53669
G1 X83.445 Y101.296 E21.57475
G1 X83.9 Y102.483 E21.6128
G1 X84.478 Y103.616 E21.65088
G1 X85.17 Y104.683 E21.68895
G1 X85.97 Y105.671 E21.727
G1 X86.87 Y106.571 E21.7651
G1 X87.858 Y107.371 E21.80315
G1 X88.925 Y108.063 E21.84122
G1 X90.058 Y108.641 E21.8793
G1 X91.245 Y109.096 E21.91735
G1 X92.473 Y109.426 E21.95541
G1 X93.73 Y109.625 E21.99351
G1 X95 Y109.691 E22.03158
G1 X96.27 Y109.625 E22.06964
G1 X97.527 Y109.426 E22.10774
G1 X98.755 Y109.096 E22.1458
G1 X99.942 Y108.641 E22.18386
G1 X101.075 Y108.063 E22.22193
G1 X102.142 Y107.371 E22.26
G1 X103.13 Y106.571 E22.29805
G1 X104.03 Y105.671 E22.33615
G1 X104.83 Y104.683 E22.37421
G1 X105.522 Y103.616 E22.41228
G1 X106.1 Y102.483 E22.45035
G1 X106.555 Y101.296 E22.4884
G1 X106.885 Y100.068 E22.52647
G1 X107.084 Y98.811 E22.56456
G1 X107.15 Y97.546 E22.60248
G1 X107.15 Y84.741 E22.98579
G1 X118.3 Y84.741 E23.31955
G1 X118.3 Y90.591 E23.49467
G1 X111.707 Y90.591 E23.69202
G1 X111.069 Y108.859 E24.23919
G1 X109.83 Y109.952 E24.28865
G1 X107.745 Y111.492 E24.36624
G1 X105.596 Y112.741 E24.44064
G1 X103.353 Y113.741 E24.51416
G1 X101.041 Y114.493 E24.58693
G1 X98.647 Y115.002 E24.6602
G1 X96.224 Y115.258 E24.73313
G1 X93.787 Y115.259 E24.80608
G1 X91.365 Y115.005 E24.87898
G1 X88.97 Y114.497 E24.95227
G1 X86.657 Y113.746 E25.02506
G1 X84.424 Y112.753 E25.09822
G1 X82.32 Y111.538 E25.17095
G1 X80.328 Y110.091 E25.24465
G1 X78.931 Y108.859 E25.3004
G1 X78.293 Y90.591 E25.84757
G1 X71.7 Y90.591 E26.04493
G1 X71.7 Y84.741 E26.22004
G0 F3600 X71.9 Y84.741
G0 X72.89 Y85.931
;TYPE:SKIN
G1 F1800 X81.66 Y85.931 E26.48256
G1 X81.66 Y97.55 E26.83037
G1 X81.732 Y98.936 E26.87191
G1 X81.949 Y100.316 E26.91373
G1 X82.312 Y101.665 E26.95555
G1 X82.811 Y102.967 E26.99729
G1 X83.446 Y104.211 E27.0391
G1 X84.206 Y105.383 E27.08091
G1 X85.084 Y106.468 E27.12269
G1 X86.073 Y107.457 E27.16456
G1 X87.158 Y108.335 E27.20634
G1 X88.33 Y109.095 E27.24815
G1 X89.574 Y109.73 E27.28996
G1 X90.876 Y110.229 E27.3317
G1 X92.225 Y110.592 E27.37352
G1 X93.605 Y110.809 E27.41533
G1 X95 Y110.883 E27.45715
G1 X96.395 Y110.809 E27.49897
G1 X97.775 Y110.592 E27.54078
G1 X99.124 Y110.229 E27.5826
G1 X100.426 Y109.73 E27.62434
G1 X101.67 Y109.095 E27.66615
G1 X102.842 Y108.335 E27.70796
G1 X103.927 Y107.457 E27.74974
G1 X104.916 Y106.468 E27.79161
G1 X105.794 Y105.383 E27.83339
G1 X106.554 Y104.211 E27.8752
G1 X107.189 Y102.967 E27.91701
G1 X107.688 Y101.665 E27.95875
G1 X108.051 Y100.316 E28.00057
G1 X108.268 Y98.936 E28.04238
G1 X108.34 Y97.576 E28.08315
G1 X108.34 Y85.931 E28.43173
G1 X117.11 Y85.931 E28.69426
G1 X117.11 Y89.401 E28.79813
G1 X110.559 Y89.401 E28.99423
G1 X109.897 Y108.306 E29.56048
G1 X109.09 Y109.018 E29.59269
G1 X107.078 Y110.503 E29.66755
G1 X105.055 Y111.678 E29.73758
G1 X102.924 Y112.629 E29.80743
G1 X100.735 Y113.34 E29.87633
G1 X98.464 Y113.824 E29.94584
G1 X96.155 Y114.068 E30.01534
G1 X93.854 Y114.069 E30.08422
G1 X91.546 Y113.827 E30.15368
G1 X89.276 Y113.345 E30.22315
G1 X87.09 Y112.636 E30.29194
G1 X84.956 Y111.687 E30.36185
G1 X82.984 Y110.547 E30.43004
G1 X81.063 Y109.151 E30.50112
G1 X80.103 Y108.306 E30.5394
G1 X79.441 Y89.401 E31.10565
G1 X72.89 Y89.401 E31.30175
G1 X72.89 Y85.931 E31.40562
G1 F3600 E30.90562
G0 F3600 X70.835 Y85.931
G0 X70.847 Y91.444
G0 X78.039 Y108.068
G0 X80.272 Y107.99
G1 F3600 E31.40562
G1 F1800 X81.597 Y109.315 E31.46171
G1 X81.667 Y109.385
G0 F3600 X83.461 Y110.614
G1 F1800 X80.251 Y107.404 E31.5976
G0 F3600 X80.231 Y106.818
G1 F1800 X84.802 Y111.389 E31.79111
G1 X84.872 Y111.459
G0 F3600 X85.877 Y111.898
G1 F1800 X80.21 Y106.232 E32.03099
G0 F3600 X80.19 Y105.645
G1 F1800 X86.896 Y112.352 E32.3149
G1 X86.966 Y112.422
G0 F3600 X87.779 Y112.669
G1 F1800 X80.169 Y105.059 E32.63705
G0 F3600 X80.149 Y104.473
G1 F1800 X88.616 Y112.94 E32.99549
G1 X88.686 Y113.01
G0 F3600 X89.434 Y113.192
G1 F1800 X80.128 Y103.887 E33.38942
G0 F3600 X80.108 Y103.301
G1 F1800 X90.151 Y113.344 E33.81458
G0 F3600 X90.87 Y113.497
G1 F1800 X80.087 Y102.715 E34.27103
G0 F3600 X80.067 Y102.128
G1 F1800 X91.587 Y113.649 E34.75873
G0 F3600 X92.219 Y113.715
G1 F1800 X86.691 Y108.187 E34.99275
G1 X86.621 Y108.117
G0 F3600 X88.403 Y109.333
G1 F1800 X92.85 Y113.781 E35.18103
G0 F3600 X93.483 Y113.847
G1 F1800 X89.545 Y109.91 E35.34772
G1 X89.475 Y109.84
G0 F3600 X90.463 Y110.262
G1 F1800 X94.088 Y113.887 E35.50117
G0 F3600 X94.654 Y113.887
G1 F1800 X91.293 Y110.527 E35.64343
G1 X91.223 Y110.457
G0 F3600 X92.068 Y110.735
G1 F1800 X95.219 Y113.887 E35.77685
G0 F3600 X95.785 Y113.887
G1 F1800 X92.755 Y110.857 E35.90512
G0 F3600 X93.426 Y110.962
G1 F1800 X96.331 Y113.867 E36.0281
