;FLAVOR:Marlin
;TIME:5180
;Filament used: 8.06599m
;Layer height: 0.2
;MINX:70.835
;MINY:78.941
;MINZ:0.18
;MAXX:134.1
;MAXY:121.059
;MAXZ:46.98
;Generated with Cura_SteamEngine 4.5.0
M140 S50
M105
M190 S50
M104 S195
M105
M109 S195
M82 ;absolute extrusion mode
G21 ;metric values
G90 ;absolute positioning
M82 ;set extruder to absolute mode
M107 ;start with the fan off
G28 X0 Y0 ;move X/Y to min endstops
G28 Z0 ;move Z to min endstops
G1 Z8.0 F120 ;move the platform down 8mm
G92 E0 ;zero the extruded length
G1 F200 E1 ;extrude 1 mm of feed stock
G92 E0 ;zero the extruded length again
G1 F120
;Put printing message on LCD screen
M117 Printing...
G92 E0
G92 E0
G1 F3600 E-0.5
;LAYER_COUNT:235
;LAYER:0
M107
G0 F3600 X77.559 Y80.585 Z0.18
;TYPE:SKIRT
G1 F3600 E0
G1 F1800 X78.06 Y80.142 E0.02002
G1 X78.611 Y79.762 E0.04005
G1 X79.203 Y79.45 E0.06009
G1 X79.827 Y79.211 E0.08009
G1 X80.476 Y79.048 E0.10012
G1 X81.337 Y78.954 E0.12605
G1 X92.343 Y78.941 E0.4555
G1 X93.121 Y78.952 E0.47879
G1 X94.314 Y79.048 E0.51462
G1 X95.721 Y79.207 E0.557
G1 X98.389 Y79.433 E0.63715
G1 X101.038 Y79.581 E0.71657
G1 X103.728 Y79.656 E0.79713
G1 X106.382 Y79.654 E0.87657
G1 X109.063 Y79.577 E0.95686
G1 X111.721 Y79.425 E1.03655
G1 X114.404 Y79.195 E1.11716
G1 X115.488 Y79.072 E1.14982
G1 X116.392 Y78.981 E1.17702
G1 X117.594 Y78.942 E1.21302
G1 X127.614 Y78.941 E1.51296
G1 X128.343 Y78.951 E1.53478
G1 X128.898 Y78.982 E1.55142
G1 X129.561 Y79.071 E1.57144
G1 X130.208 Y79.239 E1.59145
G1 X130.831 Y79.483 E1.61148
G1 X131.42 Y79.8 E1.6315
G1 X131.968 Y80.185 E1.65155
G1 X132.465 Y80.632 E1.67156
G1 X132.906 Y81.135 E1.69158
G1 X133.284 Y81.688 E1.71164
G1 X133.593 Y82.281 E1.73165
G1 X133.829 Y82.907 E1.75168
G1 X133.988 Y83.557 E1.77171
G1 X134.079 Y84.451 E1.79861
G1 X134.099 Y85.422 E1.82768
G1 X134.1 Y90.065 E1.96666
G1 X134.089 Y90.86 E1.99046
G1 X134.04 Y91.527 E2.01048
G1 X133.912 Y92.184 E2.03052
G1 X133.706 Y92.82 E2.05053
G1 X133.5 Y93.284 E2.06573
G1 X133.017 Y94.251 E2.09809
G1 X131.842 Y96.669 E2.17856
G1 X130.753 Y99.081 E2.25778
G1 X129.705 Y101.585 E2.33903
G1 X128.764 Y104.035 E2.4176
G1 X127.872 Y106.562 E2.49781
G1 X127.046 Y109.134 E2.57868
G1 X126.735 Y110.192 E2.61169
G1 X126.359 Y111.255 E2.64544
G1 X126.047 Y111.847 E2.66547
G1 X125.667 Y112.397 E2.68548
G1 X125.038 Y113.076 E2.71319
G1 X124.612 Y113.466 E2.73048
G1 X124.197 Y113.834 E2.74708
G1 X123.615 Y114.334 E2.77005
G1 X122.733 Y115.018 E2.80346
G1 X121.725 Y115.763 E2.84098
G1 X121.106 Y116.206 E2.86377
G1 X120.18 Y116.785 E2.89646
G1 X119.111 Y117.407 E2.93348
G1 X118.419 Y117.796 E2.95724
G1 X117.514 Y118.237 E2.98738
G1 X116.388 Y118.738 E3.02427
G1 X115.613 Y119.071 E3.04952
G1 X114.756 Y119.382 E3.07681
G1 X113.522 Y119.785 E3.11567
G1 X112.741 Y120.027 E3.14014
G1 X112.222 Y120.165 E3.15622
G1 X111.731 Y120.276 E3.17129
G1 X110.57 Y120.523 E3.20682
G1 X109.778 Y120.683 E3.23101
G1 X109.206 Y120.771 E3.24833
G1 X107.511 Y120.954 E3.29936
G1 X106.764 Y121.023 E3.32182
G1 X106.223 Y121.051 E3.33803
G1 X104.455 Y121.059 E3.39096
G1 X103.713 Y121.049 E3.41317
G1 X103.139 Y121.018 E3.43038
G1 X101.472 Y120.848 E3.48054
G1 X100.664 Y120.753 E3.50489
G1 X99.748 Y120.591 E3.53274
G1 X98.477 Y120.322 E3.57163
G1 X97.681 Y120.141 E3.59606
G1 X96.761 Y119.876 E3.62472
G1 X95.525 Y119.477 E3.6636
G1 X94.788 Y119.226 E3.6869
G1 X94.308 Y119.042 E3.70229
G1 X93.845 Y118.843 E3.71738
G1 X92.705 Y118.336 E3.75473
G1 X91.996 Y118.009 E3.7781
G1 X91.166 Y117.568 E3.80623
G1 X90.017 Y116.905 E3.84594
G1 X89.33 Y116.496 E3.86987
G1 X88.593 Y115.999 E3.89648
G1 X87.522 Y115.222 E3.93609
G1 X86.962 Y114.803 E3.95703
G1 X85.872 Y113.893 E3.99953
G1 X85.491 Y113.558 E4.01472
G1 X84.986 Y113.101 E4.03511
G1 X84.518 Y112.623 E4.05513
G1 X84.11 Y112.093 E4.07515
G1 X83.768 Y111.518 E4.09518
G1 X83.497 Y110.906 E4.11521
G1 X82.985 Y109.25 E4.1671
G1 X82.143 Y106.619 E4.24979
G1 X81.257 Y104.094 E4.32989
G1 X80.305 Y101.614 E4.40941
G1 X79.289 Y99.175 E4.4885
G1 X78.182 Y96.714 E4.56928
G1 X77.009 Y94.293 E4.64981
G1 X76.518 Y93.327 E4.68225
G1 X76.251 Y92.713 E4.70229
G1 X76.059 Y92.072 E4.72232
G1 X75.945 Y91.413 E4.74234
G1 X75.903 Y90.632 E4.76575
G1 X75.9 Y85.269 E4.92629
G1 X75.911 Y84.511 E4.94898
G1 X76.013 Y83.498 E4.97946
G1 X76.178 Y82.849 E4.9995
G1 X76.419 Y82.225 E5.01952
G1 X76.732 Y81.634 E5.03954
G1 X77.114 Y81.085 E5.05956
G1 X77.559 Y80.585 E5.0796
G0 F3600 X77.943 Y80.77
G1 F1800 X78.438 Y80.358 E5.09888
G1 X78.98 Y80.009 E5.11818
G1 X79.562 Y79.731 E5.13748
G1 X80.173 Y79.527 E5.15677
G1 X80.805 Y79.399 E5.17607
G1 X81.35 Y79.354 E5.19244
G1 X92.343 Y79.341 E5.5215
G1 X93.115 Y79.352 E5.54461
G1 X94.275 Y79.446 E5.57945
G1 X95.675 Y79.604 E5.62163
G1 X98.372 Y79.832 E5.70265
G1 X101.038 Y79.981 E5.78258
G1 X103.717 Y80.056 E5.8628
G1 X106.393 Y80.054 E5.9429
G1 X109.098 Y79.977 E6.02391
G1 X111.742 Y79.825 E6.10318
G1 X114.412 Y79.597 E6.1834
G1 X115.533 Y79.469 E6.21717
G1 X116.432 Y79.379 E6.24422
G1 X117.6 Y79.342 E6.2792
G1 X127.686 Y79.341 E6.58112
G1 X128.338 Y79.35 E6.60063
G1 X128.868 Y79.38 E6.61652
G1 X129.506 Y79.468 E6.6358
G1 X130.129 Y79.634 E6.6551
G1 X130.727 Y79.876 E6.67441
G1 X131.29 Y80.19 E6.69371
G1 X131.81 Y80.572 E6.71303
G1 X132.278 Y81.014 E6.73229
G1 X132.689 Y81.512 E6.75162
G1 X133.034 Y82.056 E6.77091
G1 X133.31 Y82.639 E6.79021
G1 X133.511 Y83.251 E6.8095
G1 X133.635 Y83.884 E6.82881
G1 X133.679 Y84.459 E6.84607
G1 X133.699 Y85.43 E6.87514
G1 X133.7 Y90.065 E7.01388
G1 X133.689 Y90.855 E7.03753
G1 X133.641 Y91.497 E7.05681
G1 X133.512 Y92.129 E7.07611
G1 X133.307 Y92.74 E7.09541
G1 X131.487 Y96.484 E7.22002
G1 X130.384 Y98.927 E7.30026
G1 X129.326 Y101.454 E7.38226
G1 X128.389 Y103.897 E7.46059
G1 X127.49 Y106.444 E7.54144
G1 X126.661 Y109.025 E7.62259
G1 X126.351 Y110.079 E7.65547
G1 X125.985 Y111.111 E7.68825
G1 X125.68 Y111.68 E7.70758
G1 X125.308 Y112.206 E7.72686
G1 X124.768 Y112.781 E7.75047
G1 X124.342 Y113.171 E7.76776
G1 X123.933 Y113.534 E7.78413
G1 X123.354 Y114.03 E7.80695
G1 X122.49 Y114.7 E7.83968
G1 X121.488 Y115.441 E7.87699
G1 X120.873 Y115.881 E7.89962
G1 X119.973 Y116.443 E7.93138
G1 X118.91 Y117.061 E7.96819
G1 X118.223 Y117.448 E7.99179
G1 X117.345 Y117.874 E8.02101
G1 X116.226 Y118.373 E8.05768
G1 X115.455 Y118.704 E8.0828
G1 X114.626 Y119.004 E8.10919
G1 X113.398 Y119.405 E8.14786
G1 X112.623 Y119.645 E8.17214
G1 X112.126 Y119.777 E8.18754
G1 X110.487 Y120.132 E8.23774
G1 X109.699 Y120.29 E8.26179
G1 X109.153 Y120.375 E8.27833
G1 X107.469 Y120.556 E8.32903
G1 X106.727 Y120.625 E8.35134
G1 X106.209 Y120.652 E8.36687
G1 X104.455 Y120.659 E8.41937
G1 X103.718 Y120.65 E8.44144
G1 X103.167 Y120.619 E8.45796
G1 X101.513 Y120.45 E8.50772
G1 X100.711 Y120.355 E8.5319
G1 X99.824 Y120.198 E8.55886
G1 X98.56 Y119.931 E8.59754
G1 X97.77 Y119.751 E8.62179
G1 X96.877 Y119.494 E8.64961
G1 X95.649 Y119.096 E8.68825
G1 X94.917 Y118.848 E8.71138
G1 X94.334 Y118.619 E8.73013
G1 X92.868 Y117.971 E8.77811
G1 X92.164 Y117.646 E8.80132
G1 X91.359 Y117.218 E8.82861
G1 X90.217 Y116.559 E8.86808
G1 X89.535 Y116.153 E8.89184
G1 X88.821 Y115.671 E8.91763
G1 X87.758 Y114.898 E8.95697
G1 X87.201 Y114.483 E8.97776
G1 X86.131 Y113.588 E9.01952
G1 X85.255 Y112.805 E9.05469
G1 X84.805 Y112.343 E9.074
G1 X84.415 Y111.83 E9.09329
G1 X84.092 Y111.272 E9.11259
G1 X83.766 Y110.454 E9.13895
G1 X83.348 Y109.071 E9.18219
G1 X82.515 Y106.469 E9.26398
G1 X81.647 Y103.997 E9.3424
G1 X80.671 Y101.453 E9.42397
G1 X79.653 Y99.009 E9.50322
G1 X78.549 Y96.554 E9.5838
G1 X77.361 Y94.102 E9.66536
G1 X76.875 Y93.146 E9.69746
G1 X76.619 Y92.554 E9.71676
G1 X76.438 Y91.935 E9.73607
G1 X76.335 Y91.299 E9.75536
G1 X76.302 Y90.619 E9.77574
G1 X76.3 Y85.269 E9.93588
G1 X76.311 Y84.517 E9.9584
G1 X76.41 Y83.55 E9.98749
G1 X76.573 Y82.926 E10.0068
G1 X76.812 Y82.328 E10.02608
G1 X77.124 Y81.763 E10.0454
G1 X77.502 Y81.241 E10.06469
G1 X77.943 Y80.77 E10.084
G1 F3600 E9.584
;MESH:Top_CornerC.STL
G0 F3600 X82.5 Y83.876
G0 X82.5 Y85.541
;TYPE:WALL-INNER
G1 F3600 E10.084
G1 F1800 X92.05 Y85.541 E10.36987
G1 X92.05 Y97.54 E10.72905
G1 X92.12 Y98.895 E10.76967
G1 X92.331 Y100.234 E10.81024
G1 X92.683 Y101.544 E10.85085
G1 X93.168 Y102.809 E10.8914
G1 X93.784 Y104.016 E10.93197
G1 X94.522 Y105.153 E10.97254
G1 X95.374 Y106.207 E11.01311
G1 X96.334 Y107.167 E11.05375
G1 X97.388 Y108.019 E11.09432
G1 X98.525 Y108.757 E11.1349
G1 X99.732 Y109.373 E11.17546
G1 X100.997 Y109.858 E11.21602
G1 X102.307 Y110.21 E11.25662
G1 X103.646 Y110.421 E11.2972
G1 X105 Y110.493 E11.33779
G1 X106.354 Y110.421 E11.37837
G1 X107.693 Y110.21 E11.41895
G1 X109.003 Y109.858 E11.45956
G1 X110.268 Y109.373 E11.50011
G1 X111.475 Y108.757 E11.54067
G1 X112.612 Y108.019 E11.58125
G1 X113.666 Y107.167 E11.62182
G1 X114.626 Y106.207 E11.66246
G1 X115.478 Y105.153 E11.70303
G1 X116.216 Y104.016 E11.7436
G1 X116.832 Y102.809 E11.78417
G1 X117.317 Y101.544 E11.82472
G1 X117.669 Y100.234 E11.86533
G1 X117.88 Y98.895 E11.9059
G1 X117.95 Y97.566 E11.94574
G1 X117.95 Y85.541 E12.3057
G1 X127.5 Y85.541 E12.59157
G1 X127.5 Y89.791 E12.71879
G1 X120.935 Y89.791 E12.91531
G1 X120.281 Y108.488 E13.47533
G1 X119.335 Y109.322 E13.51308
G1 X117.297 Y110.827 E13.58892
G1 X115.213 Y112.037 E13.66105
G1 X113.065 Y112.993 E13.73143
G1 X110.833 Y113.719 E13.80169
G1 X108.531 Y114.21 E13.87215
G1 X106.178 Y114.458 E13.94297
G1 X103.833 Y114.459 E14.01317
G1 X101.481 Y114.213 E14.08396
G1 X99.178 Y113.723 E14.15444
G1 X96.949 Y113 E14.22458
G1 X94.782 Y112.037 E14.29557
G1 X92.761 Y110.869 E14.36544
G1 X90.825 Y109.462 E14.43708
G1 X89.719 Y108.488 E14.4812
G1 X89.065 Y89.791 E15.04122
G1 X82.5 Y89.791 E15.23774
G1 X82.5 Y85.541 E15.36496
G0 F3600 X82.1 Y85.141
G1 F1800 X92.45 Y85.141 E15.67477
G1 X92.45 Y97.53 E16.04563
G1 X92.518 Y98.853 E16.08528
G1 X92.723 Y100.151 E16.12462
G1 X93.064 Y101.42 E16.16395
G1 X93.534 Y102.646 E16.20326
G1 X94.131 Y103.816 E16.24257
G1 X94.846 Y104.918 E16.2819
G1 X95.672 Y105.939 E16.32121
G1 X96.602 Y106.869 E16.36058
G1 X97.623 Y107.695 E16.39989
G1 X98.725 Y108.41 E16.43921
G1 X99.895 Y109.007 E16.47853
G1 X101.121 Y109.477 E16.51784
G1 X102.39 Y109.818 E16.55717
G1 X103.688 Y110.023 E16.59651
G1 X105 Y110.092 E16.63583
G1 X106.312 Y110.023 E16.67516
G1 X107.61 Y109.818 E16.7145
G1 X108.879 Y109.477 E16.75383
G1 X110.105 Y109.007 E16.79314
G1 X111.275 Y108.41 E16.83245
G1 X112.377 Y107.695 E16.87178
G1 X113.398 Y106.869 E16.91109
G1 X114.328 Y105.939 E16.95046
G1 X115.154 Y104.918 E16.98977
G1 X115.869 Y103.816 E17.02909
G1 X116.466 Y102.646 E17.06841
G1 X116.936 Y101.42 E17.10772
G1 X117.277 Y100.151 E17.14705
G1 X117.482 Y98.853 E17.18639
G1 X117.55 Y97.556 E17.22526
G1 X117.55 Y85.141 E17.5969
G1 X127.9 Y85.141 E17.90671
G1 X127.9 Y90.191 E18.05788
G1 X121.321 Y90.191 E18.25482
G1 X120.675 Y108.673 E18.8084
G1 X119.579 Y109.639 E18.85213
G1 X117.519 Y111.161 E18.9288
G1 X115.399 Y112.392 E19.00218
G1 X113.209 Y113.367 E19.07394
G1 X110.937 Y114.106 E19.14546
G1 X108.589 Y114.606 E19.21732
G1 X106.201 Y114.858 E19.2892
G1 X103.81 Y114.859 E19.36077
G1 X101.423 Y114.609 E19.43262
G1 X99.074 Y114.11 E19.5045
G1 X96.801 Y113.372 E19.57604
G1 X94.605 Y112.396 E19.64797
G1 X92.538 Y111.202 E19.71943
G1 X90.58 Y109.779 E19.79188
G1 X89.325 Y108.673 E19.84196
G1 X88.679 Y90.191 E20.39554
G1 X82.1 Y90.191 E20.59247
G1 X82.1 Y85.141 E20.74364
G0 F3600 X81.7 Y84.741
;TYPE:WALL-OUTER
G1 F1800 X92.85 Y84.741 E21.07741
G1 X92.85 Y97.52 E21.45993
G1 X92.916 Y98.811 E21.49863
G1 X93.115 Y100.068 E21.53672
G1 X93.445 Y101.296 E21.57479
G1 X93.9 Y102.483 E21.61284
G1 X94.478 Y103.616 E21.65091
G1 X95.17 Y104.683 E21.68898
G1 X95.97 Y105.671 E21.72704
G1 X96.87 Y106.571 E21.76514
G1 X97.858 Y107.371 E21.80319
G1 X98.925 Y108.063 E21.84126
G1 X100.058 Y108.641 E21.87933
G1 X101.245 Y109.096 E21.91739
G1 X102.473 Y109.426 E21.95545
G1 X103.73 Y109.625 E21.99355
G1 X105 Y109.691 E22.03161
G1 X106.27 Y109.625 E22.06968
G1 X107.527 Y109.426 E22.10778
G1 X108.755 Y109.096 E22.14584
G1 X109.942 Y108.641 E22.18389
G1 X111.075 Y108.063 E22.22197
G1 X112.142 Y107.371 E22.26004
G1 X113.13 Y106.571 E22.29809
G1 X114.03 Y105.671 E22.33619
G1 X114.83 Y104.683 E22.37424
G1 X115.522 Y103.616 E22.41231
G1 X116.1 Y102.483 E22.45039
G1 X116.555 Y101.296 E22.48844
G1 X116.885 Y100.068 E22.5265
G1 X117.084 Y98.811 E22.5646
G1 X117.15 Y97.546 E22.60252
G1 X117.15 Y84.741 E22.98582
G1 X128.3 Y84.741 E23.31959
G1 X128.3 Y90.591 E23.4947
G1 X121.707 Y90.591 E23.69206
G1 X121.069 Y108.859 E24.23923
G1 X119.83 Y109.952 E24.28869
G1 X117.741 Y111.495 E24.36643
G1 X115.585 Y112.747 E24.44106
G1 X113.353 Y113.741 E24.5142
G1 X111.041 Y114.493 E24.58697
G1 X108.647 Y115.002 E24.66024
G1 X106.224 Y115.258 E24.73317
G1 X103.787 Y115.259 E24.80612
G1 X101.365 Y115.005 E24.87902
G1 X98.97 Y114.497 E24.95231
G1 X96.657 Y113.746 E25.0251
G1 X94.424 Y112.753 E25.09826
G1 X92.315 Y111.535 E25.17116
G1 X90.329 Y110.092 E25.24464
G1 X88.931 Y108.859 E25.30044
G1 X88.293 Y90.591 E25.84761
G1 X81.7 Y90.591 E26.04497
G1 X81.7 Y84.741 E26.22008
G0 F3600 X81.9 Y84.741
G0 X82.89 Y85.931
;TYPE:SKIN
G1 F1800 X91.66 Y85.931 E26.48261
G1 X91.66 Y97.55 E26.83041
G1 X91.732 Y98.936 E26.87195
G1 X91.949 Y100.316 E26.91377
G1 X92.312 Y101.665 E26.95559
G1 X92.811 Y102.967 E26.99733
G1 X93.446 Y104.211 E27.03914
G1 X94.206 Y105.383 E27.08095
G1 X95.084 Y106.468 E27.12273
G1 X96.073 Y107.457 E27.1646
G1 X97.158 Y108.335 E27.20638
G1 X98.33 Y109.095 E27.24819
G1 X99.574 Y109.73 E27.29
G1 X100.876 Y110.229 E27.33174
G1 X102.225 Y110.592 E27.37356
G1 X103.605 Y110.809 E27.41537
G1 X105 Y110.883 E27.45719
G1 X106.395 Y110.809 E27.49901
G1 X107.775 Y110.592 E27.54082
G1 X109.124 Y110.229 E27.58264
G1 X110.426 Y109.73 E27.62438
G1 X111.67 Y109.095 E27.66619
G1 X112.842 Y108.335 E27.708
G1 X113.927 Y107.457 E27.74978
G1 X114.916 Y106.468 E27.79165
G1 X115.794 Y105.383 E27.83343
G1 X116.554 Y104.211 E27.87524
G1 X117.189 Y102.967 E27.91705
G1 X117.688 Y101.665 E27.95879
G1 X118.051 Y100.316 E28.00061
G1 X118.268 Y98.936 E28.04243
G1 X118.34 Y97.576 E28.08319
G1 X118.34 Y85.931 E28.43178
G1 X127.11 Y85.931 E28.6943
G1 X127.11 Y89.401 E28.79817
G1 X120.559 Y89.401 E28.99427
G1 X119.897 Y108.306 E29.56052
G1 X119.09 Y109.018 E29.59273
G1 X117.074 Y110.505 E29.66772
G1 X115.044 Y111.684 E29.73799
G1 X112.924 Y112.629 E29.80747
G1 X110.735 Y113.34 E29.87637
G1 X108.464 Y113.824 E29.94588
G1 X106.155 Y114.068 E30.01538
G1 X103.854 Y114.069 E30.08426
G1 X101.546 Y113.827 E30.15372
G1 X99.276 Y113.345 E30.22319
G1 X97.09 Y112.636 E30.29198
G1 X94.958 Y111.688 E30.36182
G1 X92.979 Y110.544 E30.43025
G1 X91.064 Y109.152 E30.50112
G1 X90.103 Y108.306 E30.53944
G1 X89.441 Y89.401 E31.10569
G1 X82.89 Y89.401 E31.30179
G1 X82.89 Y85.931 E31.40566
G1 F3600 E30.90566
G0 F3600 X80.835 Y85.931
G0 X80.847 Y91.444
G0 X88.033 Y107.879
G0 X90.265 Y107.801
G1 F3600 E31.40566
G1 F1800 X92.264 Y109.8 E31.49029
G1 X92.334 Y109.87
G0 F3600 X93.893 Y110.863
G1 F1800 X90.245 Y107.215 E31.64472
G0 F3600 X90.224 Y106.629
G1 F1800 X95.187 Y111.592 E31.85482
G1 X95.257 Y111.662
G0 F3600 X96.206 Y112.045
G1 F1800 X90.204 Y106.043 E32.1089
G0 F3600 X90.182 Y105.456
G1 F1800 X97.212 Y112.485 E32.40649
G1 X97.282 Y112.555
G0 F3600 X98.049 Y112.757
G1 F1800 X90.162 Y104.87 E32.74037
G0 F3600 X90.141 Y104.284
G1 F1800 X98.886 Y113.028 E33.11055
G1 X98.956 Y113.098
G0 F3600 X99.665 Y113.241
G1 F1800 X90.121 Y103.697 E33.51458
G0 F3600 X90.1 Y103.111
G1 F1800 X100.383 Y113.394 E33.94989
G0 F3600 X101.102 Y113.547
G1 F1800 X90.08 Y102.525 E34.41649
G0 F3600 X90.059 Y101.939
G1 F1800 X101.79 Y113.67 E34.9131
G0 F3600 X102.423 Y113.736
G1 F1800 X97.374 Y108.688 E35.12682
G1 X97.304 Y108.618
G0 F3600 X98.774 Y109.522
G1 F1800 X103.055 Y113.803 E35.30805
G0 F3600 X103.686 Y113.868
G1 F1800 X99.842 Y110.024 E35.47078
G1 X99.772 Y109.954
G0 F3600 X100.759 Y110.375
G1 F1800 X104.27 Y113.887 E35.61943
G0 F3600 X104.836 Y113.887
G1 F1800 X101.543 Y110.594 E35.75883
G0 F3600 X102.3 Y110.785
G1 F1800 X105.402 Y113.887 E35.89015
G0 F3600 X105.967 Y113.887
G1 F1800 X102.971 Y110.891 E36.01698
