;FLAVOR:RepRap
;TIME:5647
;Filament used: 7.27653m
;Layer height: 0.28
;Generated with Cura_SteamEngine 2.6.2
M190 S50
M104 S220
M109 S220
G21 ;metric values
G90 ;absolute positioning
M82 ;set extruder to absolute mode
M107 ;start with the fan off
G28 X0 Y0 ;move X/Y to min endstops
G28 Z0 ;move Z to min endstops
G1 Z15.0 F9000 ;move the platform down 15mm
G92 E0 ;zero the extruded length
G1 F200 E3 ;extrude 3mm of feed stock
G92 E0 ;zero the extruded length again
G1 F9000
;Put printing message on LCD screen
M117 Printing...
;LAYER_COUNT:43
;LAYER:0
M107
G0 F3600 X57.064 Y25.819 Z0.2
;TYPE:SKIRT
G1 F1500 X57.335 Y25.234 E0.02144
G1 X57.677 Y24.687 E0.0429
G1 X58.083 Y24.187 E0.06432
G1 X58.548 Y23.741 E0.08575
G1 X59.065 Y23.356 E0.10719
G1 X59.626 Y23.037 E0.12866
G1 X60.222 Y22.791 E0.1501
G1 X60.843 Y22.62 E0.17152
G1 X61.481 Y22.528 E0.19296
G1 X61.908 Y22.51 E0.20718
G1 X85.4 Y22.512 E0.98853
G1 X85.772 Y22.525 E1.00091
G1 X91.514 Y22.937 E1.19238
G1 X99.564 Y23.034 E1.46014
G1 X100.207 Y23.082 E1.48159
G1 X100.839 Y23.209 E1.50303
G1 X101.45 Y23.413 E1.52445
G1 X102.032 Y23.691 E1.5459
G1 X102.574 Y24.039 E1.56733
G1 X103.07 Y24.452 E1.58879
G1 X103.51 Y24.923 E1.61023
G1 X103.889 Y25.444 E1.63166
G1 X104.201 Y26.009 E1.65313
G1 X104.44 Y26.607 E1.67455
G1 X104.603 Y27.231 E1.696
G1 X104.688 Y27.87 E1.71744
G1 X104.701 Y28.234 E1.72955
G1 X104.696 Y164.294 E6.25493
G1 X104.656 Y164.938 E6.27639
G1 X104.496 Y165.723 E6.30303
G1 X103.942 Y167.661 E6.37007
G1 X103.667 Y168.404 E6.39642
G1 X103.251 Y169.309 E6.42955
G1 X102.797 Y170.103 E6.45997
G1 X102.222 Y170.931 E6.4935
G1 X101.644 Y171.626 E6.52357
G1 X100.945 Y172.331 E6.55659
G1 X100.255 Y172.915 E6.58665
G1 X99.445 Y173.488 E6.61965
G1 X98.664 Y173.944 E6.64973
G1 X97.735 Y174.383 E6.68391
G1 X96.877 Y174.7 E6.71433
G1 X95.939 Y174.955 E6.74666
G1 X95.098 Y175.111 E6.77511
G1 X88.905 Y175.737 E6.98214
G1 X83.561 Y176.585 E7.1621
G1 X81.041 Y177.096 E7.24763
G1 X76.786 Y178.119 E7.39318
G1 X76.276 Y178.215 E7.41044
G1 X74.992 Y178.391 E7.45355
G1 X74.282 Y178.439 E7.47722
G1 X73.003 Y178.438 E7.51976
G1 X72.302 Y178.39 E7.54313
G1 X71.015 Y178.214 E7.58633
G1 X70.137 Y178.015 E7.61627
G1 X68.36 Y177.447 E7.67832
G1 X67.582 Y177.127 E7.7063
G1 X66.389 Y176.519 E7.75084
G1 X65.924 Y176.251 E7.76869
G1 X65.252 Y175.816 E7.79531
G1 X64.62 Y175.334 E7.82175
G1 X63.277 Y174.138 E7.88156
G1 X62.711 Y173.549 E7.90873
G1 X61.899 Y172.557 E7.95137
G1 X61.723 Y172.329 E7.96095
G1 X57.709 Y166.83 E8.18739
G1 X57.362 Y166.287 E8.20882
G1 X57.085 Y165.705 E8.23026
G1 X56.882 Y165.093 E8.25171
G1 X56.756 Y164.46 E8.27317
G1 X56.709 Y163.764 E8.29637
G1 X56.708 Y27.71 E12.82155
G1 X56.748 Y27.067 E12.84298
G1 X56.867 Y26.433 E12.86443
G1 X57.064 Y25.819 E12.88588
G1 F2400 E12.38588
G0 F3600 X62.499 Y28.301
;TYPE:WALL-INNER
G1 F2400 E12.88588
G1 F1500 X84.794 Y28.301 E13.62741
G1 X84.794 Y54.205 E14.48898
G1 X83.186 Y54.205 E14.54247
G1 X83.185 Y57.91 E14.6657
G1 X83.185 Y58.11 E14.67235
G1 X83.385 Y58.11 E14.67665
G1 X84.793 Y58.11 E14.72348
G1 X84.794 Y95.635 E15.97157
G1 X84.794 Y95.835 E15.97822
G1 X84.594 Y95.835 E15.98253
G1 X83.185 Y95.835 E16.02939
G1 X83.185 Y99.74 E16.15927
G1 X84.794 Y99.74 E16.21279
G1 X84.794 Y155.9 E18.08068
G1 X83.186 Y155.9 E18.13416
G1 X83.185 Y159.605 E18.25739
G1 X83.185 Y159.805 E18.26404
G1 X83.385 Y159.805 E18.26835
G1 X84.794 Y159.805 E18.31521
G1 X84.794 Y163.17 E18.42713
G1 X82.587 Y163.17 E18.50054
G1 X82.586 Y163.189 E18.50117
G1 X82.462 Y164.98 E18.56088
G1 X82.435 Y165.11 E18.5653
G1 X82.213 Y166.177 E18.60155
G1 X82.135 Y166.399 E18.60937
G1 X81.81 Y167.312 E18.64161
G1 X81.645 Y167.63 E18.65352
G1 X81.248 Y168.395 E18.68219
G1 X80.981 Y168.774 E18.69761
G1 X80.547 Y169.39 E18.72267
G1 X80.155 Y169.809 E18.74176
G1 X79.721 Y170.274 E18.76291
G1 X79.185 Y170.711 E18.78591
G1 X78.786 Y171.035 E18.80301
G1 X78.092 Y171.456 E18.83001
G1 X77.736 Y171.673 E18.84387
G1 X76.901 Y172.035 E18.87414
G1 X76.631 Y172.153 E18.88394
G1 X75.638 Y172.43 E18.91823
G1 X75.452 Y172.483 E18.92466
G1 X74.33 Y172.638 E18.96234
G1 X74.257 Y172.648 E18.96479
G1 X73.036 Y172.648 E19.0054
G1 X72.965 Y172.639 E19.00778
G1 X71.841 Y172.483 E19.04552
G1 X71.656 Y172.431 E19.05191
G1 X70.662 Y172.153 E19.08624
G1 X70.393 Y172.036 E19.096
G1 X69.557 Y171.673 E19.12631
G1 X69.202 Y171.457 E19.14013
G1 X68.507 Y171.035 E19.16718
G1 X68.109 Y170.711 E19.18424
G1 X67.572 Y170.274 E19.20727
G1 X67.139 Y169.811 E19.22836
G1 X66.743 Y169.387 E19.24765
G1 X66.313 Y168.775 E19.27253
G1 X66.048 Y168.399 E19.28783
G1 X65.65 Y167.632 E19.31657
G1 X65.483 Y167.312 E19.32858
G1 X65.159 Y166.4 E19.36077
G1 X65.08 Y166.177 E19.36864
G1 X64.859 Y165.111 E19.40484
G1 X64.831 Y164.98 E19.4093
G1 X64.71 Y163.19 E19.46897
G1 X64.708 Y163.17 E19.46964
G1 X62.499 Y163.17 E19.54311
G1 X62.499 Y28.301 E24.02887
G1 F2400 E23.52887
G0 F3600 X81.24 Y67.28
G1 F2400 E24.02887
G1 F1500 X80.835 Y67.592 E24.04588
G1 X80.523 Y67.997 E24.06288
G1 X80.328 Y68.47 E24.0799
G1 X80.262 Y68.976 E24.09687
G1 X80.328 Y69.482 E24.11384
G1 X80.523 Y69.955 E24.13086
G1 X80.835 Y70.36 E24.14786
G1 X81.24 Y70.671 E24.16485
G1 X81.712 Y70.868 E24.18186
G1 X82.219 Y70.934 E24.19886
G1 X82.726 Y70.868 E24.21587
G1 X83.198 Y70.671 E24.23288
G1 X83.603 Y70.36 E24.24986
G1 X83.914 Y69.955 E24.26685
G1 X84.111 Y69.483 E24.28386
G1 X84.177 Y68.976 E24.30086
G1 X84.111 Y68.469 E24.31787
G1 X83.914 Y67.997 E24.33488
G1 X83.603 Y67.592 E24.35186
G1 X83.198 Y67.28 E24.36887
G1 X82.726 Y67.085 E24.38585
G1 X82.219 Y67.017 E24.40287
G1 X81.712 Y67.085 E24.41988
G1 X81.24 Y67.28 E24.43687
G1 F2400 E23.93687
G0 F3600 X82.219 Y111.467
G1 F2400 E24.43687
G1 F1500 X81.712 Y111.535 E24.45388
G1 X81.24 Y111.73 E24.47087
G1 X80.835 Y112.042 E24.48787
G1 X80.523 Y112.447 E24.50487
G1 X80.328 Y112.92 E24.52189
G1 X80.262 Y113.426 E24.53886
G1 X80.328 Y113.932 E24.55583
G1 X80.523 Y114.405 E24.57285
G1 X80.835 Y114.81 E24.58986
G1 X81.24 Y115.121 E24.60684
G1 X81.712 Y115.318 E24.62385
G1 X82.219 Y115.384 E24.64086
G1 X82.726 Y115.318 E24.65786
G1 X83.198 Y115.121 E24.67487
G1 X83.603 Y114.81 E24.69186
G1 X83.914 Y114.405 E24.70884
G1 X84.111 Y113.933 E24.72585
G1 X84.177 Y113.426 E24.74286
G1 X84.111 Y112.919 E24.75986
G1 X83.914 Y112.447 E24.77687
G1 X83.603 Y112.042 E24.79386
G1 X83.198 Y111.73 E24.81086
G1 X82.726 Y111.535 E24.82785
G1 X82.219 Y111.467 E24.84486
G1 F2400 E24.34486
G0 F3600 X82.219 Y143.217
G1 F2400 E24.84486
G1 F1500 X81.712 Y143.285 E24.86187
G1 X81.24 Y143.48 E24.87886
G1 X80.835 Y143.792 E24.89586
G1 X80.523 Y144.197 E24.91287
G1 X80.328 Y144.67 E24.92988
G1 X80.262 Y145.176 E24.94686
G1 X80.328 Y145.682 E24.96383
G1 X80.523 Y146.155 E24.98084
G1 X80.835 Y146.56 E24.99785
G1 X81.24 Y146.871 E25.01483
G1 X81.712 Y147.068 E25.03184
G1 X82.219 Y147.134 E25.04885
G1 X82.726 Y147.068 E25.06585
G1 X83.198 Y146.871 E25.08287
G1 X83.603 Y146.56 E25.09985
G1 X83.914 Y146.155 E25.11683
G1 X84.111 Y145.683 E25.13384
G1 X84.177 Y145.176 E25.15085
G1 X84.111 Y144.669 E25.16785
G1 X83.914 Y144.197 E25.18487
G1 X83.603 Y143.792 E25.20185
G1 X83.198 Y143.48 E25.21885
G1 X82.726 Y143.285 E25.23584
G1 X82.219 Y143.217 E25.25285
G1 F2400 E24.75285
G0 F3600 X82.295 Y163.17
G1 F2400 E25.25285
G1 F1500 X65.001 Y163.17 E25.82805
G1 X65.133 Y164.957 E25.87171
G1 X65.141 Y165.052 E25.87388
G1 X65.382 Y166.108 E25.90014
G1 X65.427 Y166.305 E25.90374
G1 X65.777 Y167.197 E25.92757
G1 X65.897 Y167.502 E25.93552
G1 X66.323 Y168.239 E25.9566
G1 X66.54 Y168.615 E25.96723
G1 X66.995 Y169.185 E25.98532
G1 X67.341 Y169.62 E25.99908
G1 X67.791 Y170.037 E26.0143
G1 X68.284 Y170.495 E26.03097
G1 X68.687 Y170.769 E26.04298
G1 X69.346 Y171.219 E26.06279
G1 X69.694 Y171.387 E26.07223
G1 X70.504 Y171.777 E26.09452
G1 X70.753 Y171.853 E26.10081
G1 X71.732 Y172.156 E26.12626
G1 X71.886 Y172.179 E26.12932
G1 X73.004 Y172.347 E26.15724
G1 X73.036 Y172.347 E26.15745
G1 X74.257 Y172.347 E26.1877
G1 X74.289 Y172.347 E26.18788
G1 X75.406 Y172.18 E26.21537
G1 X75.561 Y172.156 E26.21906
G1 X76.538 Y171.855 E26.24435
G1 X76.789 Y171.777 E26.25069
G1 X77.598 Y171.388 E26.27292
G1 X77.948 Y171.219 E26.28238
G1 X78.606 Y170.771 E26.30204
G1 X79.009 Y170.496 E26.31401
G1 X79.501 Y170.039 E26.33062
G1 X79.952 Y169.62 E26.34585
G1 X80.294 Y169.19 E26.35943
G1 X80.753 Y168.615 E26.37768
G1 X80.972 Y168.236 E26.38839
G1 X81.396 Y167.502 E26.40937
G1 X81.515 Y167.197 E26.41734
G1 X81.866 Y166.305 E26.44121
G1 X81.91 Y166.109 E26.44541
G1 X82.152 Y165.052 E26.47235
G1 X82.159 Y164.958 E26.474
G1 X82.295 Y163.17 E26.51818
G0 F3600 X81.863 Y163.57
;TYPE:WALL-OUTER
G1 F1500 X81.649 Y163.57 E26.5253
G1 X81.648 Y163.57 E26.52534
G1 X65.647 Y163.57 E27.05753
G1 X65.646 Y163.57 E27.05756
G1 X65.432 Y163.57 E27.06468
G1 X65.447 Y163.784 E27.06921
G1 X65.538 Y164.992 E27.1095
G1 X65.81 Y166.187 E27.15026
G1 X66.258 Y167.328 E27.19103
G1 X66.871 Y168.389 E27.23179
G1 X67.635 Y169.347 E27.27254
G1 X68.534 Y170.181 E27.31333
G1 X69.547 Y170.872 E27.35411
G1 X70.651 Y171.404 E27.39487
G1 X71.821 Y171.765 E27.4356
G1 X73.034 Y171.947 E27.4764
G1 X74.259 Y171.947 E27.51714
G1 X75.472 Y171.765 E27.55793
G1 X76.642 Y171.404 E27.59866
G1 X77.747 Y170.872 E27.63945
G1 X78.759 Y170.182 E27.68019
G1 X79.658 Y169.347 E27.721
G1 X80.422 Y168.389 E27.76175
G1 X81.035 Y167.328 E27.80251
G1 X81.483 Y166.187 E27.84328
G1 X81.755 Y164.992 E27.88404
G1 X81.847 Y163.784 E27.92433
G1 X81.863 Y163.57 E27.92885
G0 F3600 X81.663 Y163.57
G1 F2400 E27.42885
G0 F3600 X82.96 Y163.57
G1 F2400 E27.92885
G1 F1500 X82.859 Y165.037 E27.97776
G1 X82.6 Y166.284 E28.02012
G1 X82.178 Y167.47 E28.06199
G1 X81.589 Y168.607 E28.10458
G1 X80.861 Y169.639 E28.14659
G1 X79.996 Y170.566 E28.18876
G1 X79.012 Y171.366 E28.23094
G1 X77.922 Y172.028 E28.27335
G1 X76.766 Y172.53 E28.31527
G1 X75.534 Y172.875 E28.35782
G1 X74.283 Y173.048 E28.39983
G1 X73.01 Y173.048 E28.44217
G1 X71.759 Y172.875 E28.48417
G1 X70.527 Y172.53 E28.52672
G1 X69.371 Y172.028 E28.56864
G1 X68.281 Y171.366 E28.61106
G1 X67.297 Y170.566 E28.65324
G1 X66.432 Y169.639 E28.69541
G1 X65.705 Y168.607 E28.73739
G1 X65.115 Y167.47 E28.78
G1 X64.693 Y166.284 E28.82187
G1 X64.434 Y165.037 E28.86423
G1 X64.334 Y163.57 E28.91314
G1 X62.099 Y163.57 E28.98747
G1 X62.099 Y27.901 E33.49984
G1 X85.194 Y27.901 E34.26798
G1 X85.194 Y54.605 E35.15616
G1 X83.586 Y54.605 E35.20964
G1 X83.585 Y57.51 E35.30627
G1 X83.585 Y57.71 E35.31292
G1 X83.785 Y57.71 E35.31722
G1 X85.193 Y57.71 E35.36405
G1 X85.194 Y96.035 E36.63875
G1 X85.194 Y96.235 E36.6454
G1 X84.994 Y96.235 E36.64971
G1 X83.585 Y96.235 E36.69657
G1 X83.585 Y99.34 E36.79984
G1 X85.194 Y99.34 E36.85336
G1 X85.194 Y156.3 E38.74786
G1 X83.586 Y156.3 E38.80134
G1 X83.585 Y159.205 E38.89796
G1 X83.585 Y159.405 E38.90461
G1 X83.785 Y159.405 E38.90892
G1 X85.194 Y159.405 E38.95578
G1 X85.194 Y163.57 E39.09431
G1 X82.96 Y163.57 E39.16862
G0 F3600 X82.947 Y163.769
G1 F2400 E38.66862
G0 F3600 X82.219 Y146.731
G1 F2400 E39.16862
G1 F1500 X82.621 Y146.678 E39.1821
G1 X82.996 Y146.522 E39.19561
G1 X83.318 Y146.275 E39.20911
G1 X83.565 Y145.953 E39.22261
G1 X83.721 Y145.578 E39.23611
G1 X83.774 Y145.176 E39.2496
G1 X83.721 Y144.774 E39.26309
G1 X83.565 Y144.399 E39.2766
G1 X83.318 Y144.077 E39.29009
G1 X82.996 Y143.83 E39.30359
G1 X82.621 Y143.675 E39.31709
G1 X82.219 Y143.621 E39.33058
G1 X81.817 Y143.675 E39.34407
G1 X81.442 Y143.83 E39.35756
G1 X81.12 Y144.077 E39.37106
G1 X80.873 Y144.399 E39.38456
G1 X80.718 Y144.774 E39.39806
G1 X80.665 Y145.176 E39.41154
G1 X80.718 Y145.578 E39.42503
G1 X80.873 Y145.953 E39.43852
G1 X81.12 Y146.275 E39.45202
G1 X81.442 Y146.522 E39.46552
G1 X81.817 Y146.678 E39.47903
G1 X82.219 Y146.731 E39.49252
G0 F3600 X82.417 Y146.705
G1 F2400 E38.99252
G0 F3600 X82.219 Y114.981
G1 F2400 E39.49252
G1 F1500 X82.621 Y114.928 E39.506
G1 X82.996 Y114.772 E39.51951
G1 X83.318 Y114.525 E39.53301
G1 X83.565 Y114.203 E39.54651
G1 X83.721 Y113.828 E39.56001
G1 X83.774 Y113.426 E39.5735
G1 X83.721 Y113.024 E39.58699
G1 X83.565 Y112.649 E39.6005
G1 X83.318 Y112.327 E39.61399
G1 X82.996 Y112.08 E39.62749
G1 X82.621 Y111.925 E39.64099
G1 X82.219 Y111.871 E39.65448
G1 X81.817 Y111.925 E39.66797
G1 X81.442 Y112.08 E39.68146
G1 X81.12 Y112.327 E39.69496
G1 X80.873 Y112.649 E39.70846
G1 X80.718 Y113.024 E39.72196
G1 X80.665 Y113.426 E39.73544
G1 X80.718 Y113.828 E39.74893
G1 X80.873 Y114.203 E39.76242
G1 X81.12 Y114.525 E39.77592
G1 X81.442 Y114.772 E39.78942
G1 X81.817 Y114.928 E39.80293
G1 X82.219 Y114.981 E39.81642
G0 F3600 X82.417 Y114.955
G1 F2400 E39.31642
G0 F3600 X82.219 Y70.531
G1 F2400 E39.81642
G1 F1500 X82.621 Y70.478 E39.8299
G1 X82.996 Y70.322 E39.84341
G1 X83.318 Y70.075 E39.85691
G1 X83.565 Y69.753 E39.87041
G1 X83.721 Y69.378 E39.88391
G1 X83.774 Y68.976 E39.8974
G1 X83.721 Y68.574 E39.91089
G1 X83.565 Y68.199 E39.9244
G1 X83.318 Y67.877 E39.93789
G1 X82.996 Y67.63 E39.95139
G1 X82.621 Y67.475 E39.96489
G1 X82.219 Y67.421 E39.97838
G1 X81.817 Y67.475 E39.99187
G1 X81.442 Y67.63 E40.00536
G1 X81.12 Y67.877 E40.01886
G1 X80.873 Y68.199 E40.03236
G1 X80.718 Y68.574 E40.04586
G1 X80.665 Y68.976 E40.05934
G1 X80.718 Y69.378 E40.07283
G1 X80.873 Y69.753 E40.08632
G1 X81.12 Y70.075 E40.09982
G1 X81.442 Y70.322 E40.11332
G1 X81.817 Y70.478 E40.12683
G1 X82.219 Y70.531 E40.14032
G0 F3600 X82.417 Y70.505
G0 X82.405 Y71.091
;TYPE:SKIN
G1 F1500 X84.613 Y73.299 E40.24417
G1 X84.683 Y73.369
G0 F3600 X84.613 Y72.733
G1 F1500 X82.879 Y70.999 E40.32573
G1 X82.809 Y70.929
G0 F3600 X83.278 Y70.833
G1 F1500 X84.613 Y72.168 E40.38853
G1 X84.683 Y72.238
G0 F3600 X84.613 Y71.602
G1 F1500 X83.6 Y70.589 E40.43618
G1 X83.53 Y70.519
G0 F3600 X83.876 Y70.299
G1 F1500 X84.613 Y71.036 E40.47084
G1 X84.683 Y71.106
G0 F3600 X84.359 Y70.216
G1 F1500 X84.442 Y69.734 E40.49077
G1 X84.479 Y69.205 E40.5051
G1 X84.45 Y68.611 E40.519
G0 F3600 X84.613 Y68.208
G1 F1500 X62.677 Y46.273 E41.55078
G1 X62.607 Y46.203
G0 F3600 X62.677 Y46.838
G1 F1500 X82.744 Y66.905 E42.49467
G1 X82.814 Y66.975
G0 F3600 X82.121 Y66.847
G1 F1500 X62.677 Y47.404 E43.40923
G1 X62.607 Y47.334
G0 F3600 X62.677 Y47.97
G1 F1500 X81.63 Y66.922 E44.3007
G1 X81.7 Y66.992
G0 F3600 X81.23 Y67.088
G1 F1500 X62.677 Y48.535 E45.17337
G1 X62.607 Y48.465
G0 F3600 X62.677 Y49.101
G1 F1500 X80.894 Y67.317 E46.03022
G1 X80.964 Y67.387
G0 F3600 X80.605 Y67.594
G1 F1500 X62.677 Y49.667 E46.87348
G1 X62.607 Y49.597
G0 F3600 X62.677 Y50.232
G1 F1500 X80.36 Y67.915 E47.70523
G1 X80.43 Y67.985
G0 F3600 X80.195 Y68.316
G1 F1500 X62.677 Y50.798 E48.52922
G1 X62.607 Y50.728
G0 F3600 X62.677 Y51.364
G1 F1500 X80.103 Y68.79 E49.34889
G1 X80.173 Y68.86
G0 F3600 X80.132 Y69.384
G1 F1500 X62.677 Y51.929 E50.16992
G1 X62.607 Y51.859
G0 F3600 X62.677 Y52.495
G1 F1500 X84.613 Y74.43 E51.2017
G1 X84.683 Y74.5
G0 F3600 X84.613 Y73.865
G1 F1500 X81.81 Y71.062 E51.33354
G1 X81.74 Y70.992
G1 F2400 E50.83354
G0 F3600 X84.613 Y67.642
G1 F2400 E51.33354
G1 F1500 X62.677 Y45.707 E52.36532
G1 X62.607 Y45.637
G0 F3600 X62.677 Y45.141
G1 F1500 X84.613 Y67.076 E53.3971
G1 X84.683 Y67.146
G0 F3600 X84.613 Y66.511
G1 F1500 X62.677 Y44.576 E54.42888
G1 X62.607 Y44.506
G0 F3600 X62.677 Y44.01
G1 F1500 X84.613 Y65.945 E55.46066
G1 X84.683 Y66.015
G0 F3600 X84.613 Y65.379
G1 F1500 X62.677 Y43.444 E56.49243
G1 X62.607 Y43.374
G0 F3600 X62.677 Y42.878
G1 F1500 X84.613 Y64.814 E57.52424
G1 X84.683 Y64.884
G0 F3600 X84.613 Y64.248
G1 F1500 X62.677 Y42.313 E58.55602
G1 X62.607 Y42.243
G0 F3600 X62.677 Y41.747
G1 F1500 X84.613 Y63.682 E59.58779
G1 X84.683 Y63.752
G0 F3600 X84.613 Y63.117
G1 F1500 X62.677 Y41.181 E60.6196
G1 X62.607 Y41.111
G0 F3600 X62.677 Y40.616
G1 F1500 X84.613 Y62.551 E61.65137
G1 X84.683 Y62.621
G0 F3600 X84.613 Y61.985
G1 F1500 X62.677 Y40.05 E62.68315
G1 X62.607 Y39.98
G0 F3600 X62.677 Y39.484
G1 F1500 X84.613 Y61.42 E63.71496
G1 X84.683 Y61.49
G0 F3600 X84.613 Y60.854
G1 F1500 X62.677 Y38.919 E64.74673
G1 X62.607 Y38.849
G0 F3600 X62.677 Y38.353
G1 F1500 X84.613 Y60.288 E65.77851
G1 X84.683 Y60.358
G0 F3600 X84.613 Y59.722
G1 F1500 X83.179 Y58.289 E65.84594
