;FLAVOR:RepRap
;TIME:1271
;Filament used: 1.25388m
;Layer height: 0.2
;Generated with Cura_SteamEngine 2.6.2
M190 S50
M104 S220
M109 S220
G21 ;metric values
G90 ;absolute positioning
M82 ;set extruder to absolute mode
M107 ;start with the fan off
G28 X0 Y0 ;move X/Y to min endstops
G28 Z0 ;move Z to min endstops
G1 Z15.0 F9000 ; move head up to release any stuck filament
G92 E0 ;zero the extruded length again
G1 F9000
M117 Printing...
;LAYER_COUNT:50
;LAYER:0
M107
G0 F3600 X68.361 Y100.368 Z0.2
;TYPE:SKIRT
G1 F1500 X69.127 Y99.914 E0.02962
G1 X73.861 Y97.599 E0.20489
G1 X78.523 Y94.991 E0.38256
G1 X83.032 Y92.121 E0.56033
G1 X87.369 Y89.004 E0.73797
G1 X91.525 Y85.661 E0.91537
G1 X92.048 Y85.287 E0.93675
G1 X92.53 Y84.983 E0.95571
G1 X93.116 Y84.661 E0.97795
G1 X93.478 Y84.505 E0.99106
G1 X93.992 Y84.304 E1.00941
G1 X94.942 Y84.026 E1.04234
G1 X99.629 Y83.097 E1.20126
G1 X104.903 Y81.786 E1.38201
G1 X109.394 Y80.497 E1.53741
G1 X110.146 Y80.336 E1.56299
G1 X112.166 Y80.047 E1.63086
G1 X112.95 Y79.991 E1.657
G1 X114.869 Y79.988 E1.72083
G1 X115.472 Y80.02 E1.74091
G1 X116.663 Y80.147 E1.78075
G1 X117.239 Y80.239 E1.80015
G1 X119.017 Y80.619 E1.86062
G1 X119.591 Y80.774 E1.8804
G1 X120.738 Y81.15 E1.92055
G1 X121.374 Y81.402 E1.9433
G1 X123.5 Y82.4 E2.02141
G1 X124.283 Y82.848 E2.05142
G1 X126.089 Y84.084 E2.12421
G1 X126.678 Y84.548 E2.14915
G1 X128.002 Y85.743 E2.20847
G1 X128.506 Y86.26 E2.23248
G1 X129.864 Y87.848 E2.30198
G1 X130.389 Y88.572 E2.33172
G1 X131.634 Y90.613 E2.41124
G1 X131.967 Y91.246 E2.43503
G1 X132.496 Y92.431 E2.47819
G1 X132.747 Y93.107 E2.50217
G1 X133.446 Y95.441 E2.58321
G1 X133.634 Y96.323 E2.6132
G1 X133.901 Y98.369 E2.68183
G1 X133.943 Y98.869 E2.69852
G1 X133.98 Y99.788 E2.72911
G1 X133.974 Y100.361 E2.74817
G1 X133.864 Y102.126 E2.80699
G1 X133.777 Y102.82 E2.83025
G1 X133.427 Y104.669 E2.89284
G1 X133.287 Y105.242 E2.91246
G1 X133.046 Y106.042 E2.94025
G1 X132.882 Y106.51 E2.95674
G1 X132.102 Y108.457 E3.0265
G1 X131.816 Y109.062 E3.04876
G1 X131.185 Y110.215 E3.09248
G1 X130.929 Y110.639 E3.10895
G1 X130.264 Y111.634 E3.14876
G1 X129.918 Y112.097 E3.16798
G1 X128.795 Y113.451 E3.22649
G1 X128.233 Y114.037 E3.25349
G1 X126.38 Y115.706 E3.33644
G1 X125.62 Y116.281 E3.36814
G1 X123.605 Y117.552 E3.44737
G1 X122.912 Y117.924 E3.47353
G1 X121.55 Y118.536 E3.5232
G1 X120.963 Y118.761 E3.54411
G1 X118.98 Y119.396 E3.61336
G1 X118.095 Y119.602 E3.64358
G1 X115.651 Y119.965 E3.72576
G1 X114.828 Y120.026 E3.75321
G1 X113.064 Y120.026 E3.81188
G1 X112.337 Y119.979 E3.83611
G1 X70.86 Y114.548 E5.22742
G1 X70.203 Y114.421 E5.24967
G1 X69.566 Y114.217 E5.27192
G1 X68.957 Y113.939 E5.29419
G1 X68.386 Y113.59 E5.31644
G1 X67.861 Y113.176 E5.33868
G1 X67.389 Y112.702 E5.36093
G1 X66.977 Y112.175 E5.38318
G1 X66.631 Y111.602 E5.40544
G1 X66.355 Y110.993 E5.42768
G1 X66.154 Y110.354 E5.44996
G1 X66.031 Y109.697 E5.47219
G1 X65.987 Y108.994 E5.49562
G1 X65.988 Y104.943 E5.63036
G1 X66.028 Y104.275 E5.65261
G1 X66.148 Y103.617 E5.67486
G1 X66.345 Y102.977 E5.69713
G1 X66.617 Y102.366 E5.71938
G1 X66.96 Y101.791 E5.74165
G1 X67.369 Y101.262 E5.76389
G1 X67.838 Y100.785 E5.78614
G1 X68.361 Y100.368 E5.80838
G0 F3600 X68.746 Y100.589
G1 F1500 X69.303 Y100.273 E5.82968
G1 X74.046 Y97.953 E6.0053
G1 X78.727 Y95.335 E6.18368
G1 X83.247 Y92.458 E6.36189
G1 X87.619 Y89.316 E6.54096
G1 X91.776 Y85.972 E6.7184
G1 X92.261 Y85.626 E6.73822
G1 X92.743 Y85.322 E6.75717
G1 X93.309 Y85.012 E6.77864
G1 X93.623 Y84.877 E6.79
G1 X94.137 Y84.676 E6.80836
G1 X95.02 Y84.418 E6.83896
G1 X99.737 Y83.483 E6.9989
G1 X105.007 Y82.173 E7.17951
G1 X109.505 Y80.882 E7.33516
G1 X110.203 Y80.732 E7.3589
G1 X112.223 Y80.443 E7.42677
G1 X112.951 Y80.391 E7.45105
G1 X114.87 Y80.388 E7.51487
G1 X115.429 Y80.417 E7.53349
G1 X116.62 Y80.544 E7.57333
G1 X117.156 Y80.63 E7.59138
G1 X118.934 Y81.01 E7.65186
G1 X119.467 Y81.154 E7.67022
G1 X120.614 Y81.53 E7.71037
G1 X121.204 Y81.764 E7.73148
G1 X123.33 Y82.762 E7.80959
G1 X124.057 Y83.178 E7.83745
G1 X125.863 Y84.414 E7.91024
G1 X126.41 Y84.845 E7.9334
G1 X127.734 Y86.04 E7.99272
G1 X128.202 Y86.52 E8.01502
G1 X129.56 Y88.108 E8.08451
G1 X130.047 Y88.78 E8.11212
G1 X131.292 Y90.821 E8.19163
G1 X131.601 Y91.409 E8.21373
G1 X132.13 Y92.594 E8.25689
G1 X132.363 Y93.222 E8.27917
G1 X133.062 Y95.556 E8.3602
G1 X133.237 Y96.375 E8.38806
G1 X133.504 Y98.421 E8.45669
G1 X133.544 Y98.885 E8.47218
G1 X133.581 Y99.804 E8.50277
G1 X133.575 Y100.336 E8.52046
G1 X133.465 Y102.101 E8.57928
G1 X133.384 Y102.745 E8.60087
G1 X133.034 Y104.594 E8.66346
G1 X132.904 Y105.127 E8.68171
G1 X132.663 Y105.927 E8.7095
G1 X132.511 Y106.361 E8.72479
G1 X131.731 Y108.308 E8.79455
G1 X131.466 Y108.87 E8.81522
G1 X130.835 Y110.023 E8.85893
G1 X130.596 Y110.416 E8.87423
G1 X129.931 Y111.411 E8.91404
G1 X129.61 Y111.842 E8.93191
G1 X128.487 Y113.196 E8.99042
G1 X127.965 Y113.74 E9.01549
G1 X126.112 Y115.409 E9.09844
G1 X125.406 Y115.943 E9.12788
G1 X123.391 Y117.214 E9.20712
G1 X122.748 Y117.559 E9.23139
G1 X121.386 Y118.171 E9.28105
G1 X120.841 Y118.38 E9.30047
G1 X118.858 Y119.015 E9.36972
G1 X118.036 Y119.207 E9.3978
G1 X115.592 Y119.57 E9.47998
G1 X114.828 Y119.626 E9.50545
G1 X113.064 Y119.626 E9.56413
G1 X112.389 Y119.582 E9.58662
G1 X70.912 Y114.151 E10.97793
G1 X70.279 Y114.028 E10.99938
G1 X69.666 Y113.827 E11.02083
G1 X69.083 Y113.553 E11.04226
G1 X68.539 Y113.208 E11.06369
G1 X68.041 Y112.798 E11.08514
G1 X67.597 Y112.33 E11.1066
G1 X67.215 Y111.811 E11.12803
G1 X66.901 Y111.248 E11.14947
G1 X66.658 Y110.651 E11.17091
G1 X66.491 Y110.028 E11.19236
G1 X66.402 Y109.39 E11.21379
G1 X66.387 Y108.994 E11.22697
G1 X66.388 Y104.943 E11.3617
G1 X66.428 Y104.299 E11.38317
G1 X66.548 Y103.666 E11.40459
G1 X66.744 Y103.052 E11.42603
G1 X67.016 Y102.467 E11.44749
G1 X67.357 Y101.92 E11.46893
G1 X67.764 Y101.42 E11.49037
G1 X68.229 Y100.974 E11.5118
G1 X68.746 Y100.589 E11.53324
G1 F2400 E11.03324
G0 F3600 X72.578 Y104.273
G0 X72.578 Y105.938
;TYPE:WALL-INNER
G1 F2400 E11.53324
G1 F1500 X101.634 Y105.938 E12.49965
G1 X101.894 Y106.451 E12.51878
G1 X102.2 Y106.993 E12.53948
G1 X102.532 Y107.52 E12.56019
G1 X102.885 Y108.033 E12.5809
G1 X103.263 Y108.529 E12.60165
G1 X103.662 Y109.007 E12.62236
G1 X104.085 Y109.466 E12.64312
G1 X104.526 Y109.904 E12.66379
G1 X104.986 Y110.322 E12.68446
G1 X105.466 Y110.721 E12.70522
G1 X105.964 Y111.095 E12.72594
G1 X106.477 Y111.447 E12.74663
G1 X107.006 Y111.775 E12.76733
G1 X107.55 Y112.08 E12.78807
G1 X107.902 Y112.255 E12.80115
G1 X108.108 Y112.358 E12.80881
G1 X108.677 Y112.61 E12.82951
G1 X109.231 Y112.827 E12.8493
G1 X108.659 Y112.754 E12.85264
G1 X108.068 Y112.678 E12.86466
G1 X107.839 Y112.649 E12.8716
G1 X84.225 Y109.614 E13.66346
G1 X72.576 Y108.125 E14.05406
G1 X72.578 Y105.938 E14.1268
G1 F2400 E13.6268
G0 F3600 X72.578 Y104.273
G0 X93.165 Y93.745
G0 X94.832 Y93.745
G1 F2400 E14.1268
G1 F1500 X94.835 Y92.316 E14.17433
G1 X94.862 Y92.083 E14.18213
G1 X94.918 Y91.848 E14.19017
G1 X95.003 Y91.617 E14.19835
G1 X95.149 Y91.338 E14.20883
G1 X95.324 Y91.102 E14.2186
G1 X95.38 Y91.04 E14.22138
G1 X95.562 Y90.87 E14.22966
G1 X95.755 Y90.725 E14.23769
G1 X95.966 Y90.604 E14.24578
G1 X96.175 Y90.513 E14.25336
G1 X96.404 Y90.444 E14.26132
G1 X96.517 Y90.421 E14.26515
G1 X96.748 Y90.394 E14.27289
G1 X96.875 Y90.389 E14.27711
G1 X96.997 Y90.394 E14.28117
G1 X97.225 Y90.42 E14.28881
G1 X97.464 Y90.477 E14.29698
G1 X97.683 Y90.556 E14.30472
G1 X97.899 Y90.663 E14.31274
G1 X98.098 Y90.796 E14.3207
G1 X98.277 Y90.945 E14.32845
G1 X98.759 Y91.427 E14.35112
G1 X105.185 Y88.695 E14.58336
G1 X105.36 Y88.783 E14.58988
G1 X105.619 Y88.847 E14.59875
G1 X105.667 Y88.858 E14.60039
G1 X105.709 Y88.869 E14.60183
G1 X106.028 Y88.87 E14.61244
G1 X105.822 Y89.022
G1 X105.583 Y89.198 E14.61703
G1 X105.545 Y89.229 E14.61857
G1 X105.1 Y89.589 E14.63761
G1 X104.633 Y90.004 E14.65839
G1 X104.188 Y90.438 E14.67906
G1 X103.762 Y90.892 E14.69977
G1 X103.357 Y91.365 E14.72048
G1 X102.975 Y91.856 E14.74117
G1 X102.615 Y92.364 E14.76188
G1 X102.276 Y92.89 E14.78269
G1 X101.965 Y93.428 E14.80336
G1 X101.697 Y93.945 E14.82273
G1 X95.032 Y93.945 E15.04441
G1 X94.832 Y93.945 E15.05106
G1 X94.832 Y93.745 E15.05537
G0 F3600 X94.431 Y94.145
G1 F1500 X94.435 Y92.296 E15.11687
G1 X94.468 Y92.011 E15.12641
G1 X94.534 Y91.734 E15.13588
G1 X94.635 Y91.457 E15.14569
G1 X94.767 Y91.196 E15.15542
G1 X94.822 Y91.107 E15.1589
G1 X95.009 Y90.856 E15.16931
G1 X95.095 Y90.759 E15.17362
G1 X95.307 Y90.561 E15.18327
G1 X95.535 Y90.39 E15.19275
G1 X95.785 Y90.247 E15.20232
G1 X95.897 Y90.194 E15.20645
G1 X96.044 Y90.135 E15.21171
G1 X96.306 Y90.056 E15.22082
G1 X96.454 Y90.026 E15.22584
G1 X96.721 Y89.994 E15.23478
G1 X96.876 Y89.989 E15.23994
G1 X97.018 Y89.994 E15.24467
G1 X97.298 Y90.026 E15.25404
G1 X97.578 Y90.093 E15.26362
G1 X97.843 Y90.189 E15.27299
G1 X98.099 Y90.315 E15.28248
G1 X98.334 Y90.472 E15.29188
G1 X98.551 Y90.653 E15.30128
G1 X98.851 Y90.953 E15.31539
G1 X105.216 Y88.248 E15.54541
G1 X105.263 Y88.287 E15.54745
G1 X105.499 Y88.405 E15.55622
G1 X105.758 Y88.469 E15.5651
G1 X106.023 Y88.47 E15.57391
G1 X106.288 Y88.412 E15.58293
G1 X106.49 Y88.312 E15.59043
G1 X107.01 Y88.004 E15.61053
G1 X107.514 Y87.726 E15.62967
G1 X108.034 Y87.467 E15.649
G1 X108.555 Y87.235 E15.66796
G1 X109.101 Y87.019 E15.68749
G1 X109.656 Y86.826 E15.70704
G1 X110.214 Y86.657 E15.72643
G1 X110.761 Y86.516 E15.74522
G1 X111.353 Y86.389 E15.76536
G1 X111.906 Y86.296 E15.78401
G1 X112.479 Y86.225 E15.80321
G1 X113.066 Y86.176 E15.8228
G1 X113.66 Y86.151 E15.84258
G1 X114.216 Y86.151 E15.86107
G1 X114.811 Y86.176 E15.88088
G1 X115.398 Y86.225 E15.90047
G1 X115.967 Y86.296 E15.91954
G1 X116.529 Y86.391 E15.9385
G1 X117.114 Y86.516 E15.95839
G1 X117.659 Y86.656 E15.97711
G1 X118.217 Y86.826 E15.99651
G1 X118.773 Y87.019 E16.01608
G1 X119.319 Y87.235 E16.03561
G1 X119.84 Y87.467 E16.05458
G1 X120.355 Y87.723 E16.07371
G1 X120.871 Y88.006 E16.09329
G1 X121.367 Y88.307 E16.11258
G1 X121.843 Y88.624 E16.1316
G1 X122.326 Y88.975 E16.15146
G1 X122.768 Y89.325 E16.17021
G1 X123.2 Y89.698 E16.1892
G1 X123.636 Y90.107 E16.20908
G1 X124.042 Y90.522 E16.22839
G1 X124.431 Y90.954 E16.24773
G1 X124.806 Y91.407 E16.26729
G1 X125.141 Y91.848 E16.28571
G1 X125.472 Y92.325 E16.30502
G1 X125.793 Y92.83 E16.32492
G1 X126.075 Y93.319 E16.34369
G1 X126.344 Y93.831 E16.36293
G1 X126.591 Y94.357 E16.38226
G1 X126.823 Y94.907 E16.40211
G1 X127.019 Y95.435 E16.42084
G1 X127.203 Y96.003 E16.4407
G1 X127.361 Y96.563 E16.46005
G1 X127.492 Y97.118 E16.47902
G1 X127.598 Y97.681 E16.49808
G1 X127.686 Y98.272 E16.51795
G1 X127.746 Y98.849 E16.53724
G1 X127.782 Y99.42 E16.55627
G1 X127.795 Y99.992 E16.5753
G1 X127.782 Y100.589 E16.59516
G1 X127.747 Y101.152 E16.61393
G1 X127.687 Y101.729 E16.63322
G1 X127.598 Y102.327 E16.65333
G1 X127.494 Y102.874 E16.67185
G1 X127.358 Y103.456 E16.69173
G1 X127.203 Y104.007 E16.71076
G1 X127.022 Y104.567 E16.73034
G1 X126.826 Y105.094 E16.74904
G1 X126.594 Y105.645 E16.76892
G1 X126.355 Y106.155 E16.78766
G1 X126.079 Y106.684 E16.8075
G1 X125.797 Y107.173 E16.82628
G1 X125.472 Y107.684 E16.84642
G1 X125.156 Y108.14 E16.86487
G1 X124.795 Y108.616 E16.88474
G1 X124.436 Y109.05 E16.90348
G1 X124.042 Y109.488 E16.92307
G1 X123.642 Y109.896 E16.94207
G1 X123.2 Y110.311 E16.96224
G1 X122.78 Y110.675 E16.98072
G1 X122.308 Y111.049 E17.00075
G1 X121.85 Y111.381 E17.01957
G1 X121.367 Y111.702 E17.03886
G1 X120.861 Y112.009 E17.05854
G1 X120.369 Y112.28 E17.07722
G1 X119.84 Y112.542 E17.09686
G1 X119.319 Y112.774 E17.11583
G1 X118.779 Y112.988 E17.13515
G1 X118.208 Y113.187 E17.15526
G1 X117.664 Y113.351 E17.17416
G1 X117.114 Y113.493 E17.19305
G1 X116.52 Y113.62 E17.21325
G1 X115.967 Y113.713 E17.2319
G1 X115.396 Y113.785 E17.25105
G1 X114.813 Y113.834 E17.27051
G1 X114.216 Y113.859 E17.29038
G1 X113.658 Y113.859 E17.30894
G1 X113.063 Y113.834 E17.32875
G1 X112.476 Y113.785 E17.34834
G1 X111.907 Y113.713 E17.36741
G1 X111.345 Y113.618 E17.38637
G1 X110.766 Y113.494 E17.40606
G1 X110.205 Y113.356 E17.42528
G1 X84.174 Y110.011 E18.29819
G1 X72.176 Y108.477 E18.7005
G1 X72.178 Y105.538 E18.79825
G1 X101.891 Y105.538 E19.78651
G1 X101.973 Y105.722 E19.79321
G1 X102.247 Y106.262 E19.81335
G1 X102.544 Y106.788 E19.83344
G1 X102.866 Y107.3 E19.85356
G1 X103.209 Y107.798 E19.87367
G1 X103.576 Y108.279 E19.89379
G1 X103.963 Y108.743 E19.91389
G1 X104.373 Y109.188 E19.93401
G1 X104.802 Y109.614 E19.95412
G1 X105.249 Y110.02 E19.9742
G1 X105.714 Y110.407 E19.99433
G1 X106.197 Y110.77 E20.01442
G1 X106.696 Y111.112 E20.03454
G1 X107.209 Y111.43 E20.05462
G1 X107.737 Y111.726 E20.07475
G1 X108.278 Y111.996 E20.09486
G1 X108.831 Y112.241 E20.11498
G1 X109.393 Y112.461 E20.13505
G1 X109.966 Y112.656 E20.15518
G1 X110.547 Y112.823 E20.17529
G1 X111.134 Y112.965 E20.19538
G1 X111.728 Y113.079 E20.21549
G1 X112.327 Y113.166 E20.23562
G1 X112.929 Y113.225 E20.25574
G1 X113.531 Y113.258 E20.2758
G1 X114.136 Y113.263 E20.29592
G1 X114.74 Y113.24 E20.31602
G1 X115.343 Y113.19 E20.33615
G1 X115.943 Y113.111 E20.35628
G1 X116.538 Y113.006 E20.37637
G1 X117.127 Y112.874 E20.39645
G1 X117.711 Y112.716 E20.41657
G1 X118.286 Y112.531 E20.43666
G1 X118.853 Y112.32 E20.45678
G1 X119.41 Y112.082 E20.47693
G1 X119.955 Y111.82 E20.49704
G1 X120.487 Y111.534 E20.51713
G1 X121.005 Y111.223 E20.53722
G1 X121.508 Y110.89 E20.55729
G1 X121.998 Y110.534 E20.57743
G1 X122.47 Y110.154 E20.59759
G1 X122.923 Y109.755 E20.61767
G1 X123.357 Y109.335 E20.63775
G1 X123.773 Y108.896 E20.65787
G1 X124.168 Y108.438 E20.67798
G1 X124.542 Y107.963 E20.69809
G1 X124.894 Y107.472 E20.71819
G1 X125.222 Y106.965 E20.73827
G1 X125.529 Y106.443 E20.75841
G1 X125.81 Y105.908 E20.77851
G1 X126.067 Y105.361 E20.79861
G1 X126.299 Y104.802 E20.81874
G1 X126.504 Y104.233 E20.83886
G1 X126.684 Y103.656 E20.85896
G1 X126.837 Y103.072 E20.87904
G1 X126.964 Y102.481 E20.89915
G1 X127.063 Y101.883 E20.91931
G1 X127.134 Y101.284 E20.93937
G1 X127.18 Y100.681 E20.95948
G1 X127.196 Y100.077 E20.97958
G1 X127.186 Y99.473 E20.99967
G1 X127.148 Y98.869 E21.0198
G1 X127.083 Y98.269 E21.03987
G1 X126.99 Y97.67 E21.06003
G1 X126.869 Y97.079 E21.0801
G1 X126.723 Y96.492 E21.10022
G1 X126.55 Y95.912 E21.12035
G1 X126.35 Y95.342 E21.14044
G1 X126.125 Y94.78 E21.16057
G1 X125.873 Y94.231 E21.18067
G1 X125.598 Y93.693 E21.20076
G1 X125.298 Y93.167 E21.2209
G1 X124.974 Y92.657 E21.241
G1 X124.628 Y92.163 E21.26106
G1 X124.261 Y91.683 E21.28115
G1 X123.87 Y91.22 E21.30131
G1 X123.459 Y90.778 E21.32139
G1 X123.028 Y90.352 E21.34154
G1 X122.579 Y89.948 E21.36163
G1 X122.112 Y89.564 E21.38174
G1 X121.627 Y89.203 E21.40185
G1 X121.127 Y88.864 E21.42194
G1 X120.612 Y88.547 E21.44205
G1 X120.082 Y88.255 E21.46218
G1 X119.541 Y87.987 E21.48226
G1 X118.986 Y87.744 E21.50241
G1 X118.423 Y87.527 E21.52248
G1 X117.849 Y87.336 E21.5426
G1 X117.268 Y87.17 E21.5627
G1 X116.678 Y87.031 E21.58286
G1 X116.085 Y86.921 E21.60292
G1 X115.486 Y86.836 E21.62304
G1 X114.884 Y86.779 E21.64315
G1 X114.28 Y86.75 E21.66327
G1 X113.676 Y86.748 E21.68336
G1 X113.072 Y86.773 E21.70346
G1 X112.47 Y86.826 E21.72356
G1 X111.871 Y86.907 E21.74367
G1 X111.275 Y87.015 E21.76381
G1 X110.687 Y87.15 E21.78388
G1 X110.105 Y87.311 E21.80396
G1 X109.53 Y87.499 E21.82408
G1 X108.964 Y87.713 E21.84421
G1 X108.408 Y87.952 E21.86434
G1 X107.865 Y88.217 E21.88443
G1 X107.334 Y88.506 E21.90454
G1 X106.817 Y88.818 E21.92462
G1 X106.315 Y89.155 E21.94473
G1 X105.828 Y89.515 E21.96488
G1 X105.359 Y89.894 E21.98493
G1 X104.906 Y90.297 E22.0051
G1 X104.474 Y90.718 E22.02516
G1 X104.06 Y91.159 E22.04528
G1 X103.667 Y91.618 E22.06538
G1 X103.296 Y92.095 E22.08548
G1 X102.946 Y92.588 E22.10559
G1 X102.618 Y93.098 E22.12575
G1 X102.316 Y93.62 E22.14581
G1 X102.037 Y94.157 E22.16594
G1 X101.95 Y94.345 E22.17283
G1 X94.631 Y94.345 E22.41626
G1 X94.431 Y94.345 E22.42291
G1 X94.431 Y94.145 E22.42722
G0 F3600 X94.03 Y94.545
;TYPE:WALL-OUTER
G1 F1500 X94.035 Y92.275 E22.50272
G1 X94.074 Y91.941 E22.51391
G1 X94.151 Y91.615 E22.52505
G1 X94.267 Y91.297 E22.5363
G1 X94.414 Y91.007 E22.54712
