;FLAVOR:RepRap
;TIME:1736
;Filament used: 2.95292m
;Layer height: 0.2
;Generated with Cura_SteamEngine 2.6.2
M190 S50
M104 S200
M109 S200
G21 ;metric values
G90 ;absolute positioning
M82 ;set extruder to absolute mode
M107 ;start with the fan off
G28 X0 Y0 ;move X/Y to min endstops
G28 Z0 ;move Z to min endstops
G1 Z15.0 F9000 ;move the platform down 15mm
G92 E0 ;zero the extruded length
G1 F200 E3 ;extrude 3mm of feed stock
G92 E0 ;zero the extruded length again
G1 F9000
;Put printing message on LCD screen
M117 Printing...
;LAYER_COUNT:16
;LAYER:0
M107
G0 F5400 X35.213 Y88.291 Z0.2
G0 X34.644 Y88.594
;TYPE:SKIRT
G1 F3600 X35.213 Y88.291 E0.02144
G1 X35.815 Y88.06 E0.04289
G1 X36.25 Y87.945 E0.05785
G1 X43.066 Y86.444 E0.28999
G1 X45.635 Y85.753 E0.37847
G1 X50.735 Y84.145 E0.55633
G1 X57.624 Y81.471 E0.80211
G1 X58.239 Y81.276 E0.82357
G1 X59.142 Y81.132 E0.85398
G1 X62.226 Y80.916 E0.95681
G1 X67.569 Y80.304 E1.13568
G1 X72.946 Y79.378 E1.31715
G1 X77.111 Y78.513 E1.45864
G1 X77.258 Y78.484 E1.46362
G1 X81.098 Y77.801 E1.59334
G1 X81.258 Y77.775 E1.59873
G1 X85.164 Y77.205 E1.73002
G1 X85.327 Y77.184 E1.73549
G1 X89.27 Y76.735 E1.86748
G1 X89.434 Y76.719 E1.87296
G1 X93.311 Y76.402 E2.00234
G1 X93.473 Y76.392 E2.00774
G1 X97.397 Y76.194 E2.13842
G1 X97.561 Y76.188 E2.14388
G1 X101.532 Y76.113 E2.27598
G1 X101.695 Y76.112 E2.2814
G1 X105.599 Y76.161 E2.41126
G1 X105.765 Y76.166 E2.41678
G1 X109.721 Y76.342 E2.54849
G1 X109.883 Y76.352 E2.55389
G1 X113.857 Y76.653 E2.68644
G1 X114.022 Y76.668 E2.69195
G1 X117.921 Y77.089 E2.82239
G1 X118.085 Y77.109 E2.82788
G1 X121.989 Y77.656 E2.959
G1 X122.149 Y77.681 E2.96438
G1 X126.066 Y78.355 E3.09658
G1 X126.232 Y78.387 E3.1022
G1 X136.025 Y80.402 E3.43474
G1 X141.262 Y81.176 E3.61082
G1 X141.892 Y81.31 E3.63224
G1 X142.439 Y81.495 E3.65144
G1 X147.462 Y83.513 E3.83149
G1 X149.889 Y84.369 E3.91708
G1 X155.064 Y85.955 E4.09711
G1 X160.347 Y87.254 E4.27806
G1 X164.014 Y88.057 E4.40291
G1 X164.634 Y88.234 E4.42436
G1 X165.228 Y88.486 E4.44582
G1 X165.615 Y88.701 E4.46054
G1 X165.893 Y88.871 E4.47138
G1 X166.421 Y89.24 E4.4928
G1 X166.874 Y89.647 E4.51306
G1 X167.305 Y90.082 E4.53343
G1 X167.729 Y90.567 E4.55485
G1 X168.091 Y91.101 E4.57631
G1 X168.376 Y91.66 E4.59718
G1 X168.709 Y92.422 E4.62484
G1 X168.93 Y93.027 E4.64626
G1 X169.074 Y93.656 E4.66772
G1 X169.144 Y94.504 E4.69602
G1 X169.142 Y124.117 E5.68096
G1 X169.102 Y124.761 E5.70242
G1 X168.983 Y125.394 E5.72384
G1 X168.809 Y125.949 E5.74318
G1 X168.599 Y126.507 E5.76301
G1 X168.335 Y127.095 E5.78445
G1 X168 Y127.646 E5.8059
G1 X167.637 Y128.109 E5.82547
G1 X167.09 Y128.731 E5.85302
G1 X166.635 Y129.188 E5.87447
G1 X165.915 Y129.723 E5.9043
G1 X165.628 Y129.9 E5.91552
G1 X165.059 Y130.204 E5.93697
G1 X164.478 Y130.428 E5.95768
G1 X163.879 Y130.619 E5.97859
G1 X163.254 Y130.777 E6.00004
G1 X162.299 Y130.865 E6.03193
G1 X37.796 Y130.876 E10.17292
G1 X37.153 Y130.836 E10.19435
G1 X36.331 Y130.665 E10.22227
G1 X35.616 Y130.455 E10.24706
G1 X35.01 Y130.236 E10.26849
G1 X34.235 Y129.818 E10.29778
G1 X33.917 Y129.61 E10.31041
G1 X33.4 Y129.224 E10.33187
G1 X32.744 Y128.558 E10.36297
G1 X32.211 Y127.909 E10.3909
G1 X31.834 Y127.387 E10.41232
G1 X31.44 Y126.632 E10.44064
G1 X31.323 Y126.355 E10.45064
G1 X31.071 Y125.604 E10.47699
G1 X31.014 Y125.378 E10.48474
G1 X30.895 Y124.744 E10.5062
G1 X30.856 Y124.113 E10.52722
G1 X30.815 Y94.806 E11.50198
G1 X30.854 Y94.163 E11.5234
G1 X30.992 Y93.453 E11.54746
G1 X31.204 Y92.662 E11.5747
G1 X31.409 Y92.051 E11.59613
G1 X31.689 Y91.47 E11.61758
G1 X32.037 Y90.928 E11.63901
G1 X32.417 Y90.411 E11.66035
G1 X32.83 Y89.917 E11.68176
G1 X33.302 Y89.477 E11.70323
G1 X33.883 Y89.062 E11.72697
G1 X34.644 Y88.594 E11.75669
G1 F2400 E11.25669
G0 F5400 X58.835 Y88.709
G0 X60.1 Y88.709
;TYPE:WALL-INNER
G1 F2400 E11.75669
G1 F3600 X60.1 Y86.909 E11.81656
G1 X67.084 Y86.909 E12.04885
G1 X69.05 Y86.352 E12.11681
G1 X70.952 Y85.846 E12.18227
G1 X72.849 Y85.374 E12.24729
G1 X74.768 Y84.927 E12.31282
G1 X76.682 Y84.513 E12.37795
G1 X78.605 Y84.129 E12.44318
G1 X80.532 Y83.776 E12.50834
G1 X82.464 Y83.454 E12.57348
G1 X84.412 Y83.159 E12.63901
G1 X86.346 Y82.897 E12.70392
G1 X88.297 Y82.667 E12.76926
G1 X90.254 Y82.464 E12.8347
G1 X92.198 Y82.296 E12.8996
G1 X94.164 Y82.157 E12.96515
G1 X96.117 Y82.048 E13.03021
G1 X98.083 Y81.971 E13.09565
G1 X100.043 Y81.925 E13.16086
G1 X102 Y81.909 E13.22595
G1 X103.957 Y81.925 E13.29104
G1 X105.917 Y81.971 E13.35625
G1 X107.883 Y82.049 E13.42169
G1 X109.836 Y82.157 E13.48675
G1 X111.802 Y82.296 E13.5523
G1 X113.746 Y82.465 E13.6172
G1 X115.703 Y82.667 E13.68264
G1 X117.654 Y82.898 E13.74798
G1 X119.588 Y83.159 E13.81289
G1 X121.536 Y83.454 E13.87842
G1 X123.468 Y83.776 E13.94356
G1 X125.395 Y84.129 E14.00872
G1 X127.318 Y84.513 E14.07395
G1 X129.232 Y84.927 E14.13908
G1 X131.151 Y85.374 E14.20461
G1 X133.048 Y85.846 E14.26963
G1 X134.946 Y86.351 E14.33495
G1 X136.916 Y86.909 E14.40305
G1 X139.9 Y86.909 E14.5023
G1 X139.9 Y88.709 E14.56217
G1 X137.083 Y88.709 E14.65587
G1 X135.263 Y88.193 E14.71878
G1 X133.349 Y87.684 E14.78466
G1 X131.428 Y87.206 E14.8505
G1 X129.5 Y86.757 E14.91634
G1 X127.563 Y86.338 E14.98225
G1 X125.622 Y85.951 E15.04808
G1 X123.674 Y85.593 E15.11396
G1 X121.72 Y85.267 E15.17985
G1 X119.763 Y84.972 E15.24567
G1 X117.8 Y84.707 E15.31155
G1 X115.834 Y84.473 E15.37741
G1 X113.864 Y84.271 E15.44327
G1 X111.892 Y84.099 E15.50911
G1 X109.916 Y83.959 E15.575
G1 X107.938 Y83.849 E15.64089
G1 X105.96 Y83.771 E15.70673
G1 X103.98 Y83.725 E15.7726
G1 X102 Y83.709 E15.83846
G1 X100.02 Y83.725 E15.90431
G1 X98.04 Y83.771 E15.97019
G1 X96.062 Y83.849 E16.03603
G1 X94.084 Y83.959 E16.10192
G1 X92.108 Y84.099 E16.1678
G1 X90.136 Y84.271 E16.23364
G1 X88.166 Y84.473 E16.29951
G1 X86.2 Y84.707 E16.36536
G1 X84.237 Y84.972 E16.43124
G1 X82.28 Y85.267 E16.49707
G1 X80.326 Y85.593 E16.56295
G1 X78.378 Y85.951 E16.62883
G1 X76.437 Y86.338 E16.69466
G1 X74.5 Y86.757 E16.76057
G1 X72.572 Y87.206 E16.82641
G1 X70.651 Y87.684 E16.89226
G1 X68.737 Y88.193 E16.95813
G1 X66.917 Y88.709 E17.02105
G1 X60.1 Y88.709 E17.24778
G0 F5400 X59.7 Y89.109
;TYPE:WALL-OUTER
G1 F3600 X59.7 Y86.509 E17.33426
G1 X67.028 Y86.509 E17.57799
G1 X68.947 Y85.965 E17.64433
G1 X70.849 Y85.459 E17.70979
G1 X72.758 Y84.984 E17.77522
G1 X74.677 Y84.537 E17.84076
G1 X76.598 Y84.122 E17.90612
G1 X78.527 Y83.737 E17.97155
G1 X80.466 Y83.381 E18.03712
G1 X82.404 Y83.058 E18.10246
G1 X84.352 Y82.764 E18.16799
G1 X86.299 Y82.5 E18.23334
G1 X88.256 Y82.269 E18.29888
G1 X90.213 Y82.067 E18.36432
G1 X92.17 Y81.897 E18.42965
G1 X94.136 Y81.758 E18.4952
G1 X96.101 Y81.649 E18.56066
G1 X98.067 Y81.571 E18.6261
G1 X100.034 Y81.525 E18.69154
G1 X102 Y81.509 E18.75693
G1 X103.966 Y81.525 E18.82232
G1 X105.933 Y81.571 E18.88777
G1 X107.899 Y81.649 E18.95321
G1 X109.864 Y81.758 E19.01866
G1 X111.83 Y81.897 E19.08422
G1 X113.787 Y82.067 E19.14955
G1 X115.744 Y82.269 E19.21499
G1 X117.701 Y82.501 E19.28053
G1 X119.648 Y82.764 E19.34588
G1 X121.596 Y83.058 E19.4114
G1 X123.534 Y83.381 E19.47675
G1 X125.473 Y83.737 E19.54232
G1 X127.402 Y84.122 E19.60774
G1 X129.323 Y84.537 E19.67311
G1 X131.242 Y84.984 E19.73864
G1 X133.151 Y85.459 E19.80407
G1 X135.049 Y85.964 E19.8694
G1 X136.972 Y86.509 E19.93588
G1 X140.3 Y86.509 E20.04657
G1 X140.3 Y89.109 E20.13304
G1 X137.027 Y89.109 E20.2419
G1 X135.157 Y88.579 E20.30655
G1 X133.249 Y88.071 E20.37222
G1 X131.334 Y87.595 E20.43785
G1 X129.412 Y87.147 E20.50349
G1 X127.482 Y86.73 E20.56916
G1 X125.547 Y86.344 E20.63479
G1 X123.605 Y85.987 E20.70046
G1 X121.657 Y85.662 E20.76615
G1 X119.706 Y85.368 E20.83177
G1 X117.75 Y85.104 E20.89742
G1 X115.79 Y84.871 E20.96307
G1 X113.826 Y84.669 E21.02874
G1 X111.86 Y84.498 E21.09437
G1 X109.891 Y84.358 E21.16003
G1 X107.919 Y84.249 E21.22572
G1 X105.947 Y84.171 E21.29136
G1 X103.974 Y84.125 E21.357
G1 X102 Y84.109 E21.42266
G1 X100.026 Y84.125 E21.48831
G1 X98.053 Y84.171 E21.55395
G1 X96.081 Y84.249 E21.61959
G1 X94.109 Y84.358 E21.68528
G1 X92.14 Y84.498 E21.75094
G1 X90.174 Y84.669 E21.81657
G1 X88.21 Y84.871 E21.88224
G1 X86.25 Y85.104 E21.94789
G1 X84.294 Y85.368 E22.01354
G1 X82.343 Y85.662 E22.07916
G1 X80.395 Y85.987 E22.14485
G1 X78.453 Y86.344 E22.21052
G1 X76.518 Y86.73 E22.27615
G1 X74.588 Y87.147 E22.34182
G1 X72.666 Y87.595 E22.40746
G1 X70.751 Y88.071 E22.47309
G1 X68.843 Y88.579 E22.53876
G1 X66.973 Y89.109 E22.60341
G1 X59.7 Y89.109 E22.84531
G0 F5400 X59.7 Y88.909
G0 X60.279 Y87.998
;TYPE:SKIN
G1 F3600 X60.809 Y88.528 E22.87024
G0 F5400 X61.375 Y88.528
G1 F3600 X60.279 Y87.432 E22.92179
G1 X60.209 Y87.362
G0 F5400 X60.5 Y87.087
G1 F3600 X61.941 Y88.528 E22.98957
G1 X62.011 Y88.598
G0 F5400 X62.506 Y88.528
G1 F3600 X61.066 Y87.087 E23.05733
G1 X60.996 Y87.017
G0 F5400 X61.632 Y87.087
G1 F3600 X63.072 Y88.528 E23.12508
G1 X63.142 Y88.598
G0 F5400 X63.638 Y88.528
G1 F3600 X62.197 Y87.087 E23.19286
G1 X62.127 Y87.017
G0 F5400 X62.763 Y87.087
G1 F3600 X64.203 Y88.528 E23.26062
G1 X64.273 Y88.598
G0 F5400 X64.769 Y88.528
G1 F3600 X63.329 Y87.087 E23.32838
G1 X63.259 Y87.017
G0 F5400 X63.894 Y87.087
G1 F3600 X65.335 Y88.528 E23.39616
G1 X65.405 Y88.598
G0 F5400 X65.9 Y88.528
G1 F3600 X64.46 Y87.087 E23.46391
G1 X64.39 Y87.017
G0 F5400 X65.026 Y87.087
G1 F3600 X66.466 Y88.528 E23.53167
G1 X66.536 Y88.598
G0 F5400 X67.001 Y88.497
G1 F3600 X65.591 Y87.087 E23.59799
G1 X65.521 Y87.017
G0 F5400 X66.157 Y87.087
G1 F3600 X67.441 Y88.372 E23.65841
G1 X67.511 Y88.442
G0 F5400 X67.882 Y88.246
G1 F3600 X66.723 Y87.087 E23.71293
G1 X66.653 Y87.017
G0 F5400 X67.25 Y87.049
G1 F3600 X68.322 Y88.121 E23.76335
G1 X68.392 Y88.191
G0 F5400 X68.764 Y87.998
G1 F3600 X67.69 Y86.923 E23.81389
G1 X67.62 Y86.853
G0 F5400 X68.131 Y86.798
G1 F3600 X69.211 Y87.879 E23.86472
G1 X69.281 Y87.949
G0 F5400 X69.658 Y87.76
G1 F3600 X68.572 Y86.674 E23.9158
G1 X68.502 Y86.604
G0 F5400 X69.012 Y86.549
G1 F3600 X70.105 Y87.641 E23.96719
G1 X70.175 Y87.711
G0 F5400 X70.552 Y87.522
G1 F3600 X69.458 Y86.428 E24.01864
G1 X69.388 Y86.358
G0 F5400 X69.905 Y86.31
G1 F3600 X71.004 Y87.409 E24.07034
G1 X71.074 Y87.479
G0 F5400 X71.457 Y87.296
G1 F3600 X70.352 Y86.191 E24.12231
G1 X70.282 Y86.121
G0 F5400 X70.799 Y86.072
G1 F3600 X71.909 Y87.183 E24.17455
G1 X71.979 Y87.253
G0 F5400 X72.363 Y87.071
G1 F3600 X71.249 Y85.957 E24.22695
G1 X71.179 Y85.887
G0 F5400 X71.702 Y85.844
G1 F3600 X72.819 Y86.962 E24.27951
G1 X72.889 Y87.032
G0 F5400 X73.278 Y86.855
G1 F3600 X72.156 Y85.732 E24.33231
G1 X72.086 Y85.662
G0 F5400 X72.608 Y85.619
G1 F3600 X73.737 Y86.747 E24.38539
G1 X73.807 Y86.817
G0 F5400 X74.196 Y86.641
G1 F3600 X73.063 Y85.509 E24.43866
G1 X72.993 Y85.439
G0 F5400 X73.522 Y85.402
G1 F3600 X74.658 Y86.537 E24.49207
G1 X74.728 Y86.607
G0 F5400 X75.123 Y86.437
G1 F3600 X73.981 Y85.294 E24.54581
G1 X73.911 Y85.224
G0 F5400 X74.439 Y85.187
G1 F3600 X75.588 Y86.336 E24.59986
G1 X75.658 Y86.406
G0 F5400 X76.052 Y86.235
G1 F3600 X74.898 Y85.081 E24.65414
G1 X74.828 Y85.011
G0 F5400 X75.364 Y84.98
G1 F3600 X76.519 Y86.136 E24.70849
G1 X76.589 Y86.206
G0 F5400 X76.991 Y86.042
G1 F3600 X75.829 Y84.88 E24.76314
G1 X75.759 Y84.81
G0 F5400 X76.294 Y84.779
G1 F3600 X77.463 Y85.948 E24.81813
G1 X77.533 Y86.018
G0 F5400 X77.935 Y85.854
G1 F3600 X76.76 Y84.68 E24.87338
G1 X76.69 Y84.61
G0 F5400 X77.232 Y84.586
G1 F3600 X78.407 Y85.761 E24.92864
G1 X78.477 Y85.831
G0 F5400 X78.885 Y85.673
G1 F3600 X77.703 Y84.492 E24.98422
G1 X77.633 Y84.422
G0 F5400 X78.175 Y84.398
G1 F3600 X79.363 Y85.586 E25.0401
G1 X79.433 Y85.656
G0 F5400 X79.84 Y85.497
G1 F3600 X78.647 Y84.304 E25.09621
G1 X78.577 Y84.234
G0 F5400 X79.125 Y84.216
G1 F3600 X80.318 Y85.41 E25.15235
G1 X80.388 Y85.48
G0 F5400 X80.803 Y85.329
G1 F3600 X79.603 Y84.128 E25.20882
G1 X79.533 Y84.058
G0 F5400 X80.081 Y84.041
G1 F3600 X81.288 Y85.248 E25.26559
G1 X81.358 Y85.318
G0 F5400 X81.773 Y85.167
G1 F3600 X80.559 Y83.954 E25.32267
G1 X80.489 Y83.884
G0 F5400 X81.044 Y83.872
G1 F3600 X82.258 Y85.086 E25.37978
G1 X82.328 Y85.156
G0 F5400 X82.749 Y85.012
G1 F3600 X81.529 Y83.792 E25.43716
G1 X81.459 Y83.722
G0 F5400 X82.013 Y83.71
G1 F3600 X83.242 Y84.939 E25.49497
G1 X83.312 Y85.009
G0 F5400 X83.733 Y84.864
G1 F3600 X82.498 Y83.63 E25.55304
G1 X82.428 Y83.56
G0 F5400 X82.99 Y83.555
G1 F3600 X84.225 Y84.791 E25.61115
G1 X84.295 Y84.861
G0 F5400 X84.724 Y84.724
G1 F3600 X83.481 Y83.481 E25.66962
G1 X83.411 Y83.411
G0 F5400 X83.973 Y83.407
G1 F3600 X85.222 Y84.656 E25.72837
G1 X85.292 Y84.726
G0 F5400 X85.721 Y84.589
G1 F3600 X84.464 Y83.333 E25.78747
G1 X84.394 Y83.263
G0 F5400 X84.963 Y83.266
G1 F3600 X86.22 Y84.523 E25.84659
G1 X86.29 Y84.593
G0 F5400 X86.725 Y84.463
G1 F3600 X85.461 Y83.198 E25.90607
G1 X85.391 Y83.128
G0 F5400 X85.959 Y83.131
G1 F3600 X87.231 Y84.403 E25.9659
G1 X87.301 Y84.473
G0 F5400 X87.736 Y84.342
G1 F3600 X86.459 Y83.065 E26.02597
G1 X86.389 Y82.995
G0 F5400 X86.965 Y83.005
G1 F3600 X88.243 Y84.283 E26.08608
G1 X88.313 Y84.353
G0 F5400 X88.756 Y84.231
G1 F3600 X87.471 Y82.945 E26.14655
G1 X87.401 Y82.875
G0 F5400 X87.977 Y82.886
G1 F3600 X89.269 Y84.178 E26.20732
G1 X89.339 Y84.248
G0 F5400 X89.782 Y84.125
G1 F3600 X88.485 Y82.829 E26.2683
G1 X88.415 Y82.759
G0 F5400 X88.998 Y82.776
G1 F3600 X90.298 Y84.075 E26.32943
G1 X90.368 Y84.145
G0 F5400 X90.818 Y84.03
G1 F3600 X89.51 Y82.722 E26.39095
G1 X89.44 Y82.652
G0 F5400 X90.023 Y82.669
G1 F3600 X91.339 Y83.985 E26.45285
G1 X91.409 Y84.055
G0 F5400 X91.858 Y83.939
G1 F3600 X90.54 Y82.62 E26.51487
G1 X90.47 Y82.55
G0 F5400 X91.06 Y82.575
G1 F3600 X92.383 Y83.898 E26.5771
G1 X92.453 Y83.968
G0 F5400 X92.911 Y83.86
G1 F3600 X91.58 Y82.529 E26.63971
G1 X91.51 Y82.459
G0 F5400 X92.101 Y82.484
G1 F3600 X93.439 Y83.823 E26.70267
G1 X93.509 Y83.893
G0 F5400 X93.968 Y83.785
G1 F3600 X92.629 Y82.447 E26.76562
G1 X92.559 Y82.377
G0 F5400 X93.157 Y82.409
G1 F3600 X94.502 Y83.754 E26.82889
G1 X94.572 Y83.824
G0 F5400 X95.038 Y83.724
G1 F3600 X93.685 Y82.372 E26.89251
G1 X93.615 Y82.302
G0 F5400 X94.214 Y82.335
G1 F3600 X95.574 Y83.695 E26.95648
G1 X95.644 Y83.765
G0 F5400 X96.111 Y83.666
G1 F3600 X94.75 Y82.305 E27.02049
G1 X94.68 Y82.235
G0 F5400 X95.286 Y82.275
G1 F3600 X96.655 Y83.645 E27.08491
G1 X96.725 Y83.715
G0 F5400 X97.199 Y83.623
G1 F3600 X95.822 Y82.245 E27.1497
G1 X95.752 Y82.175
G0 F5400 X96.36 Y82.218
G1 F3600 X97.744 Y83.601 E27.21478
G1 X97.814 Y83.671
G0 F5400 X98.292 Y83.584
G1 F3600 X96.905 Y82.197 E27.28002
G1 X96.835 Y82.127
G0 F5400 X97.449 Y82.176
G1 F3600 X98.845 Y83.571 E27.34566
G1 X98.915 Y83.641
G0 F5400 X99.398 Y83.558
G1 F3600 X97.994 Y82.155 E27.41168
G1 X97.924 Y82.085
G0 F5400 X98.545 Y82.14
G1 F3600 X99.95 Y83.546 E27.47779
G1 X100.02 Y83.616
G0 F5400 X100.51 Y83.54
G1 F3600 X99.098 Y82.127 E27.54423
G1 X99.028 Y82.057
G0 F5400 X99.651 Y82.114
G1 F3600 X101.072 Y83.536 E27.61109
G1 X101.142 Y83.606
G0 F5400 X101.633 Y83.531
G1 F3600 X100.206 Y82.104 E27.67821
G1 X100.136 Y82.034
G0 F5400 X100.766 Y82.099
G1 F3600 X102.198 Y83.53 E27.74555
G1 X102.268 Y83.6
G0 F5400 X102.768 Y83.534
G1 F3600 X101.327 Y82.094 E27.8133
G1 X101.257 Y82.024
G0 F5400 X101.889 Y82.09
G1 F3600 X103.338 Y83.539 E27.88146
G1 X103.408 Y83.609
G0 F5400 X103.909 Y83.544
G1 F3600 X102.457 Y82.092 E27.94976
G1 X102.387 Y82.022
G0 F5400 X103.028 Y82.097
G1 F3600 X104.487 Y83.556 E28.01838
G1 X104.557 Y83.626
G0 F5400 X105.066 Y83.57
G1 F3600 X103.598 Y82.102 E28.08743
G1 X103.528 Y82.032
G0 F5400 X104.172 Y82.11
G1 F3600 X105.644 Y83.582 E28.15667
G1 X105.714 Y83.652
G0 F5400 X106.227 Y83.6
