;FLAVOR:RepRap
;TIME:5131
;Filament used: 4.7902m
;Layer height: 0.14
;Generated with Cura_SteamEngine 2.6.2
M190 S50
M104 S220
M109 S220
G21 ;metric values
G90 ;absolute positioning
M82 ;set extruder to absolute mode
M107 ;start with the fan off
G28 X0 Y0 ;move X/Y to min endstops
G28 Z0 ;move Z to min endstops
G1 Z15.0 F9000 ;move the platform down 15mm
G92 E0 ;zero the extruded length
G1 F200 E3 ;extrude 3mm of feed stock
G92 E0 ;zero the extruded length again
G1 F9000
;Put printing message on LCD screen
M117 Printing...
;LAYER_COUNT:250
;LAYER:0
M107
G0 F3600 X77.8 Y70.816 Z0.2
;TYPE:SKIRT
G1 F1500 X78.27 Y70.34 E0.02225
G1 X78.794 Y69.924 E0.0445
G1 X79.363 Y69.573 E0.06674
G1 X79.971 Y69.292 E0.08902
G1 X80.607 Y69.086 E0.11125
G1 X81.264 Y68.958 E0.13351
G1 X82.01 Y68.908 E0.15838
G1 X117.991 Y68.909 E1.35511
G1 X118.659 Y68.949 E1.37737
G1 X119.317 Y69.068 E1.39961
G1 X119.957 Y69.265 E1.42188
G1 X120.568 Y69.537 E1.44413
G1 X121.143 Y69.88 E1.4664
G1 X121.672 Y70.289 E1.48864
G1 X122.149 Y70.758 E1.51089
G1 X122.567 Y71.281 E1.53315
G1 X122.919 Y71.849 E1.55538
G1 X123.201 Y72.456 E1.57764
G1 X123.409 Y73.092 E1.5999
G1 X123.539 Y73.748 E1.62214
G1 X123.591 Y74.512 E1.64761
G1 X123.59 Y76.498 E1.71366
G1 X123.55 Y77.166 E1.73592
G1 X123.493 Y77.534 E1.74831
G1 X122.34 Y83.639 E1.95495
G1 X121.544 Y90.087 E2.17104
G1 X121.422 Y90.745 E2.1933
G1 X121.273 Y91.247 E2.21071
G1 X120.54 Y93.346 E2.28466
G1 X118.97 Y98.484 E2.46335
G1 X117.684 Y103.733 E2.6431
G1 X117.182 Y106.249 E2.72843
G1 X116.351 Y111.568 E2.90749
G1 X115.819 Y116.939 E3.087
G1 X115.693 Y119.048 E3.15727
G1 X115.554 Y119.995 E3.18911
G1 X114.566 Y124.199 E3.33274
G1 X114.518 Y124.391 E3.33932
G1 X113.878 Y126.739 E3.42027
G1 X113.664 Y127.372 E3.44249
G1 X113.375 Y127.976 E3.46476
G1 X113.017 Y128.541 E3.48701
G1 X112.594 Y129.06 E3.50928
G1 X112.112 Y129.524 E3.53153
G1 X111.792 Y129.778 E3.54512
G1 X111.607 Y129.914 E3.55276
G1 X111.045 Y130.277 E3.57501
G1 X110.444 Y130.571 E3.59726
G1 X109.812 Y130.791 E3.61952
G1 X109.159 Y130.934 E3.64175
G1 X108.337 Y131.002 E3.66919
G1 X106.796 Y131.015 E3.72044
G1 X106.556 Y131.012 E3.72843
G1 X101.451 Y130.836 E3.89832
G1 X95.925 Y130.907 E4.08213
G1 X95.925 Y130.906 E4.08216
G1 X91.848 Y131.004 E4.2178
G1 X91.179 Y130.98 E4.24007
G1 X90.518 Y130.877 E4.26232
G1 X89.874 Y130.695 E4.28458
G1 X89.257 Y130.438 E4.30681
G1 X88.674 Y130.109 E4.32907
G1 X88.239 Y129.797 E4.34688
G1 X88.028 Y129.63 E4.35583
G1 X87.529 Y129.184 E4.37809
G1 X87.087 Y128.682 E4.40033
G1 X86.707 Y128.131 E4.4226
G1 X86.397 Y127.538 E4.44485
G1 X86.159 Y126.913 E4.4671
G1 X86.064 Y126.571 E4.4789
G1 X84.462 Y120.03 E4.70289
G1 X84.321 Y119.169 E4.7319
G1 X83.748 Y112.381 E4.95848
G1 X82.97 Y107.11 E5.13569
G1 X81.891 Y101.864 E5.31383
G1 X81.253 Y99.32 E5.40106
G1 X79.722 Y94.148 E5.58046
G1 X78.713 Y91.214 E5.68365
G1 X78.534 Y90.57 E5.70589
G1 X78.438 Y89.964 E5.72629
G1 X78.192 Y87.564 E5.80654
G1 X77.423 Y82.21 E5.98644
G1 X76.505 Y77.422 E6.14859
G1 X76.419 Y76.759 E6.17082
G1 X76.405 Y76.353 E6.18434
G1 X76.41 Y74.493 E6.2462
G1 X76.452 Y73.825 E6.26846
G1 X76.573 Y73.167 E6.29071
G1 X76.772 Y72.528 E6.31297
G1 X77.045 Y71.918 E6.3352
G1 X77.389 Y71.344 E6.35746
G1 X77.8 Y70.816 E6.37971
G0 F3600 X78.195 Y70.975
G1 F1500 X78.661 Y70.53 E6.40114
G1 X79.179 Y70.146 E6.42259
G1 X79.741 Y69.829 E6.44405
G1 X80.337 Y69.584 E6.46548
G1 X80.959 Y69.415 E6.48692
G1 X81.597 Y69.324 E6.50836
G1 X82.01 Y69.308 E6.5221
G1 X117.991 Y69.309 E7.71884
G1 X118.635 Y69.349 E7.7403
G1 X119.268 Y69.468 E7.76172
G1 X119.882 Y69.665 E7.78317
G1 X120.467 Y69.936 E7.80461
G1 X121.014 Y70.278 E7.82607
G1 X121.514 Y70.684 E7.84749
G1 X121.96 Y71.15 E7.86894
G1 X122.345 Y71.667 E7.89038
G1 X122.664 Y72.227 E7.91182
G1 X122.91 Y72.823 E7.93326
G1 X123.081 Y73.445 E7.95472
G1 X123.173 Y74.082 E7.97613
G1 X123.191 Y74.512 E7.99044
G1 X123.19 Y76.498 E8.05649
G1 X123.15 Y77.141 E8.07792
G1 X123.1 Y77.46 E8.08866
G1 X121.944 Y83.579 E8.29578
G1 X121.147 Y90.038 E8.51224
G1 X121.028 Y90.672 E8.53369
G1 X120.895 Y91.115 E8.54908
G1 X120.167 Y93.201 E8.62256
G1 X118.584 Y98.381 E8.80271
G1 X117.294 Y103.646 E8.98301
G1 X116.788 Y106.182 E9.06902
G1 X115.953 Y111.52 E9.24872
G1 X115.421 Y116.9 E9.42853
G1 X115.294 Y119.024 E9.4993
G1 X115.165 Y119.904 E9.52888
G1 X114.177 Y124.108 E9.67252
G1 X114.132 Y124.285 E9.67859
G1 X113.492 Y126.633 E9.75954
G1 X113.284 Y127.244 E9.781
G1 X113.003 Y127.824 E9.80244
G1 X112.651 Y128.364 E9.82388
G1 X112.236 Y128.857 E9.84531
G1 X111.555 Y129.456 E9.87548
G1 X111.37 Y129.592 E9.88312
G1 X110.828 Y129.941 E9.90456
G1 X110.247 Y130.22 E9.92599
G1 X109.636 Y130.425 E9.94743
G1 X109.004 Y130.553 E9.96888
G1 X108.334 Y130.602 E9.99122
G1 X106.793 Y130.615 E10.04247
G1 X106.569 Y130.612 E10.04993
G1 X101.459 Y130.436 E10.21999
G1 X95.953 Y130.507 E10.40313
G1 X91.838 Y130.605 E10.54004
G1 X91.194 Y130.58 E10.56147
G1 X90.558 Y130.476 E10.58291
G1 X89.939 Y130.294 E10.60437
G1 X89.348 Y130.037 E10.6258
G1 X88.794 Y129.708 E10.64723
G1 X88.487 Y129.483 E10.65989
G1 X88.276 Y129.316 E10.66884
G1 X87.796 Y128.886 E10.69027
G1 X87.373 Y128.399 E10.71173
G1 X87.014 Y127.864 E10.73316
G1 X86.724 Y127.288 E10.75461
G1 X86.452 Y126.476 E10.78309
G1 X84.85 Y119.935 E11.00707
G1 X84.719 Y119.135 E11.03404
G1 X84.144 Y112.32 E11.26151
G1 X83.365 Y107.042 E11.43896
G1 X82.281 Y101.777 E11.61775
G1 X81.644 Y99.235 E11.70491
G1 X80.099 Y94.018 E11.88587
G1 X79.091 Y91.084 E11.98906
G1 X78.92 Y90.463 E12.01048
G1 X78.836 Y89.923 E12.02866
G1 X78.59 Y87.516 E12.10913
G1 X77.817 Y82.143 E12.28968
G1 X76.898 Y77.347 E12.4521
G1 X76.816 Y76.708 E12.47352
G1 X76.805 Y76.354 E12.4853
G1 X76.81 Y74.494 E12.54717
G1 X76.852 Y73.851 E12.5686
G1 X76.973 Y73.217 E12.59007
G1 X77.171 Y72.604 E12.61149
G1 X77.444 Y72.02 E12.63293
G1 X77.787 Y71.474 E12.65438
G1 X78.195 Y70.975 E12.67582
G1 F2400 E12.17582
G0 F3600 X83.339 Y89.556
G0 X83.843 Y90.06
G0 X95.818 Y90.299
;TYPE:SUPPORT
G1 F2400 E12.67582
G1 F1500 X96.448 Y90.299 E12.69677
G1 X96.847 Y89.9 E12.71554
G1 X96.847 Y89.599 E12.72555
G1 X97.554 Y89.599 E12.74907
G1 X97.548 Y103.952 E13.22645
G1 X97.555 Y108.478 E13.37698
G1 X97.718 Y108.677 E13.38554
G1 X97.484 Y108.699 E13.39336
G1 X97.399 Y108.676 E13.39629
G1 X96.054 Y108.779 E13.44115
G1 X95.82 Y108.427 E13.45521
G1 X95.818 Y90.299 E14.05815
G0 F3600 X95.978 Y90.644
G1 F1500 X97.393 Y90.644 E14.10521
G1 F2400 E13.60521
G0 F3600 X97.309 Y90.064
G0 X97.309 Y89.759
G1 F2400 E14.10521
G1 F1500 X97.309 Y108.523 E14.72931
G0 F3600 X97.395 Y107.973
G1 F1500 X95.979 Y107.973 E14.7764
G0 F3600 X95.979 Y106.64
G1 F1500 X97.393 Y106.64 E14.82343
G0 F3600 X97.391 Y105.307
G1 F1500 X95.979 Y105.307 E14.8704
G0 F3600 X95.979 Y103.974
G1 F1500 X97.389 Y103.974 E14.91729
G0 F3600 X97.388 Y102.641
G1 F1500 X95.979 Y102.641 E14.96416
G0 F3600 X95.979 Y101.308
G1 F1500 X97.389 Y101.308 E15.01105
G0 F3600 X97.389 Y99.975
G1 F1500 X95.979 Y99.975 E15.05795
G0 F3600 X95.978 Y98.642
G1 F1500 X97.39 Y98.642 E15.10491
G0 F3600 X97.39 Y97.309
G1 F1500 X95.978 Y97.309 E15.15188
G0 F3600 X95.978 Y95.976
G1 F1500 X97.391 Y95.976 E15.19887
G0 F3600 X97.391 Y94.643
G1 F1500 X95.978 Y94.643 E15.24587
G0 F3600 X95.978 Y93.31
G1 F1500 X97.392 Y93.31 E15.2929
G0 F3600 X97.393 Y91.977
G1 F1500 X95.978 Y91.977 E15.33996
G1 F2400 E14.83996
G0 F3600 X97.786 Y108.65
G0 X98.208 Y109.132
G0 X99.655 Y109.288
G0 X101.032 Y109.243
G0 X101.792 Y109.134
G0 X102.214 Y108.648
G0 X103.152 Y90.064
G0 X103.152 Y89.9
G1 F2400 E15.33996
G1 F1500 X103.551 Y90.299 E15.35873
G1 X104.181 Y90.299 E15.37968
G1 X104.178 Y108.42 E15.98239
G1 X103.28 Y108.73 E16.01399
G1 X102.627 Y108.666 E16.03581
G1 X102.516 Y108.697 E16.03964
G1 X102.284 Y108.675 E16.0474
G1 X102.444 Y108.478 E16.05584
G1 X102.436 Y89.599 E16.68375
G1 X103.152 Y89.599 E16.70757
G1 X103.152 Y89.9 E16.71758
G0 F3600 X102.641 Y89.759
G1 F1500 X102.641 Y108.506 E17.34111
G0 F3600 X102.603 Y107.973
G1 F1500 X104.018 Y107.973 E17.38817
G0 F3600 X103.974 Y108.323
G1 F1500 X103.974 Y90.459 E17.98233
G0 F3600 X104.02 Y90.644
G1 F1500 X102.596 Y90.644 E18.02969
G0 F3600 X102.596 Y91.977
G1 F1500 X104.02 Y91.977 E18.07706
G0 F3600 X104.02 Y93.31
G1 F1500 X102.597 Y93.31 E18.12438
G0 F3600 X102.598 Y94.643
G1 F1500 X104.02 Y94.643 E18.17168
G0 F3600 X104.02 Y95.976
G1 F1500 X102.598 Y95.976 E18.21898
G0 F3600 X102.599 Y97.309
G1 F1500 X104.019 Y97.309 E18.26621
G0 F3600 X104.019 Y98.642
G1 F1500 X102.599 Y98.642 E18.31343
G0 F3600 X102.6 Y99.975
G1 F1500 X104.019 Y99.975 E18.36063
G0 F3600 X104.019 Y101.308
G1 F1500 X102.6 Y101.308 E18.40783
G0 F3600 X102.601 Y102.641
G1 F1500 X104.018 Y102.641 E18.45496
G0 F3600 X104.018 Y103.974
G1 F1500 X102.602 Y103.974 E18.50205
G0 F3600 X102.602 Y105.307
G1 F1500 X104.018 Y105.307 E18.54915
G0 F3600 X104.018 Y106.64
G1 F1500 X102.603 Y106.64 E18.59621
G0 F3600 X105.911 Y112.544
G1 F1500 X105.909 Y112.539 E18.59639
G1 X108.41 Y112.541 E18.67958
G1 X108.655 Y112.44 E18.68839
G1 X108.654 Y117.277 E18.84927
G1 X108.836 Y117.718 E18.86514
G1 X109.883 Y118.764 E18.91436
G1 X109.79 Y119.022 E18.92348
G1 X109.721 Y119.339 E18.93427
G1 X109.706 Y119.372 E18.93548
G1 X109.614 Y119.81 E18.95036
G1 X109.596 Y119.872 E18.95251
G1 X109.505 Y120.327 E18.96794
G1 X109.486 Y120.376 E18.96969
G1 X109.38 Y120.839 E18.98549
G1 X109.306 Y121.186 E18.99729
G1 X109.295 Y121.21 E18.99817
G1 X109.203 Y121.652 E19.01319
G1 X109.173 Y121.731 E19.016
G1 X108.984 Y122.611 E19.04593
G1 X108.964 Y122.666 E19.04788
G1 X108.891 Y123.003 E19.05935
G1 X108.79 Y123.442 E19.07433
G1 X108.751 Y123.547 E19.07806
G1 X108.677 Y123.926 E19.0909
G1 X108.65 Y124.004 E19.09364
G1 X108.564 Y124.412 E19.10751
G1 X108.33 Y125.135 E19.13279
G1 X108.221 Y125.216 E19.1373
G1 X106.164 Y125.215 E19.20572
G1 X105.997 Y125.048 E19.21358
G1 X105.997 Y113.056 E19.61243
G1 X105.911 Y112.544 E19.6297
G0 F3600 X106.64 Y112.7
G1 F1500 X106.64 Y125.055 E20.04063
G0 F3600 X106.156 Y123.969
G1 F1500 X108.492 Y123.969 E20.11832
G0 F3600 X107.973 Y125.055
G1 F1500 X107.973 Y112.701 E20.52922
G0 F3600 X108.494 Y113.305
G1 F1500 X106.157 Y113.305 E20.60695
G0 F3600 X106.157 Y114.638
G1 F1500 X108.494 Y114.638 E20.68468
G0 F3600 X108.494 Y115.971
G1 F1500 X106.157 Y115.971 E20.76241
G0 F3600 X106.157 Y117.304
G1 F1500 X108.494 Y117.304 E20.84014
G0 F3600 X109.306 Y118.415
G1 F1500 X109.306 Y120.445 E20.90765
G0 F3600 X109.411 Y119.97
G1 F1500 X106.156 Y119.97 E21.01591
G0 F3600 X106.156 Y121.303
G1 F1500 X109.11 Y121.303 E21.11417
G0 F3600 X108.806 Y122.636
G1 F1500 X106.156 Y122.636 E21.2023
G0 F3600 X106.157 Y118.637
G1 F1500 X109.529 Y118.637 E21.31446
G0 F3600 X93.998 Y112.952
G1 F1500 X93.998 Y125.048 E21.71677
G1 X93.831 Y125.215 E21.72463
G1 X91.777 Y125.216 E21.79294
G1 X91.671 Y125.137 E21.79734
G1 X91.418 Y124.363 E21.82442
G1 X91.3 Y123.838 E21.84232
G1 X91.292 Y123.816 E21.8431
G1 X91.215 Y123.475 E21.85473
G1 X91.211 Y123.463 E21.85515
G1 X91.137 Y123.085 E21.86796
G1 X91.099 Y122.981 E21.87164
G1 X91.024 Y122.633 E21.88348
G1 X91.007 Y122.584 E21.88521
G1 X90.915 Y122.151 E21.89993
G1 X90.898 Y122.115 E21.90125
G1 X90.83 Y121.757 E21.91337
G1 X90.799 Y121.67 E21.91645
G1 X90.718 Y121.28 E21.92969
G1 X90.707 Y121.247 E21.93085
G1 X90.634 Y120.887 E21.94307
G1 X90.6 Y120.783 E21.94671
G1 X90.417 Y119.937 E21.9755
G1 X90.387 Y119.846 E21.97868
G1 X90.3 Y119.415 E21.99331
G1 X90.281 Y119.368 E21.99499
G1 X90.208 Y119.008 E22.00721
G1 X90.121 Y118.755 E22.01611
G1 X91.343 Y117.523 E22.07383
G1 X91.343 Y112.426 E22.24335
G1 X91.606 Y112.535 E22.25282
G1 X94.089 Y112.534 E22.33541
G1 X93.998 Y112.952 E22.34963
G0 F3600 X93.838 Y113.305
G1 F1500 X91.503 Y113.305 E22.4273
G0 F3600 X91.977 Y112.694
G1 F1500 X91.977 Y125.056 E22.83846
G0 F3600 X91.491 Y123.969
G1 F1500 X93.837 Y123.969 E22.91649
G0 F3600 X93.31 Y125.056
G1 F1500 X93.31 Y112.694 E23.32765
G0 F3600 X93.838 Y114.638
G1 F1500 X91.503 Y114.638 E23.40531
G0 F3600 X91.503 Y115.971
G1 F1500 X93.838 Y115.971 E23.48297
G0 F3600 X93.838 Y117.304
G1 F1500 X91.503 Y117.304 E23.56064
G0 F3600 X90.644 Y118.454
G1 F1500 X90.644 Y120.231 E23.61974
G0 F3600 X90.586 Y119.97
G1 F1500 X93.837 Y119.97 E23.72787
G0 F3600 X93.837 Y121.303
G1 F1500 X90.885 Y121.303 E23.82605
G0 F3600 X91.187 Y122.636
G1 F1500 X93.837 Y122.636 E23.91419
G0 F3600 X93.838 Y118.637
G1 F1500 X90.463 Y118.637 E24.02644
G1 F2400 E23.52644
G0 F3600 X99.655 Y109.288
G0 X99.844 Y107.224
;TYPE:WALL-INNER
G1 F2400 E24.02644
G1 F1500 X99.837 Y104.556 E24.11518
G1 X99.836 Y104.218 E24.12642
G1 X99.84 Y88.199 E24.65922
G1 X99.84 Y87.999 E24.66587
G1 X99.64 Y87.999 E24.67018
G1 X85.4 Y87.999 E25.1438
G1 X85.4 Y77.918 E25.4791
G1 X83.722 Y76.243 E25.55795
G1 X83.4 Y75.921 E25.5731
G1 X83.4 Y75.899 E25.57383
G1 X83.856 Y75.899 E25.58238
G1 X116.145 Y75.899 E26.65632
G1 X116.6 Y75.899 E26.67145
G1 X116.6 Y75.923 E26.67225
G1 X116.278 Y76.244 E26.6808
G1 X114.597 Y77.918 E26.7597
G1 X114.597 Y87.999 E27.095
G1 X100.334 Y87.999 E27.56939
G1 X100.134 Y87.999 E27.57604
G1 X100.134 Y88.199 E27.58035
G1 X100.158 Y104.217 E28.11311
G1 X100.159 Y104.555 E28.12216
G1 X100.155 Y107.224 E28.19241
G1 X99.844 Y107.224 E28.20275
G0 F3600 X99.712 Y107.624
G1 F1500 X99.445 Y107.605 E28.21166
G1 X99.436 Y104.218 E28.32431
G1 X99.44 Y88.599 E28.8438
G1 X99.44 Y88.399 E28.85045
G1 X99.24 Y88.399 E28.85476
G1 X85 Y88.399 E29.32838
G1 X85 Y78.084 E29.67146
G1 X83 Y76.087 E29.76546
G1 X83 Y75.499 E29.78502
G1 X117 Y75.499 E30.91586
G1 X117 Y76.088 E30.93545
G1 X114.997 Y78.084 E31.02951
G1 X114.997 Y88.399 E31.37258
G1 X100.735 Y88.399 E31.84694
G1 X100.535 Y88.399 E31.85359
G1 X100.535 Y88.599 E31.8579
G1 X100.559 Y104.556 E32.38863
G1 X100.554 Y107.605 E32.49004
G1 X100.284 Y107.624 E32.49904
G1 X99.712 Y107.624 E32.51807
G0 F3600 X99.698 Y108.024
G1 F1500 X99.046 Y107.978 E32.53981
G1 X99.036 Y104.218 E32.66487
G1 X99.04 Y88.999 E33.17105
G1 X99.04 Y88.799 E33.1777
G1 X98.84 Y88.799 E33.18201
G1 X84.6 Y88.799 E33.65564
G1 X84.6 Y78.25 E34.0065
G1 X82.6 Y76.253 E34.1005
G1 X82.6 Y75.099 E34.13888
G1 X117.4 Y75.099 E35.29634
G1 X117.4 Y76.253 E35.33472
G1 X115.397 Y78.25 E35.42879
G1 X115.397 Y88.799 E35.77965
G1 X101.136 Y88.799 E36.25398
G1 X100.936 Y88.799 E36.26063
G1 X100.936 Y88.999 E36.26494
G1 X100.959 Y104.557 E36.7824
G1 X100.953 Y107.977 E36.89615
G1 X100.299 Y108.024 E36.91795
G1 X99.698 Y108.024 E36.93794
G0 F3600 X99.687 Y108.424
;TYPE:WALL-OUTER
G1 F1500 X99.037 Y108.381 E36.95961
G1 X98.647 Y108.325 E36.97272
G1 X98.636 Y104.218 E37.10931
G1 X98.64 Y89.399 E37.6022
G1 X98.64 Y89.199 E37.60885
G1 X98.44 Y89.199 E37.61316
G1 X84.2 Y89.199 E38.08678
G1 X84.2 Y78.416 E38.44542
G1 X82.2 Y76.419 E38.53943
G1 X82.2 Y74.699 E38.59664
G1 X117.8 Y74.699 E39.7807
G1 X117.8 Y76.418 E39.83787
G1 X115.797 Y78.416 E39.93197
G1 X115.797 Y89.199 E40.29061
G1 X101.537 Y89.199 E40.7649
G1 X101.337 Y89.199 E40.77155
G1 X101.337 Y89.399 E40.77586
G1 X101.359 Y104.558 E41.28005
G1 X101.352 Y108.325 E41.40534
G1 X100.962 Y108.38 E41.41844
G1 X100.311 Y108.424 E41.44014
G1 X99.687 Y108.424 E41.4609
G0 F3600 X99.488 Y108.411
G1 F2400 E40.9609
G0 F3600 X99.432 Y109.274
G0 X98.208 Y109.132
G0 X97.786 Y108.65
G0 X97.787 Y90.052
G0 X99.697 Y87.818
;TYPE:SKIN
G1 F2400 E41.4609
G1 F1500 X87.958 Y76.079 E42.01306
G1 X87.888 Y76.009
G0 F3600 X88.524 Y76.079
G1 F1500 X100.263 Y87.818 E42.56523
G1 X100.333 Y87.888
G0 F3600 X100.829 Y87.818
G1 F1500 X89.089 Y76.079 E43.11742
G1 X89.019 Y76.009
G0 F3600 X89.655 Y76.079
G1 F1500 X101.394 Y87.818 E43.66959
G1 X101.464 Y87.888
G0 F3600 X101.96 Y87.818
G1 F1500 X90.221 Y76.079 E44.22175
G1 X90.151 Y76.009
G0 F3600 X90.786 Y76.079
G1 F1500 X102.526 Y87.818 E44.77394
G1 X102.596 Y87.888
G0 F3600 X103.091 Y87.818
G1 F1500 X91.352 Y76.079 E45.32611
G1 X91.282 Y76.009
G0 F3600 X91.918 Y76.079
G1 F1500 X103.657 Y87.818 E45.87828
G1 X103.727 Y87.888
G0 F3600 X104.223 Y87.818
G1 F1500 X92.483 Y76.079 E46.43047
G1 X92.413 Y76.009
G0 F3600 X93.049 Y76.079
G1 F1500 X104.788 Y87.818 E46.98263
G1 X104.858 Y87.888
G0 F3600 X105.354 Y87.818
