;FLAVOR:RepRap
;TIME:7053
;Filament used: 10.2681m
;Layer height: 0.2
;Generated with Cura_SteamEngine 2.6.2
M190 S50
M104 S210
M109 S210
G21 ;metric values
G90 ;absolute positioning
M82 ;set extruder to absolute mode
M107 ;start with the fan off
G28 X0 Y0 ;move X/Y to min endstops
G28 Z0 ;move Z to min endstops
G1 Z15.0 F9000 ;move the platform down 15mm
G92 E0 ;zero the extruded length
G1 F200 E3 ;extrude 3mm of feed stock
G92 E0 ;zero the extruded length again
G1 F9000
;Put printing message on LCD screen
M117 Printing...
;LAYER_COUNT:64
;LAYER:0
M107
G0 F3600 X62.317 Y63.03 Z0.2
;TYPE:SKIRT
G1 F1950 X62.622 Y62.728 E0.01428
G1 X65.307 Y60.28 E0.13512
G1 X65.608 Y60.026 E0.14822
G1 X67.357 Y58.659 E0.22206
G1 X67.608 Y58.474 E0.23243
G1 X69.825 Y56.946 E0.32198
G1 X70.121 Y56.757 E0.33366
G1 X72.864 Y55.128 E0.43977
G1 X73.174 Y54.958 E0.45153
G1 X76.038 Y53.511 E0.55825
G1 X76.421 Y53.336 E0.57226
G1 X80.488 Y51.679 E0.71833
G1 X80.807 Y51.561 E0.72964
G1 X83.279 Y50.738 E0.81629
G1 X83.507 Y50.668 E0.82423
G1 X86.163 Y49.917 E0.91603
G1 X86.497 Y49.835 E0.92747
G1 X91.576 Y48.756 E1.10017
G1 X91.885 Y48.7 E1.11061
G1 X94.789 Y48.264 E1.20828
G1 X95.007 Y48.236 E1.21559
G1 X98.234 Y47.89 E1.32354
G1 X98.439 Y47.872 E1.33038
G1 X100.982 Y47.701 E1.41515
G1 X101.176 Y47.691 E1.42161
G1 X104.621 Y47.588 E1.53625
G1 X104.82 Y47.586 E1.54287
G1 X107.991 Y47.613 E1.64834
G1 X108.179 Y47.618 E1.65459
G1 X111.332 Y47.759 E1.75957
G1 X111.514 Y47.771 E1.76563
G1 X114.669 Y48.023 E1.8709
G1 X114.847 Y48.04 E1.87685
G1 X117.965 Y48.397 E1.98123
G1 X118.139 Y48.42 E1.98707
G1 X121.309 Y48.892 E2.09367
G1 X121.524 Y48.928 E2.10092
G1 X125.924 Y49.773 E2.24994
G1 X126.178 Y49.829 E2.25859
G1 X130.842 Y50.969 E2.41828
G1 X131.122 Y51.046 E2.42794
G1 X134.849 Y52.181 E2.55752
G1 X135.141 Y52.279 E2.56776
G1 X139.66 Y53.954 E2.72806
G1 X139.959 Y54.075 E2.73879
G1 X142.339 Y55.129 E2.82536
G1 X142.685 Y55.299 E2.83818
G1 X146.445 Y57.31 E2.98
G1 X146.848 Y57.549 E2.99559
G1 X148.122 Y58.386 E3.04629
G1 X148.511 Y58.668 E3.06227
G1 X150.449 Y60.215 E3.14474
G1 X151.018 Y60.743 E3.17056
G1 X151.631 Y61.404 E3.20055
G1 X152.039 Y61.903 E3.22198
G1 X152.228 Y62.185 E3.23328
G1 X152.584 Y62.755 E3.25563
G1 X152.972 Y63.505 E3.28371
G1 X153.232 Y64.127 E3.30614
G1 X153.499 Y64.955 E3.33507
G1 X153.647 Y65.592 E3.35682
G1 X153.771 Y66.43 E3.385
G1 X153.815 Y67.104 E3.40746
G1 X153.817 Y67.749 E3.42892
G1 X153.781 Y68.127 E3.44155
G1 X153.661 Y69.032 E3.47191
G1 X153.537 Y69.664 E3.49333
G1 X153.356 Y70.225 E3.51294
G1 X152.959 Y71.251 E3.54953
G1 X152.689 Y71.836 E3.57096
G1 X152.386 Y72.332 E3.59029
G1 X151.953 Y72.958 E3.6156
G1 X151.432 Y73.597 E3.64303
G1 X151.025 Y74.022 E3.6626
G1 X150.551 Y74.459 E3.68404
G1 X150.069 Y74.807 E3.70381
G1 X148.972 Y75.508 E3.74711
G1 X148.408 Y75.821 E3.76857
G1 X147.54 Y76.143 E3.79936
G1 X141.787 Y77.712 E3.99769
G1 X136.644 Y79.38 E4.17752
G1 X134.192 Y80.292 E4.26454
G1 X129.221 Y82.386 E4.44394
G1 X124.405 Y84.742 E4.62226
G1 X119.735 Y87.365 E4.80041
G1 X115.184 Y90.269 E4.97997
G1 X113.048 Y91.764 E5.06668
G1 X108.754 Y95.05 E5.24652
G1 X104.671 Y98.557 E5.42554
G1 X97.408 Y105.362 E5.75658
G1 X93.652 Y109.193 E5.93502
G1 X90.077 Y113.276 E6.11552
G1 X88.46 Y115.29 E6.20142
G1 X85.258 Y119.643 E6.38116
G1 X82.332 Y124.132 E6.55938
G1 X79.659 Y128.787 E6.73791
G1 X77.255 Y133.586 E6.91644
G1 X75.116 Y138.535 E7.09576
G1 X74.169 Y141.005 E7.18374
G1 X72.23 Y146.656 E7.38245
G1 X71.983 Y147.252 E7.40391
G1 X71.746 Y147.684 E7.4203
G1 X71.364 Y148.308 E7.44463
G1 X70.839 Y149.021 E7.47408
G1 X70.433 Y149.484 E7.49456
G1 X69.854 Y150.049 E7.52147
G1 X69.317 Y150.497 E7.54473
G1 X68.582 Y151.01 E7.57454
G1 X68.004 Y151.343 E7.59673
G1 X67.241 Y151.703 E7.62479
G1 X66.617 Y151.938 E7.64697
G1 X66 Y152.128 E7.66844
G1 X65.594 Y152.209 E7.68221
G1 X64.662 Y152.356 E7.71359
G1 X64.02 Y152.416 E7.73504
G1 X63.466 Y152.405 E7.75347
G1 X62.417 Y152.327 E7.78845
G1 X61.779 Y152.239 E7.80987
G1 X61.309 Y152.122 E7.82598
G1 X60.659 Y151.927 E7.84855
G1 X59.84 Y151.603 E7.87785
G1 X59.246 Y151.308 E7.89991
G1 X58.688 Y150.986 E7.92133
G1 X58.237 Y150.651 E7.94002
G1 X57.317 Y149.887 E7.97979
G1 X56.847 Y149.446 E8.00123
G1 X56.542 Y149.09 E8.01682
G1 X55.596 Y147.88 E8.06791
G1 X55.283 Y147.432 E8.08608
G1 X54.214 Y145.721 E8.15319
G1 X53.993 Y145.331 E8.16809
G1 X52.765 Y142.927 E8.25788
G1 X52.615 Y142.607 E8.26963
G1 X51.681 Y140.423 E8.34864
G1 X51.557 Y140.104 E8.36002
G1 X50.247 Y136.382 E8.49126
G1 X50.156 Y136.1 E8.50112
G1 X49.323 Y133.218 E8.60089
G1 X49.26 Y132.976 E8.60921
G1 X48.268 Y128.802 E8.75191
G1 X48.207 Y128.51 E8.76183
G1 X47.325 Y123.549 E8.92942
G1 X47.289 Y123.312 E8.93739
G1 X46.874 Y120.133 E9.04402
G1 X46.853 Y119.952 E9.05008
G1 X46.549 Y116.755 E9.1569
G1 X46.535 Y116.576 E9.16287
G1 X46.34 Y113.342 E9.27063
G1 X46.333 Y113.168 E9.27642
G1 X46.249 Y110.021 E9.38113
G1 X46.248 Y109.763 E9.38971
G1 X46.378 Y104.085 E9.57861
G1 X46.397 Y103.745 E9.58993
G1 X46.89 Y98.184 E9.77562
G1 X46.935 Y97.821 E9.78778
G1 X47.81 Y92.358 E9.9718
G1 X47.871 Y92.043 E9.98247
G1 X48.611 Y88.74 E10.09505
G1 X48.686 Y88.447 E10.10511
G1 X49.936 Y84.077 E10.25629
G1 X50.058 Y83.703 E10.26937
G1 X51.556 Y79.653 E10.413
G1 X51.697 Y79.309 E10.42536
G1 X53.273 Y75.834 E10.55227
G1 X53.418 Y75.54 E10.56317
G1 X54.521 Y73.466 E10.6413
G1 X54.674 Y73.197 E10.6516
G1 X56.399 Y70.373 E10.76166
G1 X56.593 Y70.079 E10.77338
G1 X58.308 Y67.657 E10.87208
G1 X58.521 Y67.377 E10.88378
G1 X60.157 Y65.369 E10.96993
G1 X60.38 Y65.113 E10.98122
G1 X62.317 Y63.03 E11.07583
G1 F2400 E10.57583
G0 F3600 X66.186 Y65.562
G0 X67.373 Y66.729
;TYPE:WALL-INNER
G1 F2400 E11.07583
G1 F1950 X67.783 Y66.338 E11.09467
G1 X69.409 Y64.914 E11.16656
G1 X71.097 Y63.591 E11.23789
G1 X72.834 Y62.373 E11.30845
G1 X74.703 Y61.2 E11.38185
G1 X76.619 Y60.13 E11.45484
G1 X78.614 Y59.14 E11.52891
G1 X80.746 Y58.209 E11.60629
G1 X81.015 Y58.099 E11.61595
G1 X83.441 Y57.194 E11.70207
G1 X85.93 Y56.4 E11.78897
G1 X88.455 Y55.721 E11.87593
G1 X91.107 Y55.134 E11.96628
G1 X93.838 Y54.648 E12.05854
G1 X96.598 Y54.275 E12.15117
G1 X99.466 Y54 E12.247
G1 X100.656 Y53.918 E12.28667
G1 X103.845 Y53.788 E12.39282
G1 X106.986 Y53.781 E12.49729
G1 X110.178 Y53.892 E12.60352
G1 X113.303 Y54.112 E12.70772
G1 X116.454 Y54.444 E12.8131
G1 X119.523 Y54.872 E12.91617
G1 X122.605 Y55.411 E13.02023
G1 X125.606 Y56.041 E13.12222
G1 X128.584 Y56.777 E13.22425
G1 X129.968 Y57.158 E13.27199
G1 X132.288 Y57.858 E13.35259
G1 X134.536 Y58.615 E13.43149
G1 X136.659 Y59.414 E13.50693
G1 X138.734 Y60.284 E13.58177
G1 X140.664 Y61.191 E13.65269
G1 X141.875 Y61.821 E13.6981
G1 X143.106 Y62.52 E13.74518
G1 X144.23 Y63.226 E13.78933
G1 X145.22 Y63.921 E13.82956
G1 X146.153 Y64.666 E13.86927
G1 X146.693 Y65.159 E13.89359
G1 X147.032 Y65.544 E13.91065
G1 X147.292 Y65.964 E13.92708
G1 X147.488 Y66.439 E13.94417
G1 X147.602 Y66.934 E13.96107
G1 X147.634 Y67.437 E13.97783
G1 X147.584 Y67.943 E13.99474
G1 X147.453 Y68.426 E14.01139
G1 X147.247 Y68.882 E14.02803
G1 X146.964 Y69.305 E14.04496
G1 X146.619 Y69.674 E14.06176
G1 X146.22 Y69.979 E14.07846
G1 X145.772 Y70.218 E14.09535
G1 X145.293 Y70.381 E14.11218
G1 X144.797 Y70.461 E14.12889
G1 X144.245 Y70.461 E14.14725
G1 X140.727 Y70.22 E14.26453
G1 X137.2 Y70.085 E14.38193
G1 X133.321 Y70.067 E14.51094
G1 X130.233 Y70.154 E14.61369
G1 X127.208 Y70.337 E14.71449
G1 X124.249 Y70.616 E14.81334
G1 X122.239 Y70.869 E14.88072
G1 X119.819 Y71.338 E14.96271
G1 X117.444 Y72.061 E15.04528
G1 X115.155 Y73.03 E15.12795
G1 X112.981 Y74.232 E15.21058
G1 X110.945 Y75.656 E15.29321
G1 X109.068 Y77.286 E15.3759
G1 X107.372 Y79.101 E15.45852
G1 X105.877 Y81.087 E15.5412
G1 X104.596 Y83.216 E15.62384
G1 X103.547 Y85.468 E15.70647
G1 X101.993 Y89.977 E15.86509
G1 X101.007 Y92.067 E15.94196
G1 X99.81 Y94.023 E16.01823
G1 X98.415 Y95.836 E16.09431
G1 X96.819 Y97.5 E16.171
G1 X95.069 Y98.97 E16.24701
G1 X93.164 Y100.25 E16.32335
G1 X91.13 Y101.316 E16.39973
G1 X88.999 Y102.157 E16.47593
G1 X84.383 Y103.419 E16.63509
G1 X82.068 Y104.319 E16.7177
G1 X79.859 Y105.457 E16.80035
G1 X77.782 Y106.821 E16.88299
G1 X75.859 Y108.394 E16.96563
G1 X74.11 Y110.158 E17.04825
G1 X72.557 Y112.097 E17.13087
G1 X71.214 Y114.19 E17.21359
G1 X70.098 Y116.409 E17.2962
G1 X69.22 Y118.733 E17.37883
G1 X68.595 Y121.122 E17.46096
G1 X68.033 Y124.143 E17.56316
G1 X67.572 Y127.279 E17.66859
G1 X67.209 Y130.538 E17.77765
G1 X67.082 Y131.995 E17.8263
G1 X66.857 Y135.53 E17.94411
G1 X66.745 Y139.139 E18.0642
G1 X66.75 Y143.049 E18.19425
G1 X66.716 Y143.594 E18.21241
G1 X66.6 Y144.094 E18.22948
G1 X66.408 Y144.559 E18.24622
G1 X66.145 Y144.984 E18.26284
G1 X65.809 Y145.367 E18.27978
G1 X65.421 Y145.687 E18.29651
G1 X64.982 Y145.939 E18.31335
G1 X64.507 Y146.12 E18.33025
G1 X64.026 Y146.216 E18.34657
G1 X63.509 Y146.234 E18.36377
G1 X63.006 Y146.168 E18.38065
G1 X62.521 Y146.022 E18.39749
G1 X62.077 Y145.804 E18.41395
G1 X61.663 Y145.507 E18.43089
G1 X61.299 Y145.145 E18.44797
G1 X60.641 Y144.299 E18.48361
G1 X59.946 Y143.255 E18.52533
G1 X59.165 Y141.9 E18.57735
G1 X58.313 Y140.183 E18.6411
G1 X57.441 Y138.152 E18.71461
G1 X56.628 Y135.971 E18.79203
G1 X56.317 Y135.047 E18.82445
G1 X55.541 Y132.501 E18.91298
G1 X54.776 Y129.559 E19.01409
G1 X54.112 Y126.493 E19.11843
G1 X53.557 Y123.366 E19.22406
G1 X53.112 Y120.199 E19.33042
G1 X52.782 Y117.027 E19.4365
G1 X52.561 Y113.858 E19.54215
G1 X52.449 Y110.649 E19.64895
G1 X52.443 Y107.892 E19.74065
G1 X52.526 Y105.062 E19.83481
G1 X52.696 Y102.318 E19.92626
G1 X52.954 Y99.604 E20.01693
G1 X53.302 Y96.927 E20.10672
G1 X53.745 Y94.265 E20.19647
G1 X54.266 Y91.709 E20.28323
G1 X54.895 Y89.141 E20.37117
G1 X55.602 Y86.683 E20.45624
G1 X56.179 Y84.927 E20.51772
G1 X56.963 Y82.788 E20.59349
G1 X57.821 Y80.723 E20.66786
G1 X58.768 Y78.689 E20.74249
G1 X59.78 Y76.746 E20.81535
G1 X60.873 Y74.869 E20.88759
G1 X62.027 Y73.087 E20.95821
G1 X63.293 Y71.327 E21.03031
G1 X64.586 Y69.711 E21.09915
G1 X65.93 Y68.196 E21.16651
G1 X67.373 Y66.729 E21.23495
G1 F2400 E20.73495
G0 F3600 X66.186 Y65.562
G0 X66.184 Y65.561
G0 X66.236 Y65.622
G0 X72.96 Y73.738
G0 X73.011 Y73.799
G0 X73.012 Y73.8
G0 X71.754 Y72.701
G1 F2400 E21.23495
G1 F1950 X70.341 Y74.612 E21.314
G1 X69.273 Y76.731 E21.39292
G1 X68.577 Y79.002 E21.47192
G1 X68.274 Y81.359 E21.55096
G1 X68.376 Y83.732 E21.62996
G1 X68.876 Y86.054 E21.70896
G1 X69.763 Y88.257 E21.78795
G1 X71.007 Y90.28 E21.86694
G1 X72.575 Y92.063 E21.94591
G1 X74.424 Y93.555 E22.02494
G1 X76.498 Y94.714 E22.10396
G1 X78.737 Y95.503 E22.18291
G1 X81.058 Y95.903 E22.26125
G1 X82.11 Y95.946 E22.29627
G1 X82.422 Y95.946 E22.30665
G1 X83.473 Y95.903 E22.34163
G1 X85.794 Y95.503 E22.41997
G1 X88.033 Y94.714 E22.49892
G1 X90.107 Y93.555 E22.57795
G1 X91.956 Y92.063 E22.65697
G1 X93.525 Y90.28 E22.73596
G1 X94.769 Y88.257 E22.81495
G1 X95.656 Y86.054 E22.89394
G1 X96.155 Y83.731 E22.97297
G1 X96.257 Y81.359 E23.05193
G1 X95.954 Y79.002 E23.13097
G1 X95.26 Y76.731 E23.20995
G1 X94.191 Y74.612 E23.28889
G1 X92.777 Y72.701 E23.36796
G1 X91.063 Y71.058 E23.44693
G1 X89.096 Y69.729 E23.52588
G1 X86.931 Y68.749 E23.60493
G1 X84.633 Y68.15 E23.68391
G1 X82.266 Y67.95 E23.76292
G1 X79.899 Y68.15 E23.84193
G1 X77.6 Y68.749 E23.92094
G1 X75.436 Y69.729 E23.99996
G1 X73.469 Y71.058 E24.07891
G1 X71.754 Y72.701 E24.1579
G0 F3600 X72.055 Y72.966
G1 F1950 X70.683 Y74.822 E24.23467
G1 X69.645 Y76.881 E24.31136
G1 X68.969 Y79.087 E24.3881
G1 X68.675 Y81.376 E24.46486
G1 X68.774 Y83.681 E24.5416
G1 X69.26 Y85.936 E24.61832
G1 X70.121 Y88.076 E24.69504
G1 X71.33 Y90.041 E24.77178
G1 X72.853 Y91.773 E24.84849
G1 X74.649 Y93.222 E24.92524
G1 X76.663 Y94.348 E25.00198
G1 X78.838 Y95.115 E25.07869
G1 X81.1 Y95.504 E25.15503
G1 X82.118 Y95.546 E25.18892
G1 X82.414 Y95.546 E25.19876
G1 X83.431 Y95.504 E25.23262
G1 X85.693 Y95.115 E25.30896
G1 X87.868 Y94.348 E25.38566
G1 X89.882 Y93.222 E25.46241
G1 X91.678 Y91.773 E25.53916
G1 X93.202 Y90.041 E25.61589
G1 X94.411 Y88.076 E25.69263
G1 X95.272 Y85.936 E25.76935
G1 X95.757 Y83.68 E25.8461
G1 X95.856 Y81.376 E25.9228
G1 X95.562 Y79.087 E25.99956
G1 X94.887 Y76.881 E26.07629
G1 X93.849 Y74.822 E26.15298
G1 X92.476 Y72.966 E26.22977
G1 X90.811 Y71.37 E26.30648
G1 X88.9 Y70.079 E26.38318
G1 X86.797 Y69.127 E26.45996
G1 X84.565 Y68.546 E26.53667
G1 X82.266 Y68.351 E26.61341
G1 X79.967 Y68.546 E26.69015
G1 X77.734 Y69.127 E26.76689
G1 X75.632 Y70.079 E26.84364
G1 X73.721 Y71.37 E26.92035
G1 X72.055 Y72.966 E26.99708
G1 F2400 E26.49708
G0 F3600 X73.012 Y73.8
G0 X73.012 Y73.799
G0 X72.95 Y73.748
G0 X64.803 Y67.076
G0 X64.741 Y67.026
G0 X64.743 Y67.028
G0 X65.645 Y67.915
G1 F2400 E26.99708
G1 F1950 X67.097 Y66.439 E27.06595
G1 X67.519 Y66.037 E27.08533
G1 X69.152 Y64.607 E27.15753
G1 X70.85 Y63.276 E27.22929
G1 X72.621 Y62.034 E27.30123
G1 X74.49 Y60.861 E27.37462
G1 X76.433 Y59.776 E27.44864
G1 X78.454 Y58.773 E27.52368
G1 X80.586 Y57.842 E27.60106
G1 X80.875 Y57.724 E27.61144
G1 X83.306 Y56.817 E27.69774
G1 X85.811 Y56.018 E27.78519
G1 X88.369 Y55.33 E27.8733
G1 X91.025 Y54.742 E27.96377
G1 X93.768 Y54.254 E28.05644
G1 X96.556 Y53.877 E28.15001
G1 X99.438 Y53.601 E28.24631
G1 X100.64 Y53.518 E28.28638
G1 X103.829 Y53.388 E28.39254
G1 X106.999 Y53.381 E28.49797
G1 X110.192 Y53.492 E28.60423
G1 X113.345 Y53.714 E28.70936
G1 X116.496 Y54.046 E28.81475
G1 X119.592 Y54.478 E28.91872
G1 X122.674 Y55.017 E29.02278
G1 X125.702 Y55.653 E29.12569
G1 X128.69 Y56.391 E29.22806
G1 X130.074 Y56.772 E29.2758
G1 X132.404 Y57.475 E29.35675
G1 X134.664 Y58.236 E29.43606
G1 X136.814 Y59.045 E29.51247
G1 X138.889 Y59.915 E29.5873
G1 X140.849 Y60.836 E29.65933
G1 X142.073 Y61.473 E29.70522
G1 X143.311 Y62.176 E29.75258
G1 X144.443 Y62.887 E29.79704
G1 X145.47 Y63.608 E29.83877
G1 X146.403 Y64.353 E29.87848
G1 X146.977 Y64.877 E29.90433
G1 X147.354 Y65.305 E29.9233
G1 X147.651 Y65.785 E29.94208
G1 X147.871 Y66.317 E29.96123
G1 X147.999 Y66.873 E29.9802
G1 X148.035 Y67.445 E29.99926
G1 X147.979 Y68.014 E30.01828
G1 X147.831 Y68.561 E30.03713
G1 X147.596 Y69.08 E30.05608
G1 X147.278 Y69.556 E30.07512
G1 X146.889 Y69.971 E30.09404
G1 X146.438 Y70.316 E30.11292
G1 X145.929 Y70.587 E30.1321
G1 X145.391 Y70.77 E30.151
G1 X144.83 Y70.861 E30.1699
G1 X144.233 Y70.861 E30.18976
G1 X140.706 Y70.619 E30.30735
G1 X137.191 Y70.485 E30.42434
G1 X133.326 Y70.467 E30.55289
G1 X130.251 Y70.554 E30.65521
G1 X127.239 Y70.736 E30.75557
G1 X124.293 Y71.014 E30.85399
G1 X122.302 Y71.264 E30.92073
G1 X119.916 Y71.727 E31.00157
G1 X117.581 Y72.438 E31.08275
G1 X115.33 Y73.39 E31.16404
G1 X113.193 Y74.572 E31.24527
G1 X111.191 Y75.972 E31.32652
G1 X109.346 Y77.574 E31.40779
G1 X107.679 Y79.359 E31.48902
G1 X106.209 Y81.311 E31.5703
G1 X104.95 Y83.404 E31.65153
G1 X103.918 Y85.618 E31.73278
G1 X102.362 Y90.133 E31.89161
G1 X101.361 Y92.254 E31.96962
G1 X100.14 Y94.251 E32.04747
G1 X98.717 Y96.099 E32.12505
G1 X97.098 Y97.788 E32.20287
G1 X95.307 Y99.292 E32.28065
G1 X93.369 Y100.594 E32.35831
G1 X91.296 Y101.681 E32.43616
G1 X89.125 Y102.537 E32.51378
G1 X84.509 Y103.799 E32.67294
G1 X82.233 Y104.684 E32.75416
G1 X80.061 Y105.803 E32.83543
G1 X78.019 Y107.144 E32.91668
G1 X76.128 Y108.69 E32.99792
G1 X74.409 Y110.425 E33.07915
G1 X72.882 Y112.331 E33.16038
G1 X71.562 Y114.388 E33.24167
G1 X70.465 Y116.57 E33.3229
G1 X69.602 Y118.855 E33.40414
G1 X68.986 Y121.209 E33.48507
G1 X68.428 Y124.209 E33.58656
G1 X67.969 Y127.33 E33.69148
G1 X67.607 Y130.578 E33.80018
G1 X67.481 Y132.025 E33.84849
G1 X67.257 Y135.549 E33.96594
G1 X67.145 Y139.145 E34.0856
G1 X67.15 Y143.058 E34.21575
G1 X67.113 Y143.656 E34.23567
G1 X66.983 Y144.214 E34.25473
G1 X66.765 Y144.743 E34.27376
G1 X66.467 Y145.224 E34.29258
G1 X66.088 Y145.656 E34.31169
G1 X65.653 Y146.015 E34.33045
G1 X65.154 Y146.302 E34.3496
G1 X64.62 Y146.505 E34.3686
G1 X64.069 Y146.615 E34.38729
G1 X63.489 Y146.635 E34.40659
G1 X62.923 Y146.561 E34.42557
G1 X62.376 Y146.396 E34.44458
G1 X61.871 Y146.148 E34.46329
G1 X61.402 Y145.812 E34.48248
G1 X60.997 Y145.409 E34.50148
G1 X60.318 Y144.536 E34.53827
