;FLAVOR:Marlin
;TIME:2941
;Filament used: 1.89669m
;Layer height: 0.2
;MINX:79.357
;MINY:53.24
;MINZ:0.16
;MAXX:120.643
;MAXY:146.76
;MAXZ:7.16
;Generated with Cura_SteamEngine 4.3.0
M140 S50
M105
M190 S50
M104 S195
M105
M109 S195
M82 ;absolute extrusion mode
G21 ;metric values
G90 ;absolute positioning
M82 ;set extruder to absolute mode
M107 ;start with the fan off
G28 X0 Y0 ;move X/Y to min endstops
G28 Z0 ;move Z to min endstops
G1 Z15.0 F120 ;move the platform down 15mm
G92 E0 ;zero the extruded length
G1 F200 E3 ;extrude 6 mm of feed stock
G92 E0 ;zero the extruded length again
G1 F120
;Put printing message on LCD screen
M117 Printing...
G92 E0
G92 E0
G1 F2400 E-3
;LAYER_COUNT:36
;LAYER:0
M107
G0 F2160 X80.558 Y59.273 Z0.16
;TYPE:SKIRT
G1 F2400 E0
G1 F900 X80.907 Y58.865 E0.01429
G1 X81.312 Y58.514 E0.02855
G1 X81.765 Y58.226 E0.04283
G1 X82.24 Y58.015 E0.05666
G1 X82.511 Y57.917 E0.06433
G1 X85.088 Y56.947 E0.13759
G1 X87.619 Y55.913 E0.21034
G1 X90.104 Y54.814 E0.28264
G1 X91.638 Y54.093 E0.32774
G1 X92.637 Y53.613 E0.35723
G1 X93.136 Y53.418 E0.37149
G1 X93.659 Y53.298 E0.38576
G1 X94.127 Y53.259 E0.39826
G1 X95.061 Y53.241 E0.42312
G1 X95.175 Y53.24 E0.42615
G1 X96.213 Y53.253 E0.45377
G1 X96.271 Y53.254 E0.45531
G1 X98.574 Y53.32 E0.51662
G1 X101.299 Y53.32 E0.58913
G1 X102.961 Y53.283 E0.63336
G1 X104.273 Y53.242 E0.66829
G1 X104.385 Y53.24 E0.67127
G1 X105.162 Y53.24 E0.69194
G1 X105.86 Y53.25 E0.71052
G1 X106.394 Y53.298 E0.72478
G1 X106.915 Y53.424 E0.73904
G1 X107.377 Y53.61 E0.7523
G1 X109.86 Y54.812 E0.8257
G1 X112.325 Y55.925 E0.89766
G1 X114.899 Y57.001 E0.9719
G1 X117.977 Y58.173 E1.05953
G1 X118.463 Y58.4 E1.0738
G1 X118.909 Y58.698 E1.08808
G1 X119.306 Y59.058 E1.10234
G1 X119.646 Y59.473 E1.11661
G1 X119.92 Y59.934 E1.13088
G1 X120.122 Y60.431 E1.14516
G1 X120.248 Y60.952 E1.15942
G1 X120.288 Y61.299 E1.16871
G1 X120.482 Y64.23 E1.24687
G1 X120.585 Y65.564 E1.28247
G1 X120.59 Y65.628 E1.28418
G1 X120.61 Y65.966 E1.29319
G1 X120.613 Y66.02 E1.29463
G1 X120.64 Y66.632 E1.31093
G1 X120.643 Y66.845 E1.3166
G1 X120.635 Y67.38 E1.33083
G1 X120.631 Y67.488 E1.33371
G1 X120.621 Y67.71 E1.33962
G1 X120.615 Y67.82 E1.34255
G1 X120.548 Y68.705 E1.36617
G1 X120.382 Y71.418 E1.43849
G1 X120.292 Y74.147 E1.51114
G1 X120.28 Y76.893 E1.58421
G1 X120.293 Y77.52 E1.6009
G1 X120.294 Y77.582 E1.60255
G1 X120.296 Y78.197 E1.61891
G1 X120.247 Y78.798 E1.63496
G1 X120.177 Y79.217 E1.64626
G1 X120.178 Y79.217 E1.64629
G1 X119.925 Y80.872 E1.69083
G1 X119.916 Y80.924 E1.69224
G1 X119.765 Y81.824 E1.71652
G1 X119.757 Y81.87 E1.71776
G1 X119.348 Y84.125 E1.77874
G1 X118.937 Y86.826 E1.85144
G1 X118.601 Y89.544 E1.92431
G1 X118.343 Y92.258 E1.99685
G1 X118.162 Y94.987 E2.06962
G1 X118.06 Y97.676 E2.14122
G1 X118.032 Y100.441 E2.2148
G1 X118.082 Y103.138 E2.28657
G1 X118.21 Y105.868 E2.35929
G1 X118.415 Y108.587 E2.43185
G1 X118.698 Y111.311 E2.50472
G1 X119.055 Y114.015 E2.57729
G1 X119.485 Y116.679 E2.64909
G1 X119.689 Y117.761 E2.67839
G1 X119.698 Y117.816 E2.67987
G1 X119.798 Y118.395 E2.69551
G1 X119.838 Y118.697 E2.70361
G1 X119.962 Y120.128 E2.74183
G1 X119.964 Y120.159 E2.74266
G1 X120.065 Y121.453 E2.77719
G1 X120.074 Y121.602 E2.78116
G1 X120.084 Y121.877 E2.78849
G1 X120.086 Y121.968 E2.79091
G1 X120.097 Y122.956 E2.8172
G1 X120.097 Y123.013 E2.81872
G1 X120.093 Y123.808 E2.83987
G1 X120.16 Y126.541 E2.91261
G1 X120.303 Y129.273 E2.9854
G1 X120.511 Y131.865 E3.05459
G1 X120.516 Y131.936 E3.05649
G1 X120.583 Y133.045 E3.08605
G1 X120.589 Y133.169 E3.08935
G1 X120.602 Y133.671 E3.10271
G1 X120.603 Y133.775 E3.10548
G1 X120.602 Y134.107 E3.11432
G1 X120.599 Y134.251 E3.11815
G1 X120.564 Y135.065 E3.13983
G1 X120.552 Y135.237 E3.14441
G1 X120.248 Y138.566 E3.23336
G1 X120.16 Y139.095 E3.24763
G1 X120.067 Y139.411 E3.2564
G1 X119.943 Y139.771 E3.26653
G1 X119.731 Y140.264 E3.28081
G1 X119.448 Y140.72 E3.29509
G1 X119.101 Y141.128 E3.30934
G1 X118.697 Y141.481 E3.32361
G1 X118.245 Y141.769 E3.33787
G1 X117.757 Y141.987 E3.35209
G1 X117.465 Y142.092 E3.36035
G1 X114.912 Y143.053 E3.43294
G1 X112.391 Y144.083 E3.5054
G1 X109.896 Y145.186 E3.57798
G1 X108.362 Y145.907 E3.62308
G1 X107.363 Y146.387 E3.65257
G1 X106.864 Y146.582 E3.66683
G1 X106.341 Y146.702 E3.68111
G1 X105.873 Y146.741 E3.6936
G1 X104.939 Y146.759 E3.71846
G1 X104.825 Y146.76 E3.72149
G1 X103.787 Y146.747 E3.74911
G1 X103.729 Y146.746 E3.75066
G1 X101.426 Y146.68 E3.81196
G1 X98.701 Y146.68 E3.88447
G1 X97.039 Y146.717 E3.9287
G1 X95.727 Y146.758 E3.96363
G1 X95.615 Y146.76 E3.96661
G1 X94.838 Y146.76 E3.98728
G1 X94.14 Y146.75 E4.00586
G1 X93.606 Y146.702 E4.02012
G1 X93.085 Y146.576 E4.03439
G1 X92.623 Y146.39 E4.04764
G1 X90.14 Y145.188 E4.12104
G1 X87.675 Y144.075 E4.193
G1 X85.101 Y142.999 E4.26724
G1 X82.023 Y141.827 E4.35487
G1 X81.537 Y141.6 E4.36915
G1 X81.091 Y141.302 E4.38342
G1 X80.694 Y140.942 E4.39768
G1 X80.354 Y140.527 E4.41195
G1 X80.08 Y140.066 E4.42622
G1 X79.878 Y139.569 E4.4405
G1 X79.752 Y139.048 E4.45476
G1 X79.712 Y138.701 E4.46405
G1 X79.515 Y135.731 E4.54325
G1 X79.415 Y134.436 E4.57781
G1 X79.41 Y134.372 E4.57952
G1 X79.39 Y134.034 E4.58853
G1 X79.387 Y133.978 E4.59002
G1 X79.36 Y133.358 E4.60654
G1 X79.357 Y133.146 E4.61218
G1 X79.365 Y132.619 E4.6262
G1 X79.369 Y132.503 E4.62929
G1 X79.38 Y132.272 E4.63544
G1 X79.386 Y132.173 E4.63808
G1 X79.452 Y131.297 E4.66146
G1 X79.618 Y128.582 E4.73383
G1 X79.708 Y125.853 E4.80649
G1 X79.72 Y123.089 E4.88003
G1 X79.707 Y122.473 E4.89643
G1 X79.706 Y122.412 E4.89805
G1 X79.704 Y121.803 E4.91425
G1 X79.752 Y121.204 E4.93024
G1 X79.835 Y120.702 E4.94378
G1 X80.073 Y119.142 E4.98577
G1 X80.081 Y119.092 E4.98712
G1 X80.234 Y118.178 E5.01178
G1 X80.243 Y118.13 E5.01308
G1 X80.652 Y115.875 E5.07406
G1 X81.063 Y113.174 E5.14675
G1 X81.399 Y110.456 E5.21962
G1 X81.657 Y107.742 E5.29216
G1 X81.838 Y105.013 E5.36494
G1 X81.94 Y102.324 E5.43654
G1 X81.968 Y99.554 E5.51024
G1 X81.918 Y96.862 E5.58189
G1 X81.79 Y94.132 E5.65461
G1 X81.585 Y91.409 E5.72727
G1 X81.303 Y88.691 E5.79997
G1 X80.945 Y85.985 E5.8726
G1 X80.515 Y83.32 E5.94443
G1 X80.308 Y82.222 E5.97416
G1 X80.298 Y82.166 E5.97567
G1 X80.201 Y81.604 E5.99085
G1 X80.162 Y81.303 E5.99893
G1 X80.038 Y79.872 E6.03714
G1 X80.036 Y79.841 E6.03797
G1 X79.935 Y78.546 E6.07253
G1 X79.926 Y78.397 E6.07651
G1 X79.916 Y78.123 E6.0838
G1 X79.914 Y78.032 E6.08622
G1 X79.903 Y77.044 E6.11251
G1 X79.903 Y76.987 E6.11403
G1 X79.907 Y76.192 E6.13518
G1 X79.84 Y73.459 E6.20793
G1 X79.697 Y70.727 E6.28072
G1 X79.489 Y68.135 E6.34991
G1 X79.484 Y68.064 E6.3518
G1 X79.417 Y66.954 E6.38139
G1 X79.411 Y66.823 E6.38488
G1 X79.399 Y66.322 E6.39821
G1 X79.398 Y66.236 E6.4005
G1 X79.398 Y65.904 E6.40934
G1 X79.401 Y65.749 E6.41346
G1 X79.436 Y64.935 E6.43514
G1 X79.448 Y64.762 E6.43976
G1 X79.753 Y61.43 E6.52878
G1 X79.842 Y60.901 E6.54306
G1 X79.937 Y60.577 E6.55204
G1 X80.061 Y60.22 E6.5621
G1 X80.275 Y59.728 E6.57637
G1 X80.558 Y59.273 E6.59063
G0 F2160 X80.916 Y59.463
G1 F900 X81.253 Y59.086 E6.60409
G1 X81.645 Y58.767 E6.61753
G1 X82.082 Y58.514 E6.63097
G1 X82.376 Y58.391 E6.63945
G1 X82.639 Y58.296 E6.64689
G1 X85.232 Y57.32 E6.72061
G1 X87.756 Y56.289 E6.79316
G1 X90.294 Y55.167 E6.86699
G1 X91.836 Y54.442 E6.91233
G1 X92.81 Y53.974 E6.94108
G1 X93.282 Y53.791 E6.95455
G1 X93.776 Y53.686 E6.96799
G1 X94.134 Y53.659 E6.97754
G1 X95.068 Y53.641 E7.0024
G1 X95.17 Y53.64 E7.00511
G1 X96.208 Y53.653 E7.03274
G1 X96.26 Y53.654 E7.03412
G1 X98.563 Y53.72 E7.09542
G1 X101.308 Y53.72 E7.16846
G1 X102.97 Y53.683 E7.2127
G1 X104.285 Y53.642 E7.2477
G1 X104.385 Y53.64 E7.25036
G1 X105.156 Y53.64 E7.27088
G1 X105.854 Y53.65 E7.28945
G1 X106.357 Y53.697 E7.3029
G1 X106.847 Y53.823 E7.31636
G1 X107.202 Y53.97 E7.32658
G1 X109.686 Y55.173 E7.40002
G1 X112.156 Y56.288 E7.47213
G1 X114.757 Y57.375 E7.54714
G1 X117.835 Y58.547 E7.63477
G1 X118.292 Y58.763 E7.64822
G1 X118.709 Y59.049 E7.66168
G1 X119.075 Y59.397 E7.67511
G1 X119.383 Y59.799 E7.68859
G1 X119.623 Y60.243 E7.70202
G1 X119.79 Y60.721 E7.71549
G1 X119.889 Y61.325 E7.73178
G1 X120.084 Y64.261 E7.81007
G1 X120.187 Y65.595 E7.84567
G1 X120.19 Y65.652 E7.84719
G1 X120.21 Y65.99 E7.8562
G1 X120.213 Y66.038 E7.85748
G1 X120.24 Y66.65 E7.87378
G1 X120.243 Y66.839 E7.87881
G1 X120.235 Y67.374 E7.89304
G1 X120.232 Y67.47 E7.8956
G1 X120.222 Y67.692 E7.90151
G1 X120.216 Y67.79 E7.90413
G1 X120.149 Y68.675 E7.92774
G1 X119.981 Y71.417 E8.00084
G1 X119.892 Y74.133 E8.07314
G1 X119.88 Y76.899 E8.14674
G1 X119.893 Y77.528 E8.16348
G1 X119.894 Y77.584 E8.16497
G1 X119.896 Y78.199 E8.18134
G1 X119.853 Y78.733 E8.19559
G1 X119.776 Y79.197 E8.20811
G1 X119.529 Y80.812 E8.25158
G1 X119.522 Y80.857 E8.25279
G1 X119.371 Y81.757 E8.27707
G1 X119.364 Y81.799 E8.27821
G1 X118.953 Y84.065 E8.33948
G1 X118.538 Y86.788 E8.41277
G1 X118.204 Y89.493 E8.4853
G1 X117.945 Y92.227 E8.55837
G1 X117.764 Y94.946 E8.63087
G1 X117.66 Y97.693 E8.70402
G1 X117.632 Y100.441 E8.77714
G1 X117.682 Y103.164 E8.84961
G1 X117.81 Y105.881 E8.92198
G1 X118.016 Y108.626 E8.99523
G1 X118.301 Y111.364 E9.06847
G1 X118.658 Y114.064 E9.14094
G1 X119.095 Y116.775 E9.21401
G1 X119.295 Y117.835 E9.24271
G1 X119.304 Y117.884 E9.24404
G1 X119.404 Y118.463 E9.25967
G1 X119.439 Y118.732 E9.26689
G1 X119.563 Y120.163 E9.30511
G1 X119.565 Y120.19 E9.30583
G1 X119.666 Y121.484 E9.34036
G1 X119.674 Y121.617 E9.34391
G1 X119.684 Y121.892 E9.35123
G1 X119.686 Y121.972 E9.35336
G1 X119.697 Y122.96 E9.37965
G1 X119.697 Y123.011 E9.38101
G1 X119.693 Y123.816 E9.40243
G1 X119.76 Y126.536 E9.47482
G1 X119.904 Y129.29 E9.5482
G1 X120.113 Y131.897 E9.61779
G1 X120.117 Y131.96 E9.61947
G1 X120.184 Y133.069 E9.64903
G1 X120.189 Y133.179 E9.65196
G1 X120.202 Y133.681 E9.66532
G1 X120.203 Y133.774 E9.6678
G1 X120.202 Y134.106 E9.67663
G1 X120.199 Y134.233 E9.68001
G1 X120.164 Y135.047 E9.70169
G1 X120.154 Y135.201 E9.7058
G1 X119.85 Y138.53 E9.79475
G1 X119.764 Y139.028 E9.80819
G1 X119.689 Y139.281 E9.81521
G1 X119.565 Y139.641 E9.82535
G1 X119.363 Y140.105 E9.83881
G1 X119.09 Y140.531 E9.85227
G1 X118.754 Y140.908 E9.86571
G1 X118.363 Y141.228 E9.87915
G1 X117.926 Y141.483 E9.89262
G1 X117.622 Y141.61 E9.90138
G1 X117.374 Y141.699 E9.90839
G1 X114.768 Y142.68 E9.98249
G1 X112.244 Y143.711 E10.05503
G1 X109.706 Y144.833 E10.12887
G1 X108.164 Y145.558 E10.17421
G1 X107.19 Y146.026 E10.20296
G1 X106.718 Y146.209 E10.21643
G1 X106.224 Y146.314 E10.22987
G1 X105.866 Y146.341 E10.23942
G1 X104.932 Y146.359 E10.26428
G1 X104.83 Y146.36 E10.26699
G1 X103.792 Y146.347 E10.29461
G1 X103.74 Y146.346 E10.29599
G1 X101.437 Y146.28 E10.3573
G1 X98.692 Y146.28 E10.43034
G1 X97.03 Y146.317 E10.47457
G1 X95.715 Y146.358 E10.50958
G1 X95.615 Y146.36 E10.51224
G1 X94.844 Y146.36 E10.53275
G1 X94.146 Y146.35 E10.55133
G1 X93.643 Y146.303 E10.56477
G1 X93.153 Y146.177 E10.57823
G1 X92.798 Y146.03 E10.58846
G1 X90.314 Y144.827 E10.66189
G1 X87.844 Y143.712 E10.734
G1 X85.243 Y142.625 E10.80901
G1 X82.165 Y141.453 E10.89665
G1 X81.708 Y141.237 E10.9101
G1 X81.291 Y140.951 E10.92355
G1 X80.925 Y140.603 E10.93699
G1 X80.617 Y140.201 E10.95046
G1 X80.377 Y139.757 E10.96389
G1 X80.21 Y139.279 E10.97737
G1 X80.111 Y138.675 E10.99365
G1 X79.916 Y135.739 E11.07195
G1 X79.813 Y134.405 E11.10755
G1 X79.81 Y134.348 E11.10906
G1 X79.79 Y134.01 E11.11807
G1 X79.787 Y133.96 E11.11941
G1 X79.76 Y133.34 E11.13592
G1 X79.757 Y133.152 E11.14092
G1 X79.765 Y132.625 E11.15495
G1 X79.769 Y132.522 E11.15769
G1 X79.78 Y132.291 E11.16384
G1 X79.785 Y132.203 E11.16619
G1 X79.851 Y131.327 E11.18956
G1 X80.019 Y128.583 E11.26271
G1 X80.108 Y125.867 E11.33502
G1 X80.12 Y123.089 E11.40894
G1 X80.107 Y122.465 E11.42554
G1 X80.106 Y122.411 E11.42698
G1 X80.104 Y121.802 E11.44319
G1 X80.147 Y121.269 E11.45741
G1 X80.23 Y120.767 E11.47095
G1 X80.469 Y119.203 E11.51305
G1 X80.476 Y119.158 E11.51426
G1 X80.629 Y118.244 E11.53892
G1 X80.636 Y118.201 E11.54008
G1 X81.047 Y115.935 E11.60136
G1 X81.462 Y113.212 E11.67465
G1 X81.796 Y110.507 E11.74717
G1 X82.055 Y107.773 E11.82024
G1 X82.236 Y105.054 E11.89275
G1 X82.34 Y102.307 E11.96589
G1 X82.368 Y99.551 E12.03923
G1 X82.318 Y96.836 E12.11148
G1 X82.19 Y94.119 E12.18386
G1 X81.984 Y91.374 E12.2571
G1 X81.699 Y88.634 E12.3304
G1 X81.342 Y85.936 E12.40282
G1 X80.905 Y83.224 E12.47591
G1 X80.702 Y82.148 E12.50504
G1 X80.693 Y82.098 E12.50639
G1 X80.596 Y81.536 E12.52157
G1 X80.561 Y81.268 E12.52876
G1 X80.437 Y79.837 E12.56698
G1 X80.435 Y79.81 E12.5677
G1 X80.334 Y78.515 E12.60226
G1 X80.326 Y78.383 E12.60578
G1 X80.316 Y78.109 E12.61308
G1 X80.314 Y78.028 E12.61523
G1 X80.303 Y77.04 E12.64152
G1 X80.303 Y76.989 E12.64288
G1 X80.307 Y76.184 E12.6643
G1 X80.24 Y73.464 E12.7367
G1 X80.096 Y70.71 E12.81007
G1 X79.887 Y68.103 E12.87966
G1 X79.883 Y68.04 E12.88134
G1 X79.816 Y66.93 E12.91093
G1 X79.811 Y66.814 E12.91402
G1 X79.799 Y66.313 E12.92736
G1 X79.798 Y66.236 E12.92941
G1 X79.798 Y65.904 E12.93824
G1 X79.801 Y65.767 E12.94189
G1 X79.836 Y64.953 E12.96357
G1 X79.846 Y64.798 E12.9677
G1 X80.151 Y61.466 E13.05673
G1 X80.237 Y60.968 E13.07017
G1 X80.315 Y60.708 E13.0774
G1 X80.439 Y60.351 E13.08745
G1 X80.642 Y59.888 E13.1009
G1 X80.916 Y59.463 E13.11436
G1 F2400 E10.11436
;MESH:Xwing_spinner.stl
G0 F2160 X85.198 Y60.742
G0 X85.065 Y61.953
G0 X85.051 Y63.597
;TYPE:WALL-INNER
G1 F2400 E13.11436
G1 F900 X85.051 Y66.863 E13.20126
G1 X84.161 Y66.864 E13.22494
G1 X84.173 Y67.902 E13.25256
G1 X84.134 Y68.041 E13.2564
G1 X84.126 Y67.968 E13.25836
G1 X83.688 Y67.968 E13.27001
G1 X83.638 Y67.508 E13.28232
G1 X83.588 Y66.222 E13.31657
G1 X83.626 Y65.04 E13.34804
G1 X83.691 Y64.523 E13.3619
G1 X83.821 Y64.028 E13.37552
G1 X84.027 Y63.45 E13.39185
G1 X86.965 Y62.825 E13.47177
G1 X86.965 Y63.361 E13.48603
G1 X86.804 Y63.398 E13.49043
G1 X86.14 Y63.514 E13.50836
G1 X85.051 Y63.597 E13.53742
G1 F2400 E10.53742
G0 F2160 X86.305 Y64.759
G0 X88.636 Y61.459
G0 X89.637 Y63.568
G1 F2400 E13.53742
G1 F900 X89.636 Y62.238 E13.57281
G1 X89.642 Y62.198 E13.57389
G1 X89.738 Y62.04 E13.57881
G1 X89.911 Y61.953 E13.58396
G1 X90.164 Y61.867 E13.59107
G1 X92.178 Y61.478 E13.64565
G1 X92.747 Y61.337 E13.66125
G1 X93.368 Y61.089 E13.67904
G1 X93.425 Y61.055 E13.6808
G1 X93.512 Y61.643 E13.69662
G1 X94.395 Y61.769 E13.72035
G1 X94.752 Y61.006 E13.74277
G1 X94.834 Y60.526 E13.75572
G1 X94.811 Y59.85 E13.77372
G1 X94.522 Y58.445 E13.81189
G1 X94.503 Y58.293 E13.81597
G1 X94.661 Y57.691 E13.83253
G1 X94.71 Y57.44 E13.83933
G1 X95.438 Y57.44 E13.8587
G1 X95.463 Y57.607 E13.86319
G1 X95.356 Y61.104 E13.95629
G1 X95.431 Y61.717 E13.97272
G1 X97.144 Y61.717 E14.0183
G1 X97.144 Y60.675 E14.04602
G1 X97.304 Y60.597 E14.05076
G1 X97.725 Y60.149 E14.06712
G1 X97.871 Y60.049 E14.07183
G1 X98.188 Y59.916 E14.08097
G1 X98.299 Y59.898 E14.08397
G1 X98.299 Y68.898 E14.32344
G1 X98.345 Y69.582 E14.34168
G1 X98.765 Y69.582 E14.35286
G1 X98.795 Y69.958 E14.36289
G1 X98.964 Y70.589 E14.38027
G1 X98.425 Y70.589 E14.39462
G1 X98.458 Y71.528 E14.41962
G1 X98.244 Y71.627 E14.42589
G1 X98.012 Y71.851 E14.43447
G1 X98.02 Y69.919 E14.48588
G1 X97.959 Y69.105 E14.5076
G1 X97.756 Y68.22 E14.53176
G1 X97.484 Y67.626 E14.54914
G1 X97.403 Y67.506 E14.55299
G1 X97.291 Y66.913 E14.56905
G1 X97.275 Y66.912 E14.56948
G1 X97.432 Y66.174 E14.58955
G1 X93.464 Y66.174 E14.69513
G1 X93.464 Y64.329 E14.74423
G1 X97.291 Y64.341 E14.84606
G1 X97.291 Y62.46 E14.89611
G1 X93 Y62.447 E15.01028
G1 X93 Y62.725 E15.01768
G1 X90.749 Y62.725 E15.07757
G1 X90.857 Y64.28 E15.11905
G1 X91.034 Y64.881 E15.13572
G1 X91.301 Y65.376 E15.15068
G1 X91.676 Y65.826 E15.16627
G1 X92.127 Y66.225 E15.18229
G1 X92.158 Y66.684 E15.19453
G1 X93 Y66.684 E15.21694
G1 X93 Y66.855 E15.22149
G1 X88.312 Y66.86 E15.34623
G1 X88.312 Y64.784 E15.40147
G1 X88.507 Y64.745 E15.40676
G1 X88.684 Y64.659 E15.41199
G1 X89.505 Y64.518 E15.43416
G1 X89.477 Y63.591 E15.45883
G1 X89.637 Y63.568 E15.46314
G1 F2400 E12.46314
G0 F2160 X88.671 Y61.411
G0 X99.483 Y62.35
G0 X100.589 Y62.447
G0 X102.715 Y62.447
G1 F2400 E15.46314
G1 F900 X102.715 Y64.328 E15.51319
G1 X106.665 Y64.34 E15.61829
