;FLAVOR:Marlin
;TIME:903
;Filament used: 0.633818m
;Layer height: 0.2
;MINX:81.213
;MINY:72.887
;MINZ:0.16
;MAXX:118.788
;MAXY:127.127
;MAXZ:5.96
;Generated with Cura_SteamEngine 4.3.0
M140 S50
M105
M190 S50
M104 S195
M105
M109 S195
M82 ;absolute extrusion mode
G21 ;metric values
G90 ;absolute positioning
M82 ;set extruder to absolute mode
M107 ;start with the fan off
G28 X0 Y0 ;move X/Y to min endstops
G28 Z0 ;move Z to min endstops
G1 Z15.0 F120 ;move the platform down 15mm
G92 E0 ;zero the extruded length
G1 F200 E3 ;extrude 6 mm of feed stock
G92 E0 ;zero the extruded length again
G1 F120
;Put printing message on LCD screen
M117 Printing...
G92 E0
G92 E0
G1 F2400 E-3
;LAYER_COUNT:30
;LAYER:0
M107
G0 F2160 X93.996 Y77.788 Z0.16
;TYPE:SKIRT
G1 F2400 E0
G1 F900 X94.141 Y77.619 E0.00593
G1 X94.332 Y77.41 E0.01346
G1 X94.439 Y77.298 E0.01758
G1 X94.991 Y76.744 E0.03839
G1 X95.144 Y76.599 E0.044
G1 X95.339 Y76.425 E0.05095
G1 X95.452 Y76.328 E0.05491
G1 X96.071 Y75.82 E0.07622
G1 X96.251 Y75.682 E0.08226
G1 X96.487 Y75.512 E0.09
G1 X96.609 Y75.427 E0.09395
G1 X97.29 Y74.978 E0.11566
G1 X97.483 Y74.86 E0.12168
G1 X97.731 Y74.718 E0.12928
G1 X97.859 Y74.648 E0.13316
G1 X98.563 Y74.282 E0.15427
G1 X98.792 Y74.173 E0.16102
G1 X99.205 Y73.994 E0.173
G1 X99.323 Y73.945 E0.1764
G1 X99.884 Y73.725 E0.19243
G1 X100.079 Y73.655 E0.19794
G1 X100.345 Y73.568 E0.20539
G1 X100.491 Y73.524 E0.20945
G1 X101.282 Y73.302 E0.23131
G1 X101.49 Y73.25 E0.23701
G1 X101.766 Y73.19 E0.24453
G1 X101.921 Y73.16 E0.24873
G1 X102.724 Y73.022 E0.27041
G1 X102.935 Y72.992 E0.27608
G1 X103.159 Y72.967 E0.28208
G1 X103.315 Y72.953 E0.28625
G1 X104.173 Y72.895 E0.30913
G1 X104.431 Y72.887 E0.316
G1 X105.149 Y72.89 E0.3351
G1 X105.353 Y72.897 E0.34053
G1 X105.976 Y72.935 E0.35714
G1 X106.186 Y72.954 E0.36275
G1 X106.436 Y72.984 E0.36945
G1 X106.597 Y73.007 E0.37378
G1 X107.415 Y73.143 E0.39584
G1 X107.622 Y73.183 E0.40145
G1 X107.895 Y73.245 E0.4089
G1 X108.051 Y73.284 E0.41318
G1 X108.82 Y73.495 E0.4344
G1 X109.023 Y73.558 E0.44005
G1 X109.259 Y73.638 E0.44668
G1 X109.401 Y73.689 E0.4507
G1 X110.172 Y73.987 E0.47269
G1 X110.376 Y74.073 E0.47858
G1 X110.62 Y74.185 E0.48573
G1 X110.754 Y74.25 E0.48969
G1 X111.479 Y74.62 E0.51135
G1 X111.678 Y74.73 E0.5174
G1 X111.921 Y74.874 E0.52491
G1 X112.048 Y74.953 E0.52889
G1 X112.745 Y75.406 E0.55101
G1 X112.953 Y75.552 E0.55777
G1 X113.264 Y75.787 E0.56814
G1 X113.368 Y75.868 E0.57165
G1 X113.881 Y76.286 E0.58926
G1 X114.036 Y76.42 E0.59471
G1 X114.223 Y76.591 E0.60145
G1 X114.331 Y76.694 E0.60542
G1 X114.941 Y77.3 E0.6283
G1 X115.096 Y77.464 E0.63431
G1 X115.27 Y77.66 E0.64128
G1 X115.362 Y77.768 E0.64506
G1 X115.866 Y78.383 E0.66621
G1 X116.004 Y78.562 E0.67223
G1 X116.135 Y78.744 E0.67819
G1 X116.216 Y78.862 E0.682
G1 X116.698 Y79.591 E0.70526
G1 X116.84 Y79.823 E0.71249
G1 X117.049 Y80.198 E0.72392
G1 X117.104 Y80.302 E0.72705
G1 X117.391 Y80.859 E0.74372
G1 X117.472 Y81.027 E0.74868
G1 X117.574 Y81.253 E0.75528
G1 X117.639 Y81.405 E0.75968
G1 X117.94 Y82.163 E0.78138
G1 X118.009 Y82.354 E0.78678
G1 X118.102 Y82.633 E0.79461
G1 X118.155 Y82.804 E0.79937
G1 X118.377 Y83.6 E0.82136
G1 X118.426 Y83.798 E0.82679
G1 X118.482 Y84.054 E0.83376
G1 X118.513 Y84.213 E0.83807
G1 X118.651 Y85.015 E0.85972
G1 X118.681 Y85.231 E0.86553
G1 X118.709 Y85.485 E0.87233
G1 X118.723 Y85.632 E0.87625
G1 X118.779 Y86.447 E0.89799
G1 X118.787 Y86.68 E0.90419
G1 X118.788 Y86.934 E0.91095
G1 X118.785 Y87.094 E0.91521
G1 X118.762 Y87.662 E0.93034
G1 X118.757 Y87.76 E0.93295
G1 X118.74 Y88.01 E0.93962
G1 X118.726 Y88.167 E0.94381
G1 X118.634 Y88.988 E0.96579
G1 X118.604 Y89.196 E0.97138
G1 X118.57 Y89.394 E0.97673
G1 X118.552 Y89.494 E0.97943
G1 X118.502 Y89.743 E0.98619
G1 X118.486 Y89.816 E0.98818
G1 X118.358 Y90.391 E1.00385
G1 X118.312 Y90.574 E1.00887
G1 X118.228 Y90.876 E1.01721
G1 X118.179 Y91.037 E1.02169
G1 X117.931 Y91.79 E1.04279
G1 X117.849 Y92.016 E1.04918
G1 X117.723 Y92.327 E1.05811
G1 X117.667 Y92.456 E1.06185
G1 X117.357 Y93.143 E1.08191
G1 X117.312 Y93.24 E1.08475
G1 X116.854 Y94.179 E1.11255
G1 X116.833 Y94.222 E1.11383
G1 X116.477 Y94.927 E1.13484
G1 X115.327 Y97.375 E1.20681
G1 X114.245 Y99.859 E1.2789
G1 X113.203 Y102.444 E1.35306
G1 X112.278 Y104.952 E1.42419
G1 X111.403 Y107.54 E1.49688
G1 X110.604 Y110.142 E1.5693
G1 X109.882 Y112.756 E1.64146
G1 X109.061 Y116.143 E1.73419
G1 X108.987 Y116.477 E1.74329
G1 X108.934 Y116.686 E1.74903
G1 X108.875 Y116.892 E1.75473
G1 X108.834 Y117.024 E1.75841
G1 X108.569 Y117.831 E1.78101
G1 X108.493 Y118.041 E1.78695
G1 X108.369 Y118.352 E1.79586
G1 X108.305 Y118.502 E1.8002
G1 X107.994 Y119.19 E1.82029
G1 X107.905 Y119.373 E1.82571
G1 X107.799 Y119.576 E1.8318
G1 X107.724 Y119.713 E1.83596
G1 X107.283 Y120.475 E1.85938
G1 X107.162 Y120.669 E1.86547
G1 X107.038 Y120.855 E1.87141
G1 X106.957 Y120.972 E1.8752
G1 X106.471 Y121.642 E1.89722
G1 X106.343 Y121.808 E1.9028
G1 X106.185 Y122.001 E1.90944
G1 X106.08 Y122.123 E1.91372
G1 X105.53 Y122.737 E1.93565
G1 X105.386 Y122.889 E1.94123
G1 X105.229 Y123.045 E1.94711
G1 X105.163 Y123.109 E1.94956
G1 X105.002 Y123.261 E1.95545
G1 X104.94 Y123.318 E1.95769
G1 X104.448 Y123.761 E1.97531
G1 X104.284 Y123.9 E1.98103
G1 X104.091 Y124.054 E1.9876
G1 X103.976 Y124.142 E1.99145
G1 X103.329 Y124.617 E2.01281
G1 X103.178 Y124.722 E2.0177
G1 X102.985 Y124.849 E2.02385
G1 X102.893 Y124.908 E2.02676
G1 X102.698 Y125.028 E2.03285
G1 X102.623 Y125.073 E2.03518
G1 X102.077 Y125.391 E2.05199
G1 X101.89 Y125.492 E2.05765
G1 X101.633 Y125.622 E2.06531
G1 X101.503 Y125.685 E2.06915
G1 X100.8 Y126.006 E2.08972
G1 X100.628 Y126.079 E2.09469
G1 X100.375 Y126.179 E2.10193
G1 X100.203 Y126.242 E2.1068
G1 X99.409 Y126.51 E2.1291
G1 X99.209 Y126.571 E2.13466
G1 X98.99 Y126.631 E2.1407
G1 X98.839 Y126.669 E2.14485
G1 X98.019 Y126.856 E2.16723
G1 X97.783 Y126.902 E2.17362
G1 X97.518 Y126.944 E2.18076
G1 X97.388 Y126.962 E2.18425
G1 X96.894 Y127.022 E2.1975
G1 X96.746 Y127.037 E2.20145
G1 X95.818 Y127.111 E2.22622
G1 X95.614 Y127.121 E2.23166
G1 X95.35 Y127.127 E2.23869
G1 X95.163 Y127.126 E2.24366
G1 X94.685 Y127.112 E2.25639
G1 X94.474 Y127.1 E2.26201
G1 X93.907 Y127.05 E2.27715
G1 X93.801 Y127.039 E2.27999
G1 X93.276 Y126.977 E2.29406
G1 X93.085 Y126.949 E2.29919
G1 X92.871 Y126.912 E2.30497
G1 X92.715 Y126.882 E2.3092
G1 X91.873 Y126.698 E2.33213
G1 X91.662 Y126.645 E2.33792
G1 X91.418 Y126.576 E2.34467
G1 X91.273 Y126.532 E2.3487
G1 X90.486 Y126.273 E2.37074
G1 X90.256 Y126.188 E2.37727
G1 X89.973 Y126.073 E2.3854
G1 X89.848 Y126.02 E2.38901
G1 X89.123 Y125.693 E2.41017
G1 X88.944 Y125.606 E2.41547
G1 X88.763 Y125.512 E2.42089
G1 X88.619 Y125.433 E2.42526
G1 X87.888 Y125.01 E2.44774
G1 X87.702 Y124.895 E2.45355
G1 X87.453 Y124.73 E2.4615
G1 X87.327 Y124.642 E2.46559
G1 X86.688 Y124.178 E2.4866
G1 X86.52 Y124.049 E2.49224
G1 X86.32 Y123.885 E2.49912
G1 X86.201 Y123.782 E2.50331
G1 X85.587 Y123.232 E2.52524
G1 X85.429 Y123.083 E2.53102
G1 X85.248 Y122.9 E2.53787
G1 X85.144 Y122.789 E2.54192
G1 X84.585 Y122.174 E2.56403
G1 X84.436 Y122 E2.57013
G1 X84.289 Y121.816 E2.57639
G1 X84.201 Y121.7 E2.58027
G1 X83.703 Y121.022 E2.60265
G1 X83.584 Y120.85 E2.60822
G1 X83.403 Y120.571 E2.61707
G1 X83.313 Y120.426 E2.62161
G1 X82.931 Y119.771 E2.64178
G1 X82.814 Y119.553 E2.64837
G1 X82.625 Y119.171 E2.65971
G1 X82.571 Y119.057 E2.66306
G1 X82.305 Y118.468 E2.68026
G1 X82.226 Y118.277 E2.68576
G1 X82.123 Y118.009 E2.6934
G1 X82.069 Y117.859 E2.69764
G1 X81.816 Y117.102 E2.71888
G1 X81.759 Y116.915 E2.72408
G1 X81.69 Y116.664 E2.73101
G1 X81.649 Y116.503 E2.73543
G1 X81.471 Y115.715 E2.75692
G1 X81.43 Y115.5 E2.76275
G1 X81.375 Y115.162 E2.77186
G1 X81.352 Y114.999 E2.77624
G1 X81.265 Y114.25 E2.7963
G1 X81.247 Y114.036 E2.80201
G1 X81.232 Y113.768 E2.80916
G1 X81.226 Y113.624 E2.81299
G1 X81.213 Y112.808 E2.83471
G1 X81.217 Y112.592 E2.84046
G1 X81.228 Y112.343 E2.84709
G1 X81.239 Y112.172 E2.85165
G1 X81.288 Y111.64 E2.86586
G1 X81.303 Y111.503 E2.86953
G1 X81.362 Y111.052 E2.88163
G1 X81.383 Y110.917 E2.88527
G1 X81.491 Y110.28 E2.90246
G1 X81.541 Y110.034 E2.90914
G1 X81.645 Y109.605 E2.92088
G1 X81.675 Y109.49 E2.92405
G1 X81.844 Y108.881 E2.94086
G1 X81.907 Y108.679 E2.94649
G1 X81.986 Y108.448 E2.95299
G1 X82.033 Y108.317 E2.95669
G1 X82.329 Y107.55 E2.97857
G1 X82.416 Y107.344 E2.98452
G1 X82.55 Y107.052 E2.99307
G1 X82.598 Y106.952 E2.99602
G1 X83.654 Y104.827 E3.05916
G1 X84.818 Y102.321 E3.13268
G1 X85.875 Y99.871 E3.20368
G1 X86.914 Y97.26 E3.27845
G1 X87.828 Y94.755 E3.3494
G1 X88.696 Y92.152 E3.42241
G1 X89.481 Y89.559 E3.4945
G1 X90.198 Y86.922 E3.56721
G1 X90.838 Y84.279 E3.63957
G1 X90.947 Y83.8 E3.65264
G1 X90.983 Y83.655 E3.65661
G1 X91.2 Y82.856 E3.67864
G1 X91.269 Y82.631 E3.68491
G1 X91.348 Y82.401 E3.69138
G1 X91.394 Y82.274 E3.69497
G1 X91.69 Y81.507 E3.71685
G1 X91.777 Y81.301 E3.7228
G1 X91.911 Y81.009 E3.73135
G1 X91.981 Y80.866 E3.73558
G1 X92.332 Y80.183 E3.75601
G1 X92.42 Y80.022 E3.7609
G1 X92.536 Y79.822 E3.76705
G1 X92.632 Y79.665 E3.77194
G1 X93.101 Y78.944 E3.79483
G1 X93.226 Y78.765 E3.80064
G1 X93.38 Y78.557 E3.80753
G1 X93.471 Y78.439 E3.81149
G1 X93.996 Y77.788 E3.83374
G0 F2160 X94.307 Y78.039
G1 F900 X94.436 Y77.889 E3.83901
G1 X94.627 Y77.68 E3.84654
G1 X94.722 Y77.58 E3.85021
G1 X95.274 Y77.026 E3.87102
G1 X95.41 Y76.897 E3.87601
G1 X95.605 Y76.723 E3.88296
G1 X95.706 Y76.637 E3.88649
G1 X96.325 Y76.129 E3.9078
G1 X96.485 Y76.007 E3.91315
G1 X96.721 Y75.837 E3.92089
G1 X96.83 Y75.761 E3.92443
G1 X97.511 Y75.312 E3.94613
G1 X97.682 Y75.207 E3.95147
G1 X97.93 Y75.065 E3.95908
G1 X98.044 Y75.003 E3.96253
G1 X98.748 Y74.637 E3.98364
G1 X98.951 Y74.54 E3.98963
G1 X99.364 Y74.361 E4.0016
G1 X99.469 Y74.318 E4.00462
G1 X100.03 Y74.098 E4.02066
G1 X100.203 Y74.036 E4.02555
G1 X100.469 Y73.949 E4.03299
G1 X100.599 Y73.909 E4.03661
G1 X101.39 Y73.687 E4.05847
G1 X101.575 Y73.641 E4.06354
G1 X101.851 Y73.581 E4.07106
G1 X101.989 Y73.554 E4.0748
G1 X102.792 Y73.416 E4.09648
G1 X102.979 Y73.39 E4.1015
G1 X103.203 Y73.365 E4.1075
G1 X103.342 Y73.352 E4.11122
G1 X104.2 Y73.294 E4.1341
G1 X104.429 Y73.287 E4.14019
G1 X105.147 Y73.29 E4.1593
G1 X105.329 Y73.296 E4.16414
G1 X105.952 Y73.334 E4.18075
G1 X106.138 Y73.351 E4.18572
G1 X106.388 Y73.381 E4.19242
G1 X106.532 Y73.401 E4.19629
G1 X107.35 Y73.537 E4.21835
G1 X107.534 Y73.573 E4.22334
G1 X107.807 Y73.635 E4.23079
G1 X107.945 Y73.67 E4.23458
G1 X108.714 Y73.881 E4.2558
G1 X108.894 Y73.936 E4.26081
G1 X109.13 Y74.016 E4.26744
G1 X109.257 Y74.062 E4.27103
G1 X110.028 Y74.36 E4.29302
G1 X110.209 Y74.437 E4.29826
G1 X110.453 Y74.549 E4.3054
G1 X110.573 Y74.607 E4.30895
G1 X111.298 Y74.977 E4.33061
G1 X111.474 Y75.074 E4.33595
G1 X111.717 Y75.218 E4.34347
G1 X111.83 Y75.288 E4.34701
G1 X112.527 Y75.741 E4.36913
G1 X112.712 Y75.871 E4.37514
G1 X113.023 Y76.106 E4.38551
G1 X113.115 Y76.178 E4.38862
G1 X113.628 Y76.596 E4.40623
G1 X113.766 Y76.715 E4.41108
G1 X113.953 Y76.886 E4.41782
G1 X114.049 Y76.978 E4.42136
G1 X114.659 Y77.584 E4.44424
G1 X114.797 Y77.73 E4.44958
G1 X114.971 Y77.926 E4.45656
G1 X115.053 Y78.022 E4.45992
G1 X115.557 Y78.637 E4.48107
G1 X115.679 Y78.796 E4.48641
G1 X115.81 Y78.978 E4.49237
G1 X115.882 Y79.082 E4.49574
G1 X116.364 Y79.811 E4.51899
G1 X116.49 Y80.018 E4.52544
G1 X116.699 Y80.393 E4.53686
G1 X116.749 Y80.485 E4.53965
G1 X117.036 Y81.042 E4.55632
G1 X117.108 Y81.192 E4.56075
G1 X117.21 Y81.418 E4.56735
G1 X117.267 Y81.553 E4.57125
G1 X117.568 Y82.311 E4.59295
G1 X117.63 Y82.48 E4.59774
G1 X117.723 Y82.759 E4.60556
G1 X117.769 Y82.911 E4.60979
G1 X117.991 Y83.707 E4.63178
G1 X118.035 Y83.883 E4.6366
G1 X118.091 Y84.139 E4.64357
G1 X118.119 Y84.28 E4.6474
G1 X118.257 Y85.082 E4.66905
G1 X118.284 Y85.274 E4.67421
G1 X118.312 Y85.528 E4.68101
G1 X118.323 Y85.66 E4.68454
G1 X118.379 Y86.475 E4.70627
G1 X118.387 Y86.681 E4.71176
G1 X118.388 Y86.935 E4.71852
G1 X118.385 Y87.077 E4.7223
G1 X118.362 Y87.645 E4.73742
G1 X118.358 Y87.733 E4.73977
G1 X118.341 Y87.983 E4.74643
G1 X118.328 Y88.122 E4.75015
G1 X118.236 Y88.943 E4.77213
G1 X118.21 Y89.129 E4.77713
G1 X118.176 Y89.327 E4.78247
G1 X118.159 Y89.415 E4.78486
G1 X118.109 Y89.664 E4.79161
G1 X118.096 Y89.729 E4.79338
G1 X117.968 Y90.304 E4.80905
G1 X117.927 Y90.467 E4.81353
G1 X117.843 Y90.769 E4.82187
G1 X117.799 Y90.912 E4.82585
G1 X117.551 Y91.665 E4.84694
G1 X117.478 Y91.866 E4.85263
G1 X117.352 Y92.177 E4.86156
G1 X117.303 Y92.291 E4.86486
G1 X116.993 Y92.978 E4.88492
G1 X116.952 Y93.065 E4.88748
G1 X116.494 Y94.004 E4.91527
G1 X116.475 Y94.042 E4.9164
G1 X116.13 Y94.727 E4.93681
G1 X114.97 Y97.194 E5.00935
G1 X113.866 Y99.729 E5.08292
G1 X112.837 Y102.281 E5.15614
G1 X111.895 Y104.834 E5.22854
G1 X111.024 Y107.41 E5.3009
G1 X110.222 Y110.023 E5.37363
G1 X109.49 Y112.674 E5.4468
G1 X108.686 Y115.99 E5.53759
G1 X108.597 Y116.39 E5.5485
G1 X108.549 Y116.576 E5.55361
G1 X108.49 Y116.782 E5.55931
G1 X108.454 Y116.899 E5.56257
G1 X108.189 Y117.706 E5.58517
G1 X108.121 Y117.893 E5.59046
G1 X107.997 Y118.204 E5.59937
G1 X107.941 Y118.337 E5.60321
G1 X107.63 Y119.025 E5.6233
G1 X107.551 Y119.188 E5.62812
G1 X107.445 Y119.391 E5.63421
G1 X107.378 Y119.513 E5.63792
G1 X106.937 Y120.275 E5.66134
G1 X106.83 Y120.447 E5.66673
G1 X106.706 Y120.633 E5.67268
G1 X106.633 Y120.737 E5.67606
G1 X106.147 Y121.407 E5.69808
G1 X106.033 Y121.555 E5.70306
G1 X105.875 Y121.748 E5.70969
G1 X105.783 Y121.856 E5.71347
G1 X105.233 Y122.47 E5.7354
G1 X105.105 Y122.605 E5.74035
G1 X104.948 Y122.761 E5.74624
G1 X104.889 Y122.818 E5.74842
G1 X104.728 Y122.97 E5.75431
G1 X104.672 Y123.021 E5.75633
G1 X104.18 Y123.464 E5.77395
G1 X104.035 Y123.587 E5.779
G1 X103.842 Y123.741 E5.78557
G1 X103.74 Y123.819 E5.78899
G1 X103.093 Y124.294 E5.81035
G1 X102.958 Y124.388 E5.81472
G1 X102.765 Y124.515 E5.82087
G1 X102.683 Y124.567 E5.82346
G1 X102.488 Y124.687 E5.82955
G1 X102.421 Y124.727 E5.83162
G1 X101.875 Y125.045 E5.84844
G1 X101.709 Y125.135 E5.85346
G1 X101.452 Y125.265 E5.86112
G1 X101.337 Y125.321 E5.86453
G1 X100.634 Y125.642 E5.88509
G1 X100.481 Y125.707 E5.88951
G1 X100.228 Y125.807 E5.89675
G1 X100.075 Y125.863 E5.90109
G1 X99.281 Y126.131 E5.92339
G1 X99.104 Y126.185 E5.92831
G1 X98.885 Y126.245 E5.93435
G1 X98.75 Y126.279 E5.93806
G1 X97.93 Y126.466 E5.96044
G1 X97.72 Y126.507 E5.96613
G1 X97.455 Y126.549 E5.97327
G1 X97.34 Y126.565 E5.97636
G1 X96.846 Y126.625 E5.9896
G1 X96.714 Y126.638 E5.99313
G1 X95.786 Y126.712 E6.0179
G1 X95.605 Y126.721 E6.02272
G1 X95.341 Y126.727 E6.02975
G1 X95.174 Y126.727 E6.03419
G1 X94.696 Y126.713 E6.04691
G1 X94.509 Y126.702 E6.0519
G1 X93.942 Y126.652 E6.06704
G1 X93.848 Y126.642 E6.06956
G1 X93.323 Y126.58 E6.08363
G1 X93.153 Y126.555 E6.0882
G1 X92.939 Y126.518 E6.09398
G1 X92.801 Y126.491 E6.09772
G1 X91.959 Y126.307 E6.12065
G1 X91.771 Y126.26 E6.12581
G1 X91.527 Y126.191 E6.13255
G1 X91.398 Y126.152 E6.13614
G1 X90.611 Y125.893 E6.15818
G1 X90.406 Y125.818 E6.16399
G1 X90.123 Y125.703 E6.17212
G1 X90.012 Y125.655 E6.17534
G1 X89.287 Y125.328 E6.1965
G1 X89.128 Y125.251 E6.2012
G1 X88.947 Y125.157 E6.20663
G1 X88.819 Y125.087 E6.21051
G1 X88.088 Y124.664 E6.23298
G1 X87.923 Y124.561 E6.23816
G1 X87.674 Y124.396 E6.24611
G1 X87.562 Y124.318 E6.24974
G1 X86.923 Y123.854 E6.27075
G1 X86.774 Y123.739 E6.27576
G1 X86.574 Y123.575 E6.28264
G1 X86.468 Y123.485 E6.28634
G1 X85.854 Y122.935 E6.30827
G1 X85.714 Y122.801 E6.31343
G1 X85.533 Y122.618 E6.32028
G1 X85.44 Y122.52 E6.32387
G1 X84.881 Y121.905 E6.34599
G1 X84.749 Y121.75 E6.3514
G1 X84.602 Y121.566 E6.35767
G1 X84.523 Y121.463 E6.36112
G1 X84.025 Y120.785 E6.38351
G1 X83.919 Y120.633 E6.38844
G1 X83.738 Y120.354 E6.39729
G1 X83.659 Y120.224 E6.40134
G1 X83.277 Y119.569 E6.42151
G1 X83.173 Y119.376 E6.42735
G1 X82.984 Y118.994 E6.43869
G1 X82.936 Y118.892 E6.44169
G1 X82.67 Y118.303 E6.45888
G1 X82.599 Y118.134 E6.46376
G1 X82.496 Y117.866 E6.4714
G1 X82.448 Y117.732 E6.47519
G1 X82.195 Y116.975 E6.49642
G1 X82.144 Y116.809 E6.50104
G1 X82.075 Y116.558 E6.50797
G1 X82.04 Y116.415 E6.51189
G1 X81.862 Y115.627 E6.53338
