;FLAVOR:Marlin
;TIME:1228
;Filament used: 1.56177m
;Layer height: 0.2
;MINX:65.65
;MINY:80.4
;MINZ:0.2
;MAXX:134.35
;MAXY:119.6
;MAXZ:7
;Generated with Cura_SteamEngine 4.3.0
M140 S50
M105
M190 S50
M104 S195
M105
M109 S195
M82 ;absolute extrusion mode
G21 ;metric values
G90 ;absolute positioning
M82 ;set extruder to absolute mode
M107 ;start with the fan off
G28 X0 Y0 ;move X/Y to min endstops
G28 Z0 ;move Z to min endstops
G1 Z15.0 F120 ;move the platform down 15mm
G92 E0 ;zero the extruded length
G1 F200 E3 ;extrude 6 mm of feed stock
G92 E0 ;zero the extruded length again
G1 F120
;Put printing message on LCD screen
M117 Printing...
G92 E0
G92 E0
G1 F2400 E-3
;LAYER_COUNT:35
;LAYER:0
M107
G0 F3600 X67.927 Y82.036 Z0.2
;TYPE:SKIRT
G1 F2400 E0
G1 F1800 X68.453 Y81.623 E0.02224
G1 X68.858 Y81.367 E0.03818
G1 X69.076 Y81.242 E0.04654
G1 X69.676 Y80.944 E0.06882
G1 X70.162 Y80.764 E0.08606
G1 X70.366 Y80.699 E0.09318
G1 X71.014 Y80.535 E0.11541
G1 X71.904 Y80.437 E0.14519
G1 X73.115 Y80.402 E0.18548
G1 X73.277 Y80.4 E0.19087
G1 X127.043 Y80.4 E1.97914
G1 X127.125 Y80.401 E1.98187
G1 X127.811 Y80.411 E2.00468
G1 X128.478 Y80.46 E2.02693
G1 X129.386 Y80.661 E2.05786
G1 X129.851 Y80.805 E2.07405
G1 X130.759 Y81.176 E2.10667
G1 X130.957 Y81.278 E2.11408
G1 X131.532 Y81.619 E2.13632
G1 X132.063 Y82.027 E2.15859
G1 X132.425 Y82.371 E2.1752
G1 X132.583 Y82.535 E2.18277
G1 X133.017 Y83.043 E2.205
G1 X133.388 Y83.6 E2.22726
G1 X133.717 Y84.261 E2.25181
G1 X133.88 Y84.651 E2.26587
G1 X134.101 Y85.282 E2.28811
G1 X134.244 Y85.936 E2.31037
G1 X134.293 Y86.333 E2.32368
G1 X134.317 Y86.614 E2.33306
G1 X134.337 Y87.049 E2.34754
G1 X134.339 Y87.315 E2.35639
G1 X134.339 Y87.355 E2.35772
G1 X134.35 Y112.323 E3.18816
G1 X134.349 Y112.403 E3.19082
G1 X134.34 Y113.053 E3.21244
G1 X134.277 Y113.819 E3.23801
G1 X134.227 Y114.147 E3.24904
G1 X134.087 Y114.801 E3.27129
G1 X133.87 Y115.434 E3.29354
G1 X133.704 Y115.798 E3.30685
G1 X133.597 Y116.013 E3.31484
G1 X133.264 Y116.593 E3.33708
G1 X132.766 Y117.242 E3.36429
G1 X132.538 Y117.498 E3.37569
G1 X132.064 Y117.971 E3.39796
G1 X131.537 Y118.383 E3.42021
G1 X131.158 Y118.622 E3.43511
G1 X130.94 Y118.748 E3.44349
G1 X130.342 Y119.048 E3.46574
G1 X129.838 Y119.236 E3.48363
G1 X129.634 Y119.301 E3.49075
G1 X128.986 Y119.465 E3.51299
G1 X128.096 Y119.563 E3.54277
G1 X126.885 Y119.598 E3.58306
G1 X126.723 Y119.6 E3.58845
G1 X72.957 Y119.6 E5.37671
G1 X72.877 Y119.599 E5.37937
G1 X72.18 Y119.589 E5.40256
G1 X71.379 Y119.52 E5.4293
G1 X71.065 Y119.47 E5.43987
G1 X70.412 Y119.326 E5.46212
G1 X69.781 Y119.104 E5.48436
G1 X69.451 Y118.953 E5.49643
G1 X69.23 Y118.843 E5.50464
G1 X68.65 Y118.51 E5.52689
G1 X67.98 Y117.993 E5.55504
G1 X67.731 Y117.769 E5.56618
G1 X67.261 Y117.293 E5.58842
G1 X66.851 Y116.764 E5.61069
G1 X66.628 Y116.408 E5.62466
G1 X66.502 Y116.19 E5.63303
G1 X66.202 Y115.592 E5.65528
G1 X66.017 Y115.096 E5.67289
G1 X65.952 Y114.893 E5.67998
G1 X65.786 Y114.244 E5.70226
G1 X65.687 Y113.344 E5.73238
G1 X65.652 Y112.111 E5.7734
G1 X65.65 Y111.952 E5.77869
G1 X65.65 Y87.673 E6.58621
G1 X65.651 Y87.589 E6.58901
G1 X65.661 Y86.926 E6.61106
G1 X65.73 Y86.129 E6.63767
G1 X65.78 Y85.815 E6.64824
G1 X65.924 Y85.162 E6.67049
G1 X66.146 Y84.531 E6.69273
G1 X66.297 Y84.201 E6.7048
G1 X66.404 Y83.986 E6.71279
G1 X66.737 Y83.406 E6.73504
G1 X67.227 Y82.766 E6.76184
G1 X67.454 Y82.51 E6.77322
G1 X67.927 Y82.036 E6.7955
G0 F3600 X68.21 Y82.32
G1 F1800 X68.72 Y81.925 E6.81695
G1 X69.057 Y81.714 E6.83018
G1 X69.275 Y81.589 E6.83853
G1 X69.853 Y81.304 E6.85997
G1 X70.283 Y81.145 E6.87522
G1 X70.487 Y81.08 E6.88234
G1 X71.113 Y80.923 E6.9038
G1 X71.916 Y80.837 E6.93066
G1 X73.127 Y80.802 E6.97096
G1 X73.277 Y80.8 E6.97595
G1 X127.043 Y80.8 E8.76421
G1 X127.119 Y80.801 E8.76674
G1 X127.805 Y80.811 E8.78956
G1 X128.448 Y80.86 E8.81101
G1 X129.267 Y81.043 E8.83892
G1 X129.732 Y81.187 E8.85511
G1 X130.575 Y81.531 E8.88539
G1 X130.773 Y81.633 E8.8928
G1 X131.327 Y81.964 E8.91427
G1 X131.836 Y82.36 E8.93572
G1 X132.137 Y82.648 E8.94957
G1 X132.295 Y82.812 E8.95715
G1 X132.712 Y83.303 E8.97857
G1 X133.066 Y83.842 E9.00002
G1 X133.348 Y84.415 E9.02126
G1 X133.511 Y84.805 E9.03532
G1 X133.722 Y85.414 E9.05676
G1 X133.856 Y86.044 E9.07818
G1 X133.894 Y86.367 E9.089
G1 X133.918 Y86.648 E9.09838
G1 X133.937 Y87.052 E9.11183
G1 X133.939 Y87.318 E9.12067
G1 X133.939 Y87.355 E9.12191
G1 X133.95 Y112.323 E9.95234
G1 X133.95 Y112.397 E9.95481
G1 X133.941 Y113.047 E9.97643
G1 X133.882 Y113.759 E10.00019
G1 X133.832 Y114.087 E10.01122
G1 X133.695 Y114.717 E10.03267
G1 X133.482 Y115.325 E10.0541
G1 X133.346 Y115.62 E10.0649
G1 X133.239 Y115.835 E10.07289
G1 X132.917 Y116.393 E10.09431
G1 X132.467 Y116.976 E10.11881
G1 X132.239 Y117.232 E10.13021
G1 X131.781 Y117.686 E10.15166
G1 X131.271 Y118.08 E10.1731
G1 X130.958 Y118.276 E10.18538
G1 X130.74 Y118.402 E10.19375
G1 X130.163 Y118.689 E10.21519
G1 X129.717 Y118.855 E10.23102
G1 X129.513 Y118.92 E10.23814
G1 X128.887 Y119.077 E10.2596
G1 X128.084 Y119.163 E10.28646
G1 X126.873 Y119.198 E10.32676
G1 X126.723 Y119.2 E10.33175
G1 X72.957 Y119.2 E12.12001
G1 X72.882 Y119.199 E12.12251
G1 X72.185 Y119.189 E12.14569
G1 X71.442 Y119.125 E12.1705
G1 X71.128 Y119.075 E12.18107
G1 X70.499 Y118.935 E12.2025
G1 X69.629 Y118.595 E12.23357
G1 X69.408 Y118.485 E12.24178
G1 X68.85 Y118.163 E12.26321
G1 X68.247 Y117.696 E12.28858
G1 X67.998 Y117.472 E12.29972
G1 X67.547 Y117.012 E12.32114
G1 X67.155 Y116.499 E12.34262
G1 X66.974 Y116.208 E12.35401
G1 X66.848 Y115.99 E12.36239
G1 X66.561 Y115.413 E12.38382
G1 X66.398 Y114.974 E12.3994
G1 X66.333 Y114.771 E12.40649
G1 X66.175 Y114.146 E12.42793
G1 X66.087 Y113.333 E12.45513
G1 X66.052 Y112.1 E12.49615
G1 X66.05 Y111.952 E12.50108
G1 X66.05 Y87.673 E13.3086
G1 X66.051 Y87.595 E13.31119
G1 X66.061 Y86.932 E13.33325
G1 X66.125 Y86.192 E13.35795
G1 X66.175 Y85.878 E13.36853
G1 X66.315 Y85.249 E13.38996
G1 X66.655 Y84.379 E13.42103
G1 X66.762 Y84.164 E13.42902
G1 X67.084 Y83.606 E13.45044
G1 X67.526 Y83.031 E13.47456
G1 X67.753 Y82.775 E13.48594
G1 X68.21 Y82.32 E13.50739
G1 F2400 E10.50739
;MESH:5x7mm pcb box lid.stl
G0 F3600 X71.092 Y85.822
G0 X72.262 Y87.01
;TYPE:WALL-INNER
G1 F2400 E13.50739
G1 F1800 X72.325 Y87 E13.50952
G1 X127.671 Y87 E15.35033
G1 X127.739 Y87.011 E15.35262
G1 X127.75 Y112.775 E16.20954
G1 X127.75 Y112.921 E16.21439
G1 X127.739 Y112.99 E16.21672
G1 X127.675 Y113 E16.21887
G1 X127.529 Y113 E16.22373
G1 X72.329 Y113 E18.05969
G1 X72.26 Y112.989 E18.06201
G1 X72.25 Y112.925 E18.06416
G1 X72.25 Y87.082 E18.92371
G1 X72.262 Y87.01 E18.92613
G1 F2400 E15.92613
G0 F3600 X72.262 Y85.335
G0 X77.846 Y90.995
G0 X76.25 Y89.4
G1 F2400 E18.92613
G1 F1800 X76.25 Y102.4 E19.35852
G1 X99.25 Y102.4 E20.1235
G1 X99.25 Y89.4 E20.55588
G1 X76.25 Y89.4 E21.32086
G1 F2400 E18.32086
G0 F3600 X77.903 Y91.053
G0 X97.621 Y93.644
G0 X108.733 Y95.104
G0 X107.19 Y94.715
G1 F2400 E21.32086
G1 F1800 X107.063 Y95.502 E21.34738
G1 X107.063 Y96.298 E21.37385
G1 X107.19 Y97.085 E21.40037
G1 X107.443 Y97.841 E21.42688
G1 X107.813 Y98.548 E21.45342
G1 X108.293 Y99.184 E21.47992
G1 X108.867 Y99.737 E21.50643
G1 X109.523 Y100.191 E21.53297
G1 X110.244 Y100.531 E21.55948
G1 X111.01 Y100.753 E21.58601
G1 X111.801 Y100.849 E21.61251
G1 X112.596 Y100.816 E21.63897
G1 X113.378 Y100.659 E21.6655
G1 X114.123 Y100.375 E21.69202
G1 X114.814 Y99.976 E21.71856
G1 X115.431 Y99.472 E21.74506
G1 X115.96 Y98.876 E21.77156
G1 X116.386 Y98.201 E21.79811
G1 X116.699 Y97.468 E21.82462
G1 X116.889 Y96.695 E21.8511
G1 X116.953 Y95.9 E21.87762
G1 X116.889 Y95.105 E21.90415
G1 X116.699 Y94.332 E21.93063
G1 X116.386 Y93.599 E21.95713
G1 X115.96 Y92.924 E21.98368
G1 X115.431 Y92.328 E22.01019
G1 X114.814 Y91.824 E22.03669
G1 X114.123 Y91.425 E22.06322
G1 X113.378 Y91.141 E22.08974
G1 X112.596 Y90.984 E22.11627
G1 X111.801 Y90.951 E22.14274
G1 X111.01 Y91.047 E22.16924
G1 X110.244 Y91.269 E22.19576
G1 X109.523 Y91.609 E22.22228
G1 X108.867 Y92.063 E22.24881
G1 X108.293 Y92.616 E22.27532
G1 X107.813 Y93.252 E22.30182
G1 X107.443 Y93.959 E22.32836
G1 X107.19 Y94.715 E22.35488
G0 F3600 X107.58 Y94.811
G1 F1800 X107.463 Y95.534 E22.37924
G1 X107.463 Y96.266 E22.40358
G1 X107.58 Y96.989 E22.42794
G1 X107.812 Y97.684 E22.45231
G1 X108.152 Y98.333 E22.47668
G1 X108.593 Y98.918 E22.50105
G1 X109.121 Y99.426 E22.52542
G1 X109.724 Y99.843 E22.5498
G1 X110.386 Y100.156 E22.57416
G1 X111.09 Y100.36 E22.59854
G1 X111.817 Y100.448 E22.62289
G1 X112.548 Y100.418 E22.64723
G1 X113.267 Y100.273 E22.67162
G1 X113.951 Y100.013 E22.69596
G1 X114.586 Y99.646 E22.72035
G1 X115.153 Y99.183 E22.7447
G1 X115.639 Y98.635 E22.76906
G1 X116.031 Y98.015 E22.79346
G1 X116.318 Y97.341 E22.81783
G1 X116.493 Y96.631 E22.84215
G1 X116.552 Y95.9 E22.86654
G1 X116.493 Y95.169 E22.89093
G1 X116.318 Y94.459 E22.91525
G1 X116.031 Y93.785 E22.93962
G1 X115.639 Y93.165 E22.96402
G1 X115.153 Y92.617 E22.98838
G1 X114.586 Y92.154 E23.01272
G1 X113.951 Y91.787 E23.03712
G1 X113.267 Y91.527 E23.06146
G1 X112.548 Y91.382 E23.08585
G1 X111.817 Y91.352 E23.11019
G1 X111.09 Y91.44 E23.13454
G1 X110.386 Y91.644 E23.15892
G1 X109.724 Y91.957 E23.18328
G1 X109.121 Y92.374 E23.20766
G1 X108.593 Y92.882 E23.23203
G1 X108.152 Y93.467 E23.2564
G1 X107.812 Y94.116 E23.28076
G1 X107.58 Y94.811 E23.30513
G1 F2400 E20.30513
G0 F3600 X108.812 Y95.115
G0 X97.662 Y91.076
G0 X98.85 Y89.8
G1 F2400 E23.30513
G1 F1800 X76.65 Y89.8 E24.04351
G1 X76.65 Y102 E24.44928
G1 X98.85 Y102 E25.18766
G1 X98.85 Y89.8 E25.59343
G1 F2400 E22.59343
G0 F3600 X97.597 Y91.053
G0 X127.451 Y85.382
G0 X127.703 Y86.6
G1 F2400 E25.59343
G1 F1800 X127.871 Y86.627 E25.59909
G1 X127.986 Y86.687 E25.60341
G1 X128.069 Y86.772 E25.60736
G1 X128.139 Y86.921 E25.61283
G1 X128.15 Y112.953 E26.47866
G1 X128.123 Y113.121 E26.48432
G1 X128.063 Y113.236 E26.48863
G1 X127.979 Y113.318 E26.49254
G1 X127.866 Y113.375 E26.49675
G1 X127.703 Y113.4 E26.50223
G1 X72.297 Y113.4 E28.34504
G1 X72.129 Y113.373 E28.3507
G1 X72.014 Y113.313 E28.35502
G1 X71.932 Y113.229 E28.35892
G1 X71.875 Y113.116 E28.36313
G1 X71.85 Y112.953 E28.36862
G1 X71.85 Y87.047 E29.23025
G1 X71.878 Y86.877 E29.23598
G1 X71.937 Y86.764 E29.24022
G1 X72.021 Y86.682 E29.24413
G1 X72.134 Y86.625 E29.24834
G1 X72.297 Y86.6 E29.25382
G1 X127.703 Y86.6 E31.09663
G0 F3600 X127.736 Y86.2
;TYPE:WALL-OUTER
G1 F1800 X128 Y86.243 E31.10553
G1 X128.224 Y86.36 E31.11393
G1 X128.399 Y86.537 E31.12221
G1 X128.513 Y86.766 E31.13072
G1 X128.539 Y86.877 E31.13451
G1 X128.55 Y112.986 E32.0029
G1 X128.507 Y113.25 E32.0118
G1 X128.39 Y113.474 E32.0202
G1 X128.213 Y113.649 E32.02848
G1 X127.991 Y113.76 E32.03674
G1 X127.732 Y113.8 E32.04545
G1 X72.264 Y113.8 E33.89033
G1 X72 Y113.757 E33.89922
G1 X71.776 Y113.64 E33.90763
G1 X71.601 Y113.463 E33.91591
G1 X71.49 Y113.241 E33.92416
G1 X71.45 Y112.982 E33.93288
G1 X71.45 Y87.014 E34.79658
G1 X71.493 Y86.75 E34.80547
G1 X71.61 Y86.526 E34.81388
G1 X71.787 Y86.351 E34.82216
G1 X72.009 Y86.24 E34.83041
G1 X72.268 Y86.2 E34.83913
G1 X127.736 Y86.2 E36.684
G0 F3600 X127.933 Y86.232
G1 F2400 E33.684
G0 F3600 X127.856 Y85.336
G0 X114.97 Y94.324
G0 X115.676 Y93.971
G1 F2400 E36.684
G1 F1800 X115.318 Y93.406 E36.70625
G1 X114.875 Y92.906 E36.72847
G1 X114.358 Y92.484 E36.75067
G1 X113.779 Y92.15 E36.7729
G1 X113.155 Y91.913 E36.7951
G1 X112.5 Y91.78 E36.81733
G1 X111.833 Y91.753 E36.83953
G1 X111.17 Y91.833 E36.86174
G1 X110.528 Y92.019 E36.88397
G1 X109.925 Y92.305 E36.90617
G1 X109.375 Y92.685 E36.92841
G1 X108.893 Y93.148 E36.95063
G1 X108.491 Y93.682 E36.97287
G1 X108.181 Y94.273 E36.99506
G1 X107.97 Y94.907 E37.01729
G1 X107.863 Y95.566 E37.03949
G1 X107.863 Y96.234 E37.06171
G1 X107.97 Y96.893 E37.08392
G1 X108.181 Y97.527 E37.10614
G1 X108.491 Y98.118 E37.12834
G1 X108.893 Y98.652 E37.15057
G1 X109.375 Y99.115 E37.1728
G1 X109.925 Y99.495 E37.19503
G1 X110.528 Y99.781 E37.21723
G1 X111.17 Y99.967 E37.23946
G1 X111.833 Y100.047 E37.26167
G1 X112.5 Y100.02 E37.28387
G1 X113.155 Y99.887 E37.3061
G1 X113.779 Y99.65 E37.3283
G1 X114.358 Y99.316 E37.35054
G1 X114.875 Y98.894 E37.37273
G1 X115.318 Y98.394 E37.39495
G1 X115.676 Y97.829 E37.4172
G1 X115.937 Y97.214 E37.43942
G1 X116.097 Y96.566 E37.46162
G1 X116.151 Y95.9 E37.48384
G1 X116.097 Y95.234 E37.50607
G1 X115.937 Y94.586 E37.52827
G1 X115.676 Y93.971 E37.55049
G0 F3600 X115.569 Y93.802
G1 F2400 E34.55049
G0 F3600 X114.629 Y93.932
G0 X110.129 Y93.169
G0 X97.664 Y91.063
G0 X98.45 Y90.2
G1 F2400 E37.55049
G1 F1800 X77.05 Y90.2 E38.26225
G1 X77.05 Y101.6 E38.64142
G1 X98.45 Y101.6 E39.35319
G1 X98.45 Y90.2 E39.73235
G0 F3600 X98.25 Y90.2
G0 X99.64 Y89.01
;TYPE:SKIN
G1 F1800 X75.86 Y89.01 E40.52328
G1 X75.86 Y102.79 E40.9816
G1 X99.64 Y102.79 E41.77253
G1 X99.64 Y89.01 E42.23085
G1 F2400 E39.23085
G0 F3600 X97.597 Y91.053
G0 X108.903 Y94.588
G0 X107.083 Y93.805
G1 F2400 E42.23085
G1 F1800 X106.81 Y94.621 E42.25947
G1 X106.673 Y95.471 E42.28811
G1 X106.673 Y96.329 E42.31665
G1 X106.81 Y97.179 E42.34528
G1 X107.083 Y97.995 E42.3739
G1 X107.482 Y98.757 E42.40251
G1 X108 Y99.443 E42.4311
G1 X108.619 Y100.039 E42.45968
G1 X109.328 Y100.53 E42.48836
G1 X110.106 Y100.897 E42.51697
G1 X110.932 Y101.137 E42.54558
G1 X111.786 Y101.24 E42.57419
G1 X112.643 Y101.204 E42.60272
G1 X113.487 Y101.035 E42.63135
G1 X114.291 Y100.728 E42.65998
G1 X115.036 Y100.298 E42.68859
G1 X115.702 Y99.755 E42.71717
G1 X116.272 Y99.112 E42.74575
G1 X116.733 Y98.383 E42.77443
G1 X117.07 Y97.592 E42.80303
G1 X117.275 Y96.758 E42.8316
G1 X117.345 Y95.9 E42.86023
G1 X117.275 Y95.042 E42.88886
G1 X117.07 Y94.208 E42.91742
G1 X116.733 Y93.417 E42.94602
G1 X116.272 Y92.688 E42.97471
G1 X115.702 Y92.045 E43.00329
G1 X115.036 Y91.502 E43.03187
G1 X114.291 Y91.072 E43.06048
G1 X113.487 Y90.765 E43.0891
G1 X112.643 Y90.596 E43.11773
G1 X111.786 Y90.56 E43.14626
G1 X110.932 Y90.663 E43.17487
G1 X110.106 Y90.903 E43.20348
G1 X109.328 Y91.27 E43.23209
G1 X108.619 Y91.761 E43.26078
G1 X108 Y92.357 E43.28936
G1 X107.482 Y93.043 E43.31795
G1 X107.083 Y93.805 E43.34655
G1 F2400 E40.34655
G0 F3600 X108.979 Y94.613
G0 X97.663 Y91.723
G0 X94.889 Y91.014
G0 X72.837 Y85.384
G0 X72.64 Y87.39
G1 F2400 E43.34655
G1 F1800 X127.349 Y87.39 E45.16618
G1 X127.36 Y112.61 E46.005
G1 X72.64 Y112.61 E47.825
G1 X72.64 Y87.39 E48.66382
G1 F2400 E45.66382
G0 F3600 X70.585 Y87.39
G0 X70.586 Y113.052
G0 X70.89 Y113.972
G0 X71.723 Y114.586
G0 X73.396 Y114.665
G0 X73.396 Y112.429
G1 F2400 E48.66382
G1 F1800 X72.819 Y111.852 E48.69096
G0 F3600 X72.819 Y111.286
G1 F1800 X73.962 Y112.429 E48.74472
G0 F3600 X74.528 Y112.429
G1 F1800 X72.819 Y110.72 E48.82511
G0 F3600 X72.819 Y110.155
G1 F1800 X75.094 Y112.429 E48.93209
G0 F3600 X75.659 Y112.429
G1 F1800 X72.819 Y109.589 E49.06568
G0 F3600 X72.819 Y109.023
G1 F1800 X76.225 Y112.429 E49.22589
G0 F3600 X76.791 Y112.429
G1 F1800 X72.819 Y108.458 E49.41269
G0 F3600 X72.819 Y107.892
G1 F1800 X77.356 Y112.429 E49.6261
G0 F3600 X77.922 Y112.429
G1 F1800 X72.819 Y107.326 E49.86613
G0 F3600 X72.819 Y106.761
G1 F1800 X78.488 Y112.429 E50.13276
G0 F3600 X79.053 Y112.429
G1 F1800 X72.819 Y106.195 E50.42599
G0 F3600 X72.819 Y105.629
G1 F1800 X79.619 Y112.429 E50.74584
G0 F3600 X80.185 Y112.429
G1 F1800 X72.819 Y105.064 E51.09229
G0 F3600 X72.819 Y104.498
G1 F1800 X80.75 Y112.429 E51.46534
G0 F3600 X81.316 Y112.429
G1 F1800 X72.819 Y103.932 E51.86501
G0 F3600 X72.819 Y103.366
G1 F1800 X81.882 Y112.429 E52.29131
G0 F3600 X82.447 Y112.429
G1 F1800 X72.819 Y102.801 E52.74418
G0 F3600 X72.819 Y102.235
G1 F1800 X83.013 Y112.429 E53.22367
G0 F3600 X83.579 Y112.429
G1 F1800 X72.819 Y101.669 E53.72979
G0 F3600 X72.819 Y101.104
G1 F1800 X84.144 Y112.429 E54.26248
G0 F3600 X84.71 Y112.429
G1 F1800 X72.819 Y100.538 E54.8218
G0 F3600 X72.819 Y99.972
G1 F1800 X75.68 Y102.833 E54.95637
G0 F3600 X75.816 Y102.969
G1 F1800 X85.276 Y112.429 E55.40134
G0 F3600 X85.842 Y112.429
G1 F1800 X76.382 Y102.969 E55.84631
G0 F3600 X76.948 Y102.969
G1 F1800 X86.407 Y112.429 E56.29126
G0 F3600 X86.973 Y112.429
G1 F1800 X77.513 Y102.969 E56.73623
G0 F3600 X78.079 Y102.969
G1 F1800 X87.539 Y112.429 E57.1812
