;FLAVOR:Marlin
;TIME:300
;Filament used: 0.193189m
;Layer height: 0.2
;MINX:86.106
;MINY:89.733
;MINZ:0.2
;MAXX:113.894
;MAXY:110.267
;MAXZ:10.4
;Generated with Cura_SteamEngine 4.3.0
M140 S50
M105
M190 S50
M104 S195
M105
M109 S195
M82 ;absolute extrusion mode
G21 ;metric values
G90 ;absolute positioning
M82 ;set extruder to absolute mode
M107 ;start with the fan off
G28 X0 Y0 ;move X/Y to min endstops
G28 Z0 ;move Z to min endstops
G1 Z15.0 F120 ;move the platform down 15mm
G92 E0 ;zero the extruded length
G1 F200 E3 ;extrude 6 mm of feed stock
G92 E0 ;zero the extruded length again
G1 F120
;Put printing message on LCD screen
M117 Printing...
G92 E0
G92 E0
G1 F2400 E-3
;LAYER_COUNT:52
;LAYER:0
M107
G0 F3600 X88.792 Y92.017 Z0.2
;TYPE:SKIRT
G1 F2400 E0
G1 F1800 X89.326 Y91.541 E0.02379
G1 X89.909 Y91.127 E0.04758
G1 X90.301 Y90.901 E0.06262
G1 X90.843 Y90.612 E0.08305
G1 X91.492 Y90.311 E0.10685
G1 X92.17 Y90.084 E0.13063
G1 X92.645 Y89.974 E0.14685
G1 X93.035 Y89.899 E0.16006
G1 X93.244 Y89.863 E0.16711
G1 X93.478 Y89.826 E0.17499
G1 X94.366 Y89.748 E0.20464
G1 X95.163 Y89.734 E0.23115
G1 X95.275 Y89.733 E0.23487
G1 X104.788 Y89.733 E0.55128
G1 X104.88 Y89.734 E0.55434
G1 X105.578 Y89.744 E0.57756
G1 X106.261 Y89.79 E0.60032
G1 X106.466 Y89.815 E0.60719
G1 X106.776 Y89.861 E0.61762
G1 X107.177 Y89.93 E0.63115
G1 X107.874 Y90.09 E0.65494
G1 X108.865 Y90.469 E0.69022
G1 X109.204 Y90.632 E0.70274
G1 X109.393 Y90.727 E0.70977
G1 X109.619 Y90.845 E0.71825
G1 X110.234 Y91.211 E0.74205
G1 X110.804 Y91.643 E0.76584
G1 X111.122 Y91.933 E0.78016
G1 X111.391 Y92.195 E0.79265
G1 X111.539 Y92.344 E0.79963
G1 X111.689 Y92.5 E0.80683
G1 X112.156 Y93.043 E0.83065
G1 X112.592 Y93.69 E0.8566
G1 X112.705 Y93.882 E0.86401
G1 X112.898 Y94.236 E0.87742
G1 X113.092 Y94.619 E0.8917
G1 X113.379 Y95.274 E0.91548
G1 X113.592 Y95.957 E0.93928
G1 X113.696 Y96.461 E0.9564
G1 X113.779 Y96.96 E0.97322
G1 X113.864 Y97.864 E1.00342
G1 X113.889 Y98.963 E1.03998
G1 X113.891 Y99.099 E1.04451
G1 X113.894 Y101.1 E1.11106
G1 X113.894 Y101.186 E1.11392
G1 X113.885 Y101.941 E1.13903
G1 X113.808 Y102.852 E1.16944
G1 X113.715 Y103.448 E1.1895
G1 X113.566 Y104.147 E1.21328
G1 X113.339 Y104.826 E1.23709
G1 X113.155 Y105.245 E1.25231
G1 X112.983 Y105.601 E1.26546
G1 X112.886 Y105.793 E1.27261
G1 X112.792 Y105.972 E1.27934
G1 X112.425 Y106.585 E1.3031
G1 X111.931 Y107.223 E1.32994
G1 X111.792 Y107.381 E1.33694
G1 X111.52 Y107.672 E1.35019
G1 X111.199 Y107.994 E1.36531
G1 X110.666 Y108.472 E1.38912
G1 X110.084 Y108.887 E1.4129
G1 X109.574 Y109.177 E1.43241
G1 X109.025 Y109.457 E1.45291
G1 X108.37 Y109.746 E1.47672
G1 X107.688 Y109.96 E1.50049
G1 X107.197 Y110.064 E1.51719
G1 X106.835 Y110.126 E1.5294
G1 X105.971 Y110.214 E1.55829
G1 X104.667 Y110.258 E1.60168
G1 X104.454 Y110.262 E1.60877
G1 X95.208 Y110.267 E1.91629
G1 X95.112 Y110.266 E1.91948
G1 X94.424 Y110.256 E1.94237
G1 X93.549 Y110.183 E1.97157
G1 X92.961 Y110.093 E1.99136
G1 X92.261 Y109.946 E2.01515
G1 X91.582 Y109.721 E2.03894
G1 X91.118 Y109.516 E2.05581
G1 X90.527 Y109.227 E2.07769
G1 X89.903 Y108.878 E2.10147
G1 X89.321 Y108.461 E2.12529
G1 X88.818 Y108.009 E2.14778
G1 X88.399 Y107.591 E2.16746
G1 X87.922 Y107.058 E2.19125
G1 X87.375 Y106.257 E2.22351
G1 X87.266 Y106.068 E2.23077
G1 X87.1 Y105.762 E2.24235
G1 X86.903 Y105.373 E2.25685
G1 X86.616 Y104.718 E2.28064
G1 X86.404 Y104.035 E2.30442
G1 X86.292 Y103.487 E2.32303
G1 X86.213 Y102.99 E2.33976
G1 X86.136 Y102.131 E2.36845
G1 X86.111 Y101.037 E2.40484
G1 X86.109 Y100.9 E2.4094
G1 X86.106 Y98.847 E2.47768
G1 X86.107 Y98.757 E2.48068
G1 X86.116 Y98.05 E2.50419
G1 X86.193 Y97.136 E2.5347
G1 X86.284 Y96.558 E2.55416
G1 X86.434 Y95.858 E2.57797
G1 X86.662 Y95.18 E2.60177
G1 X86.86 Y94.734 E2.618
G1 X87.149 Y94.145 E2.63982
G1 X87.5 Y93.521 E2.66363
G1 X87.918 Y92.941 E2.68741
G1 X88.375 Y92.433 E2.71013
G1 X88.792 Y92.017 E2.72973
G0 F3600 X89.074 Y92.3
G1 F1800 X89.592 Y91.84 E2.75277
G1 X90.159 Y91.443 E2.77579
G1 X90.489 Y91.254 E2.78844
G1 X91.031 Y90.965 E2.80887
G1 X91.66 Y90.675 E2.8319
G1 X92.318 Y90.459 E2.85494
G1 X92.721 Y90.367 E2.86869
G1 X93.111 Y90.292 E2.8819
G1 X93.307 Y90.258 E2.88851
G1 X93.541 Y90.221 E2.89639
G1 X94.373 Y90.148 E2.92417
G1 X95.17 Y90.134 E2.95068
G1 X95.275 Y90.133 E2.95418
G1 X104.788 Y90.133 E3.27058
G1 X104.874 Y90.134 E3.27344
G1 X105.572 Y90.144 E3.29666
G1 X106.212 Y90.187 E3.31799
G1 X106.417 Y90.212 E3.32486
G1 X106.708 Y90.255 E3.33464
G1 X107.109 Y90.324 E3.34818
G1 X107.784 Y90.481 E3.37123
G1 X108.692 Y90.83 E3.40358
G1 X109.031 Y90.993 E3.41609
G1 X109.208 Y91.081 E3.42267
G1 X109.434 Y91.199 E3.43115
G1 X110.028 Y91.555 E3.45418
G1 X110.578 Y91.976 E3.47722
G1 X110.843 Y92.22 E3.4892
G1 X111.112 Y92.482 E3.50169
G1 X111.251 Y92.621 E3.50823
G1 X111.401 Y92.777 E3.51542
G1 X111.851 Y93.303 E3.53845
G1 X112.247 Y93.893 E3.56208
G1 X112.36 Y94.085 E3.56949
G1 X112.542 Y94.417 E3.58208
G1 X112.736 Y94.8 E3.59636
G1 X113.012 Y95.435 E3.61939
G1 X113.214 Y96.097 E3.64241
G1 X113.302 Y96.527 E3.65701
G1 X113.385 Y97.026 E3.67384
G1 X113.464 Y97.874 E3.70216
G1 X113.489 Y98.973 E3.73873
G1 X113.491 Y99.1 E3.74295
G1 X113.494 Y101.101 E3.8095
G1 X113.494 Y101.182 E3.8122
G1 X113.485 Y101.937 E3.83731
G1 X113.413 Y102.79 E3.86578
G1 X113.32 Y103.386 E3.88585
G1 X113.174 Y104.063 E3.90888
G1 X112.951 Y104.719 E3.93192
G1 X112.794 Y105.071 E3.94474
G1 X112.622 Y105.427 E3.95789
G1 X112.532 Y105.607 E3.96459
G1 X112.438 Y105.786 E3.97131
G1 X112.081 Y106.379 E3.99433
G1 X111.631 Y106.959 E4.01875
G1 X111.492 Y107.117 E4.02575
G1 X111.236 Y107.39 E4.0382
G1 X110.915 Y107.712 E4.05332
G1 X110.399 Y108.173 E4.07633
G1 X109.833 Y108.572 E4.09937
G1 X109.392 Y108.821 E4.11621
G1 X108.843 Y109.101 E4.13671
G1 X108.209 Y109.379 E4.15973
G1 X107.547 Y109.583 E4.18277
G1 X107.13 Y109.67 E4.19694
G1 X106.768 Y109.732 E4.20916
G1 X105.957 Y109.815 E4.23627
G1 X104.653 Y109.859 E4.27967
G1 X104.454 Y109.862 E4.28629
G1 X95.208 Y109.867 E4.59381
G1 X95.118 Y109.866 E4.5968
G1 X94.43 Y109.856 E4.61969
G1 X93.609 Y109.788 E4.64709
G1 X93.021 Y109.698 E4.66687
G1 X92.344 Y109.554 E4.68989
G1 X91.688 Y109.333 E4.71292
G1 X91.293 Y109.157 E4.7273
G1 X90.702 Y108.868 E4.74918
G1 X90.099 Y108.528 E4.77221
G1 X89.538 Y108.122 E4.79524
G1 X89.1 Y107.726 E4.81488
G1 X88.681 Y107.308 E4.83456
G1 X88.22 Y106.791 E4.8576
G1 X87.721 Y106.058 E4.88709
G1 X87.612 Y105.869 E4.89435
G1 X87.457 Y105.582 E4.9052
G1 X87.26 Y105.193 E4.9197
G1 X86.984 Y104.558 E4.94273
G1 X86.782 Y103.895 E4.96578
G1 X86.687 Y103.424 E4.98177
G1 X86.608 Y102.927 E4.9985
G1 X86.536 Y102.122 E5.02538
G1 X86.511 Y101.028 E5.06178
G1 X86.509 Y100.9 E5.06604
G1 X86.506 Y98.847 E5.13432
G1 X86.506 Y98.762 E5.13715
G1 X86.515 Y98.055 E5.16067
G1 X86.588 Y97.198 E5.18927
G1 X86.679 Y96.62 E5.20873
G1 X86.826 Y95.943 E5.23178
G1 X87.05 Y95.288 E5.2548
G1 X87.219 Y94.91 E5.26857
G1 X87.508 Y94.321 E5.29039
G1 X87.849 Y93.718 E5.31343
G1 X88.257 Y93.158 E5.33648
G1 X88.657 Y92.716 E5.35631
G1 X89.074 Y92.3 E5.3759
G0 F3600 X89.357 Y92.583
G1 F1800 X89.858 Y92.14 E5.39814
G1 X90.677 Y91.607 E5.43064
G1 X91.219 Y91.318 E5.45107
G1 X91.827 Y91.039 E5.47332
G1 X92.464 Y90.834 E5.49558
G1 X92.796 Y90.76 E5.50689
G1 X93.186 Y90.685 E5.5201
G1 X93.369 Y90.653 E5.52628
G1 X93.603 Y90.616 E5.53416
G1 X94.38 Y90.548 E5.5601
G1 X95.177 Y90.534 E5.58661
G1 X95.275 Y90.533 E5.58987
G1 X104.788 Y90.533 E5.90627
G1 X104.868 Y90.534 E5.90894
G1 X105.566 Y90.544 E5.93215
G1 X106.164 Y90.584 E5.95209
G1 X106.369 Y90.609 E5.95896
G1 X106.641 Y90.649 E5.9681
G1 X107.042 Y90.718 E5.98163
G1 X107.693 Y90.871 E6.00388
G1 X108.519 Y91.19 E6.03333
G1 X108.858 Y91.353 E6.04584
G1 X109.023 Y91.436 E6.05198
G1 X109.249 Y91.554 E6.06046
G1 X109.822 Y91.898 E6.08269
G1 X110.564 Y92.506 E6.1146
G1 X110.833 Y92.768 E6.12708
G1 X110.963 Y92.899 E6.13322
G1 X111.113 Y93.055 E6.14042
G1 X111.547 Y93.564 E6.16267
G1 X111.902 Y94.096 E6.18394
G1 X112.015 Y94.288 E6.19135
G1 X112.185 Y94.598 E6.20311
G1 X112.379 Y94.981 E6.21739
G1 X112.645 Y95.594 E6.23961
G1 X112.836 Y96.236 E6.26189
G1 X112.907 Y96.592 E6.27397
G1 X112.99 Y97.091 E6.29079
G1 X113.065 Y97.883 E6.31725
G1 X113.09 Y98.982 E6.35381
G1 X113.091 Y99.101 E6.35777
G1 X113.094 Y101.102 E6.42433
G1 X113.094 Y101.177 E6.42682
G1 X113.085 Y101.932 E6.45193
G1 X113.018 Y102.728 E6.4785
G1 X112.925 Y103.324 E6.49856
G1 X112.783 Y103.978 E6.52082
G1 X112.434 Y104.897 E6.55352
G1 X112.262 Y105.253 E6.56667
G1 X112.178 Y105.421 E6.57292
G1 X112.084 Y105.6 E6.57964
G1 X111.738 Y106.172 E6.60188
G1 X111.331 Y106.695 E6.62392
G1 X111.192 Y106.853 E6.63092
G1 X110.953 Y107.108 E6.64254
G1 X110.632 Y107.43 E6.65766
G1 X110.132 Y107.874 E6.6799
G1 X109.583 Y108.256 E6.70215
G1 X109.21 Y108.465 E6.71637
G1 X108.661 Y108.745 E6.73687
G1 X108.048 Y109.012 E6.75911
G1 X107.408 Y109.205 E6.78134
G1 X107.062 Y109.276 E6.79309
G1 X106.7 Y109.338 E6.8053
G1 X105.944 Y109.415 E6.83058
G1 X104.64 Y109.459 E6.87397
G1 X104.454 Y109.462 E6.88016
G1 X95.208 Y109.467 E7.18768
G1 X95.124 Y109.466 E7.19048
G1 X94.436 Y109.456 E7.21336
G1 X93.67 Y109.393 E7.23893
G1 X93.082 Y109.303 E7.25871
G1 X92.428 Y109.162 E7.28096
G1 X91.795 Y108.944 E7.30323
G1 X91.469 Y108.798 E7.31511
G1 X90.878 Y108.509 E7.33699
G1 X90.296 Y108.179 E7.35924
G1 X89.757 Y107.783 E7.38149
G1 X89.383 Y107.443 E7.3983
G1 X88.964 Y107.025 E7.41799
G1 X88.519 Y106.525 E7.44025
G1 X88.068 Y105.858 E7.46703
G1 X87.959 Y105.669 E7.47429
G1 X87.814 Y105.401 E7.48442
G1 X87.617 Y105.012 E7.49892
G1 X87.351 Y104.398 E7.52118
G1 X87.16 Y103.757 E7.54342
G1 X87.082 Y103.361 E7.55685
G1 X87.003 Y102.864 E7.57359
G1 X86.935 Y102.113 E7.59867
G1 X86.91 Y101.019 E7.63506
G1 X86.909 Y100.899 E7.63905
G1 X86.906 Y98.846 E7.70734
G1 X86.906 Y98.767 E7.70997
G1 X86.915 Y98.06 E7.73348
G1 X86.983 Y97.26 E7.76019
G1 X87.074 Y96.682 E7.77965
G1 X87.217 Y96.029 E7.80188
G1 X87.438 Y95.397 E7.82415
G1 X87.579 Y95.086 E7.83551
G1 X87.868 Y94.497 E7.85733
G1 X88.198 Y93.915 E7.87958
G1 X88.595 Y93.377 E7.90182
G1 X88.94 Y92.999 E7.91884
G1 X89.357 Y92.583 E7.93843
G0 F3600 X89.639 Y92.867
G1 F1800 X90.123 Y92.44 E7.9599
G1 X90.865 Y91.96 E7.98929
G1 X91.407 Y91.671 E8.00972
G1 X91.994 Y91.403 E8.03118
G1 X92.872 Y91.153 E8.06155
G1 X93.262 Y91.078 E8.07476
G1 X93.432 Y91.048 E8.0805
G1 X93.666 Y91.011 E8.08838
G1 X94.387 Y90.948 E8.11245
G1 X95.184 Y90.934 E8.13896
G1 X95.275 Y90.933 E8.14199
G1 X104.788 Y90.933 E8.45839
G1 X104.862 Y90.934 E8.46085
G1 X105.56 Y90.944 E8.48407
G1 X106.115 Y90.981 E8.50257
G1 X106.32 Y91.006 E8.50944
G1 X106.573 Y91.043 E8.51794
G1 X106.974 Y91.112 E8.53148
G1 X107.601 Y91.261 E8.55291
G1 X108.345 Y91.551 E8.57947
G1 X108.684 Y91.714 E8.59198
G1 X108.838 Y91.79 E8.59769
G1 X109.064 Y91.908 E8.60617
G1 X109.616 Y92.242 E8.62763
G1 X110.285 Y92.793 E8.65646
G1 X110.554 Y93.055 E8.66895
G1 X110.674 Y93.176 E8.67462
G1 X110.824 Y93.332 E8.68181
G1 X111.241 Y93.823 E8.70324
G1 X111.557 Y94.298 E8.72222
G1 X111.67 Y94.49 E8.72963
G1 X111.828 Y94.778 E8.74055
G1 X112.022 Y95.161 E8.75483
G1 X112.277 Y95.753 E8.77627
G1 X112.513 Y96.658 E8.80738
G1 X112.596 Y97.157 E8.8242
G1 X112.665 Y97.892 E8.84876
G1 X112.69 Y98.991 E8.88532
G1 X112.691 Y99.101 E8.88898
G1 X112.694 Y101.102 E8.95553
G1 X112.694 Y101.172 E8.95786
G1 X112.685 Y101.927 E8.98297
G1 X112.623 Y102.667 E9.00767
G1 X112.53 Y103.263 E9.02773
G1 X112.391 Y103.892 E9.04916
G1 X112.074 Y104.723 E9.07874
G1 X111.902 Y105.079 E9.09189
G1 X111.824 Y105.235 E9.09769
G1 X111.73 Y105.414 E9.10442
G1 X111.395 Y105.965 E9.12586
G1 X111.03 Y106.431 E9.14555
G1 X110.891 Y106.589 E9.15255
G1 X110.67 Y106.825 E9.1633
G1 X110.349 Y107.147 E9.17843
G1 X109.866 Y107.575 E9.19989
G1 X109.334 Y107.939 E9.22133
G1 X109.029 Y108.108 E9.23293
G1 X108.48 Y108.388 E9.25343
G1 X107.888 Y108.645 E9.27489
G1 X106.995 Y108.881 E9.30561
G1 X106.633 Y108.943 E9.31783
G1 X105.93 Y109.015 E9.34133
G1 X104.626 Y109.059 E9.38473
G1 X104.454 Y109.062 E9.39045
G1 X95.208 Y109.067 E9.69797
G1 X95.129 Y109.066 E9.7006
G1 X94.441 Y109.056 E9.72349
G1 X93.73 Y108.997 E9.74722
G1 X93.142 Y108.907 E9.767
G1 X92.512 Y108.77 E9.78844
G1 X91.645 Y108.438 E9.81932
G1 X91.054 Y108.149 E9.8412
G1 X90.493 Y107.831 E9.86265
G1 X89.976 Y107.445 E9.88411
G1 X89.665 Y107.159 E9.89816
G1 X89.246 Y106.741 E9.91785
G1 X88.819 Y106.259 E9.93927
G1 X88.414 Y105.658 E9.96337
G1 X88.305 Y105.469 E9.97063
G1 X88.171 Y105.22 E9.98003
G1 X87.974 Y104.831 E9.99453
G1 X87.719 Y104.239 E10.01597
G1 X87.539 Y103.62 E10.03741
G1 X87.477 Y103.298 E10.04832
G1 X87.398 Y102.801 E10.06506
G1 X87.335 Y102.104 E10.08834
G1 X87.31 Y101.01 E10.12473
G1 X87.309 Y100.899 E10.12842
G1 X87.306 Y98.846 E10.19671
G1 X87.306 Y98.772 E10.19917
G1 X87.315 Y98.065 E10.22268
G1 X87.378 Y97.322 E10.24749
G1 X87.469 Y96.744 E10.26695
G1 X87.609 Y96.115 E10.28838
G1 X87.938 Y95.262 E10.31879
G1 X88.227 Y94.673 E10.34061
G1 X88.546 Y94.113 E10.36204
G1 X88.932 Y93.597 E10.38348
G1 X89.222 Y93.283 E10.39769
G1 X89.639 Y92.867 E10.41728
G1 F2400 E7.41728
;MESH:USB-Nox.stl
G0 F3600 X92.724 Y96.181
G0 X93.902 Y97.355
;TYPE:WALL-INNER
G1 F2400 E10.41728
G1 F1800 X94.189 Y97.203 E10.42809
G1 X94.592 Y97.133 E10.44169
G1 X105.416 Y97.133 E10.8017
G1 X105.804 Y97.194 E10.81476
G1 X106.072 Y97.331 E10.82477
G1 X106.278 Y97.537 E10.83446
G1 X106.434 Y97.835 E10.84565
G1 X106.489 Y98.181 E10.8573
G1 X106.495 Y101.786 E10.97721
G1 X106.434 Y102.171 E10.99017
G1 X106.304 Y102.427 E10.99972
G1 X106.067 Y102.671 E11.01103
G1 X105.804 Y102.806 E11.02087
G1 X105.449 Y102.861 E11.03281
G1 X94.584 Y102.867 E11.39419
G1 X94.22 Y102.809 E11.40644
G1 X93.923 Y102.664 E11.41744
G1 X93.722 Y102.463 E11.42689
G1 X93.566 Y102.165 E11.43808
G1 X93.511 Y101.817 E11.4498
G1 X93.505 Y98.212 E11.5697
G1 X93.563 Y97.85 E11.58189
G1 X93.711 Y97.547 E11.59311
G1 X93.902 Y97.355 E11.60212
G0 F3600 X93.664 Y97.028
G1 F1800 X94.057 Y96.82 E11.61691
G1 X94.557 Y96.733 E11.63379
G1 X105.446 Y96.733 E11.99596
G1 X105.929 Y96.809 E12.01222
G1 X106.311 Y97.004 E12.02648
G1 X106.603 Y97.296 E12.04022
G1 X106.819 Y97.707 E12.05566
G1 X106.889 Y98.15 E12.07058
G1 X106.895 Y101.817 E12.19254
G1 X106.819 Y102.297 E12.20871
G1 X106.634 Y102.662 E12.22232
G1 X106.31 Y102.996 E12.23779
G1 X105.927 Y103.191 E12.25209
G1 X105.479 Y103.261 E12.26717
G1 X94.553 Y103.267 E12.63057
G1 X94.099 Y103.195 E12.64586
G1 X93.686 Y102.993 E12.66115
G1 X93.397 Y102.704 E12.67474
G1 X93.181 Y102.293 E12.69019
G1 X93.111 Y101.848 E12.70517
G1 X93.105 Y98.182 E12.8271
G1 X93.177 Y97.728 E12.84239
G1 X93.381 Y97.312 E12.8578
G1 X93.664 Y97.028 E12.87114
G0 F3600 X93.426 Y96.701
;TYPE:WALL-OUTER
G1 F1800 X93.925 Y96.437 E12.88991
G1 X94.522 Y96.333 E12.91007
G1 X105.477 Y96.333 E13.27443
G1 X106.052 Y96.424 E13.2938
G1 X106.551 Y96.678 E13.31242
G1 X106.928 Y97.055 E13.33015
G1 X107.204 Y97.579 E13.34985
G1 X107.289 Y98.12 E13.36806
G1 X107.295 Y101.848 E13.49206
G1 X107.204 Y102.423 E13.51142
G1 X106.964 Y102.895 E13.52903
G1 X106.55 Y103.322 E13.54881
G1 X106.052 Y103.576 E13.56741
G1 X105.509 Y103.661 E13.58569
G1 X94.523 Y103.667 E13.95108
G1 X93.977 Y103.581 E13.96947
G1 X93.449 Y103.322 E13.98903
G1 X93.072 Y102.945 E14.00676
G1 X92.796 Y102.421 E14.02646
G1 X92.711 Y101.88 E14.04467
G1 X92.705 Y98.152 E14.16867
G1 X92.791 Y97.606 E14.18705
G1 X93.051 Y97.077 E14.20666
G1 X93.426 Y96.701 E14.22432
G0 F3600 X93.602 Y96.608
G0 X94.137 Y97.672
;TYPE:SKIN
G1 F1800 X94.319 Y97.576 E14.23116
G1 X94.624 Y97.523 E14.24146
G1 X105.382 Y97.523 E14.59927
G1 X105.684 Y97.57 E14.60944
G1 X105.842 Y97.651 E14.61534
G1 X105.959 Y97.768 E14.62084
G1 X106.058 Y97.955 E14.62788
G1 X106.099 Y98.218 E14.63674
G1 X106.105 Y101.751 E14.75424
G1 X106.057 Y102.053 E14.76441
G1 X105.984 Y102.198 E14.76981
G1 X105.833 Y102.353 E14.77701
G1 X105.684 Y102.43 E14.78259
G1 X105.415 Y102.471 E14.79164
G1 X94.619 Y102.477 E15.15072
G1 X94.34 Y102.433 E15.16011
G1 X94.147 Y102.338 E15.16727
G1 X94.041 Y102.232 E15.17225
G1 X93.943 Y102.045 E15.17927
G1 X93.901 Y101.781 E15.18816
G1 X93.895 Y98.242 E15.30587
